OutOfControl/Assets/Art/ColorGrading/Ridley Scott - Blade Runner LUT/Ridley Scott - Blade Runner.CUBE
#Created by: Adobe Photoshop Export Color Lookup Plugin
TITLE "Ridley Scott - Blade Runner LUT.psd"
#LUT size
LUT_3D_SIZE 32
#data domain
DOMAIN_MIN 0.0 0.0 0.0
DOMAIN_MAX 1.0 1.0 1.0
#LUT data points
0.000000 0.000000 0.000000
0.012848 0.000000 0.000000
0.025269 0.000000 0.000000
0.038025 0.000000 0.000000
0.051178 0.000000 0.000000
0.064606 0.000000 0.000000
0.082428 0.000000 0.009521
0.100372 0.000000 0.019318
0.119049 0.000000 0.029053
0.136719 0.000000 0.039856
0.160339 0.003632 0.059204
0.186981 0.008850 0.084900
0.213440 0.014282 0.109955
0.238617 0.019745 0.135223
0.267395 0.026062 0.147522
0.296783 0.031799 0.152222
0.323669 0.037384 0.157349
0.347565 0.043213 0.162872
0.368225 0.037537 0.183167
0.385590 0.031281 0.204163
0.402283 0.024353 0.223877
0.414764 0.033752 0.232056
0.424561 0.054230 0.232056
0.434387 0.073761 0.232056
0.444122 0.096985 0.232056
0.453888 0.122681 0.232056
0.463531 0.148071 0.232056
0.474060 0.165527 0.238800
0.485474 0.171936 0.254700
0.496918 0.178833 0.270172
0.505890 0.188477 0.282104
0.512878 0.200714 0.291290
0.000000 0.022766 0.041412
0.003632 0.022095 0.046814
0.017609 0.022095 0.045654
0.031555 0.021576 0.043091
0.045898 0.021332 0.041534
0.062836 0.022491 0.041534
0.082550 0.027100 0.049500
0.102051 0.027496 0.056519
0.120605 0.027374 0.064606
0.139923 0.026978 0.072754
0.180115 0.026855 0.085754
0.210907 0.029602 0.106720
0.236053 0.035706 0.130157
0.260864 0.041138 0.153015
0.283661 0.035431 0.157349
0.312317 0.040741 0.160431
0.337006 0.046173 0.164856
0.357452 0.051819 0.171936
0.374451 0.054596 0.185394
0.390686 0.049133 0.204773
0.406281 0.042816 0.223877
0.418274 0.063843 0.231201
0.428314 0.084656 0.232056
0.437805 0.103394 0.232056
0.446442 0.119293 0.232056
0.455261 0.139465 0.232056
0.464935 0.164093 0.232056
0.473419 0.178497 0.235107
0.483582 0.184875 0.247162
0.495026 0.190948 0.262970
0.506104 0.201508 0.278046
0.513885 0.213440 0.288300
0.000000 0.045776 0.082184
0.000000 0.046692 0.090424
0.006439 0.044495 0.093719
0.021057 0.044495 0.092133
0.036072 0.044250 0.090424
0.053986 0.045776 0.091278
0.077606 0.050293 0.098694
0.097351 0.054871 0.106262
0.115997 0.057037 0.113281
0.136505 0.056519 0.120819
0.182526 0.056274 0.133606
0.221924 0.056030 0.146637
0.252625 0.058929 0.163757
0.276276 0.064117 0.183594
0.298340 0.064362 0.189941
0.318787 0.058044 0.193451
0.342926 0.061829 0.196777
0.363098 0.060333 0.197418
0.379395 0.066620 0.205780
0.395538 0.066376 0.220367
0.411072 0.068512 0.235413
0.423370 0.094330 0.239166
0.434753 0.117310 0.241608
0.444580 0.135223 0.241333
0.452728 0.147858 0.240692
0.461334 0.165070 0.239166
0.470520 0.186676 0.238983
0.478333 0.192841 0.243103
0.488464 0.198334 0.253540
0.500122 0.206604 0.267761
0.511292 0.218475 0.282104
0.518982 0.229401 0.291595
0.000000 0.069000 0.123047
0.000000 0.072144 0.131653
0.000000 0.072144 0.136841
0.010315 0.070648 0.138672
0.025543 0.070648 0.136719
0.046051 0.070892 0.138214
0.070160 0.074524 0.144684
0.092865 0.079346 0.151794
0.111877 0.084290 0.159149
0.134766 0.087372 0.166718
0.181274 0.087128 0.178497
0.222809 0.086853 0.190338
0.259979 0.086609 0.202332
0.291107 0.087738 0.212830
0.312164 0.093597 0.220734
0.331604 0.087494 0.224457
0.349335 0.081329 0.228149
0.367035 0.074158 0.227966
0.382751 0.074646 0.231964
0.397797 0.081451 0.240295
0.411438 0.094574 0.247345
0.423645 0.119415 0.250977
0.435944 0.143921 0.254791
0.446930 0.164093 0.258209
0.455780 0.176147 0.259247
0.463715 0.188263 0.258270
0.471008 0.201508 0.258728
0.478271 0.209015 0.262970
0.486298 0.214905 0.266968
0.496948 0.220734 0.272552
0.508026 0.231873 0.285950
0.518738 0.242432 0.299133
0.000000 0.109009 0.160767
0.000000 0.116608 0.165527
0.000000 0.122467 0.169891
0.000000 0.118011 0.176147
0.014557 0.117798 0.175262
0.037903 0.114960 0.174530
0.068146 0.109955 0.173096
0.094086 0.111511 0.177856
0.114838 0.115784 0.184448
0.138672 0.119049 0.190948
0.171295 0.118835 0.198120
0.211731 0.118500 0.208313
0.249817 0.118256 0.219757
0.283508 0.119873 0.228241
0.312256 0.125061 0.231293
0.331909 0.126221 0.236542
0.349609 0.119659 0.240295
0.367798 0.127594 0.247345
0.383484 0.129333 0.250458
0.398407 0.135223 0.258545
0.410889 0.143677 0.268890
0.421844 0.159149 0.278381
0.433960 0.182129 0.281525
0.445221 0.197296 0.280884
0.455078 0.204773 0.278381
0.462830 0.216003 0.276886
0.471802 0.222229 0.282532
0.480316 0.225739 0.291046
0.488281 0.231476 0.294281
0.497284 0.243835 0.301208
0.507965 0.255157 0.310730
0.518585 0.264984 0.322327
0.000000 0.148071 0.208923
0.000000 0.155579 0.214020
0.000000 0.162445 0.216217
0.000000 0.164642 0.214417
0.003632 0.163544 0.212341
0.028534 0.160431 0.211548
0.058929 0.156006 0.210632
0.088715 0.151550 0.209137
0.117310 0.147736 0.209015
0.142761 0.149536 0.215698
0.175385 0.149200 0.222626
0.207214 0.148773 0.229675
0.239349 0.149536 0.237854
0.273590 0.152679 0.244385
0.303101 0.158691 0.247528
0.329956 0.163757 0.250275
0.349823 0.158936 0.254791
0.368225 0.168121 0.262085
0.383942 0.178497 0.270081
0.398834 0.187836 0.275024
0.410919 0.196777 0.285492
0.421112 0.206604 0.296875
0.431946 0.219482 0.304840
0.442902 0.231964 0.303101
0.452942 0.236725 0.297577
0.462402 0.243195 0.294678
0.471527 0.247894 0.301880
0.481476 0.247711 0.314117
0.489594 0.249634 0.317657
0.498657 0.263672 0.323944
0.508301 0.277069 0.332764
0.518921 0.286469 0.345062
0.000000 0.185089 0.258026
0.000000 0.195770 0.261993
0.000000 0.206604 0.264984
0.000000 0.216797 0.264984
0.000000 0.216095 0.260315
0.012054 0.218872 0.258270
0.041534 0.217590 0.257477
0.072510 0.213623 0.256409
0.103149 0.208923 0.255341
0.141052 0.203156 0.254608
0.176361 0.198334 0.257568
0.207916 0.197601 0.263580
0.238312 0.196991 0.269745
0.269562 0.200500 0.278534
0.299438 0.204987 0.282196
0.326874 0.209839 0.284729
0.350128 0.211243 0.286957
0.367340 0.214233 0.283173
0.383148 0.222809 0.290649
0.398224 0.232635 0.296722
0.408203 0.240112 0.299683
0.418823 0.249359 0.310425
0.429138 0.258728 0.320618
0.439362 0.261993 0.326263
0.449463 0.266968 0.320740
0.459656 0.271301 0.316650
0.470764 0.277222 0.322266
0.480652 0.276978 0.333038
0.489655 0.276642 0.339355
0.499878 0.283081 0.342133
0.509125 0.296967 0.347931
0.519196 0.306274 0.360077
0.000000 0.236176 0.302734
0.000000 0.246246 0.307404
0.000000 0.257385 0.310425
0.000000 0.267151 0.311890
0.000000 0.270599 0.309082
0.000000 0.272980 0.307251
0.018799 0.276031 0.306488
0.045776 0.279297 0.305206
0.076874 0.276367 0.304626
0.130402 0.272888 0.304016
0.175049 0.266113 0.302795
0.211731 0.258453 0.302185
0.241882 0.257660 0.307312
0.267853 0.257477 0.308350
0.298584 0.260956 0.317657
0.326263 0.264374 0.324371
0.349152 0.267242 0.326721
0.365234 0.266785 0.320831
0.379578 0.266296 0.312836
0.395081 0.274414 0.319275
0.404846 0.277893 0.322845
0.413391 0.282104 0.325226
0.423553 0.290405 0.334198
0.434326 0.293640 0.340790
0.444672 0.293182 0.346619
0.454926 0.296570 0.342682
0.466614 0.304169 0.347015
0.478271 0.311798 0.353210
0.488434 0.311310 0.361145
0.499817 0.310730 0.359985
0.510284 0.315155 0.361176
0.519592 0.324768 0.366943
0.000000 0.283325 0.336151
0.000000 0.293182 0.339417
0.000000 0.301666 0.343231
0.000000 0.309784 0.345764
0.000000 0.316376 0.347137
0.006317 0.316986 0.347443
0.006042 0.319427 0.346375
0.032318 0.322052 0.345551
0.059448 0.324768 0.345001
0.104950 0.323273 0.341217
0.167908 0.320190 0.340729
0.204987 0.314117 0.339935
0.240692 0.307251 0.339111
0.272308 0.306641 0.339935
0.298645 0.307617 0.343292
0.326385 0.310730 0.351105
0.346497 0.314209 0.356537
0.362701 0.314117 0.356873
0.377319 0.313477 0.349945
0.390869 0.312836 0.343048
0.402863 0.312897 0.345245
0.411316 0.316650 0.347260
0.420044 0.320099 0.349365
0.431183 0.325714 0.353485
0.441528 0.325104 0.358826
0.451721 0.324707 0.363983
0.463501 0.326660 0.367706
0.475494 0.334076 0.372620
0.487701 0.340912 0.376160
0.499237 0.340729 0.374603
0.510193 0.340607 0.374084
0.519867 0.342499 0.375824
0.000000 0.322540 0.364594
0.000000 0.329895 0.367615
0.000000 0.336700 0.369537
0.000000 0.342926 0.371704
0.002960 0.349426 0.373230
0.010712 0.351624 0.373901
0.020782 0.351318 0.374756
0.032440 0.351776 0.374939
0.059692 0.354431 0.374512
0.103729 0.352814 0.370850
0.149750 0.350006 0.366180
0.192841 0.346802 0.362946
0.229187 0.341156 0.362610
0.267487 0.341156 0.364532
0.302277 0.341156 0.366394
0.329346 0.343292 0.371521
0.347504 0.345764 0.375244
0.358826 0.348724 0.376617
0.372437 0.349731 0.374664
0.386414 0.349426 0.369537
0.401855 0.349152 0.366089
0.414124 0.349670 0.366333
0.422882 0.352539 0.368286
0.433319 0.352081 0.370300
0.443420 0.351654 0.372589
0.453857 0.351776 0.376892
0.463928 0.354980 0.381378
0.474365 0.358551 0.385864
0.486938 0.363525 0.388641
0.500183 0.366333 0.388214
0.511536 0.366547 0.387817
0.520294 0.366272 0.388275
0.000000 0.354095 0.386810
0.000000 0.359558 0.389618
0.000000 0.365356 0.391815
0.000000 0.371155 0.393402
0.008057 0.375061 0.393555
0.019989 0.378174 0.391449
0.029602 0.377960 0.392395
0.040222 0.377838 0.393158
0.062103 0.377747 0.395081
0.102417 0.376129 0.394379
0.148438 0.374298 0.390503
0.192932 0.372345 0.386322
0.228821 0.370300 0.384766
0.267242 0.370300 0.385712
0.302185 0.370300 0.387634
0.330261 0.370300 0.388428
0.346252 0.371704 0.388489
0.357422 0.373718 0.389893
0.368195 0.375916 0.391205
0.382294 0.377136 0.390564
0.398010 0.376892 0.387665
0.413239 0.376678 0.384857
0.424561 0.376221 0.388428
0.434937 0.376007 0.390411
0.445312 0.375854 0.391602
0.455994 0.376221 0.392731
0.466187 0.378601 0.396942
0.475433 0.379822 0.401245
0.485962 0.380737 0.403229
0.499359 0.383270 0.402740
0.511963 0.385376 0.402283
0.521088 0.386139 0.402893
0.000000 0.378693 0.402313
0.000000 0.382996 0.405457
0.000000 0.386810 0.407867
0.001617 0.391022 0.409424
0.008057 0.395325 0.409698
0.026581 0.398132 0.407043
0.049896 0.397888 0.403320
0.066376 0.396790 0.402191
0.077850 0.396362 0.402740
0.108765 0.393982 0.403564
0.140350 0.392303 0.406769
0.179565 0.390503 0.405518
0.222137 0.389343 0.403046
0.261292 0.389313 0.402679
0.296875 0.389221 0.402405
0.329071 0.389160 0.403931
0.348480 0.390564 0.404083
0.362488 0.392548 0.403717
0.373077 0.394531 0.404358
0.384247 0.395538 0.404846
0.397980 0.395386 0.404053
0.412201 0.395203 0.402222
0.423920 0.394165 0.402130
0.430267 0.391571 0.403839
0.439087 0.390656 0.405518
0.450378 0.391296 0.408295
0.462799 0.393677 0.414795
0.473480 0.395782 0.419250
0.484955 0.397034 0.420685
0.498322 0.399200 0.420227
0.511169 0.401337 0.419495
0.519318 0.401794 0.420624
0.000000 0.398132 0.418427
0.000000 0.402283 0.420898
0.000000 0.405762 0.423218
0.004700 0.409943 0.424438
0.010712 0.413971 0.424866
0.014008 0.417053 0.424530
0.030518 0.417999 0.420746
0.057037 0.416321 0.416870
0.085266 0.415009 0.413727
0.118713 0.413635 0.411804
0.148773 0.411804 0.414154
0.179047 0.409943 0.417511
0.212250 0.408203 0.419037
0.252716 0.408661 0.420044
0.289520 0.408508 0.419403
0.322540 0.408478 0.419098
0.345306 0.408478 0.420288
0.359680 0.410553 0.419739
0.372864 0.412537 0.419220
0.384216 0.413544 0.418884
0.397919 0.413391 0.417999
0.411133 0.413208 0.417267
0.423431 0.412994 0.416473
0.429962 0.410492 0.417969
0.436279 0.408020 0.419647
0.445740 0.407776 0.422882
0.458374 0.409760 0.428802
0.470734 0.412048 0.434998
0.483948 0.413513 0.437744
0.497375 0.415497 0.437195
0.510254 0.417664 0.436554
0.518799 0.417725 0.437347
0.000000 0.416443 0.435028
0.000000 0.418976 0.436066
0.000000 0.421600 0.436646
0.000000 0.424469 0.437195
0.000000 0.427124 0.437195
0.000000 0.429718 0.436646
0.004578 0.432098 0.435883
0.024078 0.432281 0.432648
0.054993 0.431335 0.430054
0.092377 0.432648 0.430939
0.129700 0.434021 0.432373
0.165955 0.433899 0.436096
0.201599 0.432343 0.436829
0.243469 0.430481 0.434937
0.273834 0.427460 0.433990
0.308136 0.427307 0.433777
0.333405 0.427277 0.435181
0.355103 0.427246 0.435211
0.370300 0.428467 0.434113
0.382294 0.429047 0.433807
0.393890 0.429718 0.434845
0.406372 0.430481 0.436340
0.418274 0.430298 0.435944
0.428253 0.430145 0.434326
0.435516 0.428711 0.434021
0.446106 0.429199 0.436981
0.459930 0.431183 0.439301
0.472809 0.433228 0.444183
0.486298 0.433380 0.448303
0.497772 0.433289 0.453918
0.510559 0.435089 0.453339
0.521118 0.434906 0.451385
0.000000 0.428070 0.446045
0.000000 0.431396 0.447754
0.000000 0.433868 0.448608
0.000000 0.436676 0.448975
0.003510 0.439362 0.449097
0.010193 0.442932 0.449799
0.017883 0.446777 0.450348
0.025269 0.449860 0.450073
0.037659 0.449524 0.448303
0.064972 0.449951 0.447998
0.103271 0.451294 0.448883
0.143005 0.452698 0.451141
0.189087 0.453400 0.453979
0.233673 0.452576 0.453186
0.273590 0.450714 0.451355
0.298035 0.447449 0.451080
0.323944 0.447388 0.452606
0.346924 0.447296 0.454071
0.366577 0.447174 0.452789
0.383545 0.445740 0.450470
0.395386 0.445526 0.450104
0.406769 0.446960 0.452698
0.416351 0.447693 0.455048
0.427094 0.447601 0.454651
0.435974 0.447296 0.452362
0.446259 0.448822 0.451538
0.459015 0.450562 0.454895
0.473450 0.452606 0.456329
0.487427 0.452576 0.458588
0.499817 0.452423 0.462860
0.510529 0.452454 0.468231
0.520233 0.453064 0.468414
0.000000 0.441498 0.457642
0.000000 0.444519 0.459137
0.000000 0.449371 0.462463
0.004578 0.453247 0.464569
0.011780 0.457123 0.465637
0.019073 0.461029 0.466736
0.025787 0.464813 0.467621
0.032593 0.468567 0.468262
0.044250 0.469788 0.468201
0.066376 0.469666 0.467438
0.088715 0.469452 0.466797
0.114716 0.469513 0.466278
0.161774 0.469940 0.467529
0.212128 0.469971 0.468811
0.258362 0.469971 0.470123
0.294281 0.468719 0.469910
0.320465 0.468689 0.471283
0.344330 0.468658 0.472931
0.364532 0.468628 0.474030
0.381775 0.467102 0.471802
0.397888 0.465088 0.469635
0.412323 0.463989 0.468445
0.421661 0.464569 0.470581
0.430206 0.464600 0.472137
0.439056 0.464508 0.472351
0.449310 0.466064 0.471619
0.459900 0.467896 0.470978
0.472595 0.469604 0.471863
0.486572 0.469391 0.473267
0.499847 0.469116 0.474640
0.510284 0.469757 0.478943
0.518982 0.471466 0.482422
0.000000 0.457672 0.472351
0.000000 0.461761 0.475433
0.000000 0.466431 0.478943
0.000000 0.471069 0.482208
0.003632 0.475006 0.484161
0.010437 0.478455 0.484833
0.018921 0.481567 0.484955
0.026978 0.484833 0.484741
0.027374 0.487305 0.484802
0.041138 0.487122 0.485596
0.064117 0.487000 0.485016
0.087006 0.486786 0.484436
0.118378 0.486511 0.481628
0.178406 0.485413 0.480103
0.228912 0.485352 0.481354
0.277130 0.484924 0.482605
0.308350 0.484161 0.483887
0.331329 0.484222 0.485352
0.353333 0.484222 0.486664
0.372620 0.485046 0.487335
0.388885 0.484833 0.486908
0.405029 0.482971 0.484833
0.418335 0.481964 0.484955
0.428711 0.481262 0.485870
0.437439 0.481293 0.487366
0.452972 0.483063 0.489441
0.464905 0.484955 0.489288
0.475555 0.486786 0.488983
0.485748 0.488373 0.492126
0.499054 0.488190 0.493683
0.510376 0.488586 0.494171
0.519012 0.490448 0.494629
0.000000 0.474945 0.488342
0.000000 0.478027 0.490723
0.000000 0.482361 0.493683
0.000000 0.486115 0.496155
0.000000 0.489624 0.498413
0.001068 0.493683 0.500305
0.003784 0.496643 0.499756
0.004425 0.499664 0.499420
0.003906 0.502838 0.499817
0.008057 0.503723 0.500427
0.025543 0.503510 0.501099
0.049774 0.503174 0.501831
0.085144 0.503357 0.499878
0.123749 0.502960 0.496643
0.189941 0.501526 0.494812
0.249268 0.500061 0.493683
0.305054 0.498474 0.494934
0.324219 0.498352 0.496216
0.338409 0.498352 0.497467
0.360504 0.498352 0.497223
0.378784 0.499725 0.498444
0.395172 0.501617 0.499939
0.409180 0.501709 0.501648
0.422424 0.499939 0.501495
0.435303 0.498505 0.501373
0.447388 0.500488 0.504242
0.464569 0.502472 0.505890
0.479340 0.503754 0.506714
0.490295 0.505371 0.508148
0.499695 0.507050 0.511292
0.509369 0.507935 0.514038
0.518066 0.509125 0.514221
0.000000 0.494263 0.504150
0.000000 0.497437 0.506653
0.000000 0.501801 0.509521
0.000000 0.504150 0.511292
0.000000 0.507843 0.512390
0.000000 0.510376 0.513000
0.000000 0.512695 0.513458
0.000000 0.515869 0.513977
0.000000 0.518585 0.514648
0.000000 0.520203 0.514832
0.000793 0.518982 0.515625
0.022491 0.518860 0.516388
0.068634 0.519928 0.516998
0.114960 0.521118 0.517883
0.165955 0.521027 0.516815
0.226318 0.520081 0.515656
0.278625 0.520050 0.515381
0.318359 0.519958 0.515503
0.334503 0.519958 0.516571
0.359772 0.519958 0.516266
0.380341 0.520172 0.516205
0.396729 0.521881 0.517792
0.412415 0.521942 0.519135
0.428253 0.521790 0.520142
0.440826 0.520752 0.520172
0.451599 0.522430 0.521790
0.463715 0.524017 0.523743
0.477417 0.524170 0.524414
0.487366 0.522339 0.524261
0.498260 0.522675 0.525391
0.510925 0.524261 0.527283
0.524323 0.525818 0.528442
0.000000 0.512482 0.521393
0.000000 0.515198 0.522278
0.000000 0.518280 0.523804
0.000000 0.520752 0.524750
0.000000 0.523804 0.525940
0.000000 0.526428 0.526581
0.000000 0.529449 0.527222
0.000000 0.532379 0.528351
0.000275 0.534851 0.530090
0.004303 0.537018 0.530609
0.005096 0.536407 0.531189
0.007233 0.534821 0.531433
0.050415 0.535889 0.532318
0.097595 0.537109 0.533051
0.142761 0.538269 0.533875
0.196686 0.538849 0.533051
0.251709 0.538849 0.532288
0.300354 0.538849 0.531830
0.332642 0.538849 0.532867
0.355377 0.538879 0.533569
0.376984 0.538879 0.533417
0.395569 0.539795 0.533661
0.413940 0.540771 0.535980
0.429443 0.540802 0.537506
0.445038 0.540863 0.538177
0.455627 0.541962 0.539642
0.466187 0.543732 0.541107
0.475800 0.543762 0.542603
0.485992 0.542389 0.542389
0.497070 0.540619 0.541534
0.510101 0.541534 0.542084
0.523987 0.542847 0.543060
0.000000 0.526154 0.535767
0.000000 0.528839 0.536621
0.000000 0.531403 0.537292
0.000000 0.534790 0.539215
0.000000 0.537994 0.541229
0.000000 0.541046 0.542877
0.000000 0.544861 0.545288
0.000000 0.547852 0.546692
0.000122 0.550598 0.547760
0.004974 0.552856 0.548462
0.010193 0.553894 0.548706
0.018005 0.552704 0.548615
0.049774 0.552673 0.545868
0.090912 0.553741 0.546783
0.132355 0.554932 0.547729
0.186035 0.555359 0.549561
0.241974 0.555359 0.548187
0.291504 0.555359 0.546478
0.329346 0.555359 0.545837
0.349945 0.555359 0.546631
0.367859 0.555389 0.547852
0.386749 0.555389 0.547821
0.407715 0.556702 0.550415
0.428162 0.558411 0.553345
0.442871 0.559143 0.555481
0.453766 0.559204 0.556793
0.464508 0.559387 0.558258
0.476624 0.559967 0.558807
0.488464 0.559967 0.558563
0.499359 0.559418 0.558258
0.511444 0.560547 0.559479
0.523804 0.562225 0.560608
0.000000 0.540588 0.552399
0.000000 0.543182 0.554138
0.000000 0.546844 0.556152
0.000000 0.549774 0.557495
0.000000 0.552917 0.558990
0.000000 0.556000 0.560425
0.000000 0.559387 0.562225
0.000000 0.562256 0.563538
0.000000 0.566010 0.564606
0.000000 0.569397 0.565338
0.005096 0.571503 0.565643
0.019745 0.570984 0.565704
0.055634 0.569458 0.565094
0.090302 0.569458 0.563599
0.130859 0.570526 0.564453
0.173981 0.572632 0.566254
0.222229 0.573975 0.568115
0.274414 0.573975 0.566254
0.315216 0.573364 0.565094
0.342987 0.572266 0.564880
0.361755 0.572266 0.565979
0.380554 0.572906 0.566467
0.402100 0.574463 0.566956
0.422882 0.575928 0.569855
0.441589 0.575989 0.570282
0.455933 0.575073 0.569885
0.466461 0.575073 0.571167
0.476868 0.575073 0.573761
0.488495 0.575073 0.574249
0.499908 0.575073 0.573883
0.512573 0.577911 0.575165
0.524475 0.579498 0.576752
0.000000 0.555206 0.567871
0.000000 0.557617 0.569397
0.000000 0.561615 0.571625
0.000000 0.564880 0.573822
0.000000 0.567413 0.575958
0.000000 0.570312 0.579010
0.000000 0.573914 0.580200
0.000000 0.577667 0.581299
0.000000 0.581238 0.582092
0.000000 0.584442 0.582092
0.000122 0.587891 0.582092
0.022888 0.589691 0.583130
0.059082 0.588470 0.582581
0.094452 0.587006 0.582184
0.127014 0.585846 0.581818
0.170746 0.588013 0.583649
0.212830 0.590546 0.585846
0.262604 0.591644 0.587067
0.307251 0.590546 0.586456
0.338226 0.588959 0.586060
0.360748 0.588593 0.585815
0.380280 0.589661 0.585815
0.402100 0.591248 0.585327
0.420441 0.592621 0.585999
0.438507 0.592438 0.585876
0.455658 0.590820 0.584015
0.468964 0.589355 0.582214
0.479340 0.589355 0.584869
0.489594 0.589355 0.587341
0.501190 0.589600 0.588379
0.513916 0.592560 0.589569
0.525330 0.594940 0.591431
0.000000 0.570862 0.581390
0.000000 0.573486 0.583588
0.000000 0.576569 0.586151
0.000000 0.579742 0.588898
0.000000 0.582001 0.590637
0.000000 0.584869 0.594208
0.000000 0.587555 0.597656
0.000000 0.590759 0.598541
0.000000 0.594299 0.598175
0.000000 0.597992 0.597748
0.000000 0.601929 0.598206
0.004303 0.605011 0.599548
0.059692 0.604279 0.596863
0.099884 0.602692 0.595856
0.136719 0.601288 0.595154
0.158478 0.601593 0.595490
0.179993 0.603271 0.596832
0.222015 0.605774 0.598816
0.274841 0.605804 0.601074
0.323944 0.604279 0.602600
0.352539 0.602783 0.602386
0.373535 0.604095 0.602142
0.392731 0.606598 0.601685
0.414246 0.607910 0.601410
0.433868 0.608459 0.602417
0.452637 0.607727 0.602295
0.468781 0.606140 0.600433
0.482880 0.607574 0.601440
0.493774 0.607880 0.603912
0.503937 0.607697 0.605469
0.513062 0.606232 0.605194
0.524994 0.608765 0.606201
0.000000 0.585266 0.596130
0.000000 0.587830 0.596405
0.000000 0.590973 0.598175
0.000000 0.594482 0.601837
0.000000 0.596985 0.604462
0.000000 0.600159 0.606720
0.000000 0.602295 0.608459
0.000000 0.605438 0.610504
0.000000 0.608032 0.611267
0.000000 0.611664 0.612061
0.000000 0.615204 0.612976
0.000000 0.618378 0.614624
0.009247 0.620789 0.615387
0.068146 0.619263 0.612244
0.121521 0.617920 0.609741
0.189941 0.616333 0.609283
0.200073 0.617188 0.609741
0.204285 0.618225 0.610504
0.229095 0.617828 0.610626
0.285706 0.616425 0.612701
0.338470 0.615051 0.615204
0.376465 0.616486 0.618042
0.394470 0.619263 0.617920
0.411041 0.622253 0.617432
0.424896 0.622498 0.618286
0.445404 0.622498 0.619354
0.464783 0.622284 0.619843
0.481812 0.623047 0.619690
0.495483 0.624542 0.620789
0.507355 0.625305 0.621613
0.516663 0.624176 0.621124
0.525269 0.622711 0.620941
0.000000 0.601349 0.612854
0.000000 0.604462 0.613861
0.000000 0.607391 0.614655
0.000000 0.610962 0.615692
0.000000 0.613647 0.617950
0.000000 0.616028 0.619751
0.000000 0.618073 0.621307
0.000000 0.620636 0.622894
0.000000 0.622589 0.623993
0.000000 0.624634 0.625305
0.000000 0.627533 0.628357
0.000000 0.631073 0.631256
0.000000 0.634125 0.633453
0.017365 0.634735 0.633362
0.081940 0.633514 0.630371
0.165955 0.633301 0.628571
0.226501 0.632111 0.627808
0.231201 0.633301 0.628448
0.239166 0.632111 0.625885
0.258453 0.630798 0.624695
0.317230 0.629395 0.627014
0.375397 0.630157 0.629547
0.409454 0.632446 0.632019
0.425293 0.635223 0.631622
0.433136 0.635468 0.632599
0.447388 0.635498 0.633606
0.466156 0.635498 0.634644
0.479462 0.635529 0.635498
0.493835 0.636902 0.636322
0.506989 0.638367 0.636505
0.518799 0.639282 0.635162
0.527313 0.637848 0.634979
0.000000 0.613953 0.626892
0.000000 0.617401 0.628632
0.000000 0.620789 0.630280
0.000000 0.624329 0.632019
0.000000 0.626587 0.634033
0.000000 0.628815 0.635590
0.000000 0.631165 0.637085
0.000000 0.632782 0.638336
0.000000 0.634644 0.639526
0.000000 0.636139 0.640442
0.000000 0.639099 0.642334
0.000000 0.642029 0.645325
0.000000 0.644989 0.648041
0.000000 0.647675 0.650848
0.035187 0.647949 0.650665
0.123749 0.647736 0.648895
0.204163 0.647522 0.647064
0.254425 0.647217 0.646179
0.262604 0.645996 0.643280
0.271027 0.644531 0.640198
0.296875 0.643158 0.639099
0.364441 0.644104 0.641541
0.411652 0.645447 0.643890
0.440125 0.647552 0.645111
0.446594 0.647552 0.646088
0.452942 0.647522 0.647125
0.468140 0.647858 0.648010
0.480347 0.647888 0.649109
0.491730 0.647705 0.650146
0.504730 0.648926 0.649963
0.517151 0.650299 0.648071
0.529480 0.650940 0.647644
0.000000 0.624603 0.640961
0.000000 0.628326 0.643890
0.000000 0.631866 0.646881
0.000000 0.635132 0.649231
0.000000 0.636749 0.649994
0.000000 0.639282 0.651215
0.000000 0.642059 0.652435
0.000000 0.643066 0.653351
0.000000 0.645081 0.654480
0.000000 0.646790 0.655792
0.000000 0.649445 0.657043
0.000000 0.651642 0.658325
0.000000 0.655121 0.660706
0.000000 0.658417 0.662811
0.016022 0.660370 0.665131
0.083801 0.661194 0.665039
0.168884 0.660919 0.663361
