OutOfControl/Assets/Art/ColorGrading/Ridley Scott - Blade Runner LUT/Ridley Scott - Blade Runner.CUBE
#Created by: Adobe Photoshop Export Color Lookup Plugin
TITLE "Ridley Scott - Blade Runner LUT.psd"
#LUT size
LUT_3D_SIZE 5
#data domain
#LUT data points
DOMAIN_MIN 0.000000 0.000000 0.000000
DOMAIN_MAX 0.903226 0.903226 0.903226
0.000000 0.000000 0.000000
0.100372 0.000000 0.019318
0.267395 0.026062 0.147522
0.414764 0.033752 0.232056
0.485474 0.171936 0.254700
0.000000 0.236176 0.302734
0.045776 0.279297 0.305206
0.298584 0.260956 0.317657
0.413391 0.282104 0.325226
0.488434 0.311310 0.361145
0.000000 0.428070 0.446045
0.025269 0.449860 0.450073
0.273590 0.450714 0.451355
0.406769 0.446960 0.452698
0.487427 0.452576 0.458588
0.000000 0.540588 0.552399
0.000000 0.562256 0.563538
0.130859 0.570526 0.564453
0.380554 0.572906 0.566467
0.488495 0.575073 0.574249
0.000000 0.636810 0.658600
0.000000 0.653503 0.667999
0.021851 0.670441 0.675049
0.358643 0.669617 0.668488
0.500610 0.673248 0.678284
0.000000 0.000000 0.084778
0.091888 0.000000 0.116241
0.274261 0.010712 0.210419
0.414764 0.042969 0.273926
0.479858 0.180634 0.293884
0.000000 0.198242 0.326813
0.016296 0.260864 0.372681
0.258728 0.264374 0.380585
0.403961 0.267670 0.389832
0.487762 0.310211 0.405884
0.000000 0.412598 0.466370
0.027496 0.433990 0.486969
0.175262 0.449249 0.488098
0.394165 0.448242 0.490448
0.476410 0.454224 0.493042
0.000000 0.524170 0.569214
0.000000 0.545624 0.583954
0.027618 0.568970 0.599274
0.327515 0.572021 0.594238
0.476166 0.571960 0.599792
0.000000 0.624115 0.668091
0.000000 0.643097 0.687195
0.000000 0.661102 0.700806
0.255066 0.673401 0.701050
0.478271 0.672668 0.707001
0.000000 0.000000 0.216797
0.047852 0.000000 0.239075
0.260864 0.000000 0.282043
0.409698 0.055389 0.337799
0.474792 0.187622 0.355988
0.000000 0.212830 0.380066
0.000000 0.274689 0.416016
0.226990 0.270782 0.428680
0.398956 0.286469 0.436340
0.476776 0.306793 0.441040
0.000000 0.402740 0.480194
0.017365 0.416107 0.498383
0.151550 0.440918 0.524994
0.364655 0.451599 0.526703
0.471741 0.452820 0.529633
0.000000 0.508057 0.583435
0.000000 0.525146 0.603821
0.000000 0.552704 0.622589
0.251434 0.574677 0.632996
0.454132 0.577087 0.637054
0.000000 0.609467 0.683807
0.000000 0.629333 0.707153
0.000000 0.649231 0.721436
0.100006 0.666840 0.729767
0.431580 0.676025 0.731476
0.000000 0.000000 0.329742
0.028778 0.000000 0.350128
0.212128 0.007507 0.355316
0.402740 0.060455 0.391876
0.467499 0.180115 0.402802
0.000000 0.248352 0.436401
0.000000 0.280548 0.467987
0.156891 0.279785 0.468872
0.382172 0.296570 0.479340
0.468109 0.319214 0.487396
0.000000 0.401123 0.505676
0.008057 0.416321 0.521851
0.144684 0.432556 0.541656
0.322052 0.449524 0.563477
0.447876 0.451141 0.576965
0.000000 0.505310 0.604126
0.000000 0.518738 0.621613
0.029449 0.533600 0.636597
0.234253 0.562714 0.660645
0.406372 0.578003 0.670380
0.000000 0.600189 0.691406
0.000000 0.614685 0.712616
0.000000 0.636658 0.736145
0.017883 0.653168 0.750183
0.392426 0.673584 0.762512
0.000000 0.000000 0.401062
0.019318 0.014435 0.412262
0.196899 0.042816 0.420044
0.391327 0.078491 0.434753
0.463196 0.198425 0.448883
0.000000 0.283508 0.497589
0.000000 0.288544 0.516663
0.064606 0.280212 0.517883
0.359039 0.306274 0.515656
0.457916 0.323059 0.521912
0.000000 0.408112 0.541809
0.000000 0.429504 0.564423
0.022369 0.445496 0.587769
0.163879 0.455383 0.608704
0.428070 0.454651 0.609497
0.000000 0.505310 0.613953
0.000000 0.519073 0.631989
0.000000 0.534607 0.654999
0.252258 0.551849 0.673309
0.420135 0.572174 0.694214
0.000000 0.600067 0.708099
0.000000 0.612762 0.724182
0.000000 0.626984 0.745880
0.109253 0.643646 0.761566
0.389618 0.663483 0.780823
