OutOfControl/Assets/Art/ColorGrading/Ridley Scott - Blade Runner LUT/Ridley Scott - Blade Runner.CUBE
#Created by: Adobe Photoshop Export Color Lookup Plugin
TITLE "Ridley Scott - Blade Runner LUT.psd"
#LUT size
LUT_3D_SIZE 8
#data domain
#LUT data points
DOMAIN_MIN 0.000000 0.000000 0.000000
DOMAIN_MAX 0.903226 0.903226 0.903226
0.000000 0.000000 0.000000
0.051178 0.000000 0.000000
0.119049 0.000000 0.029053
0.213440 0.014282 0.109955
0.323669 0.037384 0.157349
0.402283 0.024353 0.223877
0.444122 0.096985 0.232056
0.485474 0.171936 0.254700
0.000000 0.109009 0.160767
0.014557 0.117798 0.175262
0.114838 0.115784 0.184448
0.249817 0.118256 0.219757
0.349609 0.119659 0.240295
0.410889 0.143677 0.268890
0.455078 0.204773 0.278381
0.488281 0.231476 0.294281
0.000000 0.283325 0.336151
0.000000 0.316376 0.347137
0.059448 0.324768 0.345001
0.240692 0.307251 0.339111
0.346497 0.314209 0.356537
0.402863 0.312897 0.345245
0.441528 0.325104 0.358826
0.487701 0.340912 0.376160
0.000000 0.398132 0.418427
0.010712 0.413971 0.424866
0.085266 0.415009 0.413727
0.212250 0.408203 0.419037
0.345306 0.408478 0.420288
0.397919 0.413391 0.417999
0.436279 0.408020 0.419647
0.483948 0.413513 0.437744
0.000000 0.457672 0.472351
0.003632 0.475006 0.484161
0.027374 0.487305 0.484802
0.118378 0.486511 0.481628
0.308350 0.484161 0.483887
0.388885 0.484833 0.486908
0.437439 0.481293 0.487366
0.485748 0.488373 0.492126
0.000000 0.526154 0.535767
0.000000 0.537994 0.541229
0.000122 0.550598 0.547760
0.049774 0.552673 0.545868
0.241974 0.555359 0.548187
0.367859 0.555389 0.547852
0.442871 0.559143 0.555481
0.488464 0.559967 0.558563
0.000000 0.585266 0.596130
0.000000 0.596985 0.604462
0.000000 0.608032 0.611267
0.009247 0.620789 0.615387
0.200073 0.617188 0.609741
0.338470 0.615051 0.615204
0.424896 0.622498 0.618286
0.495483 0.624542 0.620789
0.000000 0.636810 0.658600
0.000000 0.646454 0.666168
0.000000 0.655884 0.668915
0.000000 0.664948 0.671814
0.135345 0.673645 0.677399
0.323273 0.669739 0.667633
0.446838 0.672546 0.671967
0.500610 0.673248 0.678284
0.000000 0.000000 0.047852
0.024994 0.000000 0.061829
0.126434 0.000000 0.076996
0.218781 0.006317 0.143555
0.323669 0.030762 0.190765
0.402283 0.030518 0.241791
0.443207 0.096985 0.254608
0.482971 0.175720 0.270264
0.000000 0.093842 0.182739
0.000000 0.109009 0.230835
0.087006 0.118256 0.248169
0.233124 0.119049 0.276031
0.343475 0.134521 0.295563
0.407104 0.141266 0.307251
0.451996 0.203857 0.315369
0.485199 0.238220 0.333923
0.000000 0.256226 0.351257
0.000000 0.294464 0.371979
0.005768 0.324097 0.377319
0.239166 0.313202 0.373138
0.334503 0.312836 0.373993
0.395172 0.311737 0.377411
0.440216 0.331787 0.391113
0.487152 0.334320 0.402191
0.000000 0.385376 0.428070
0.020782 0.401794 0.439819
0.058319 0.416565 0.444305
0.179352 0.407776 0.433624
0.325989 0.411987 0.441925
0.387146 0.412842 0.443359
0.439819 0.411316 0.437561
0.483856 0.415497 0.451508
0.000000 0.447693 0.480713
0.000000 0.463806 0.493073
0.014160 0.477997 0.501099
0.068878 0.486511 0.502808
0.267334 0.484222 0.500977
0.383606 0.483887 0.503296
0.433441 0.480713 0.502533
0.478149 0.487976 0.507904
0.000000 0.517059 0.551239
0.000000 0.527985 0.553345
0.000000 0.541046 0.562683
0.040741 0.553680 0.566681
0.205261 0.555145 0.565704
0.353485 0.555084 0.567352
0.429901 0.555573 0.568024
0.483459 0.559540 0.576447
0.000000 0.574738 0.605072
0.000000 0.588562 0.613464
0.000000 0.600830 0.626221
0.000000 0.614899 0.630310
0.132690 0.620331 0.630035
0.279541 0.614868 0.628143
0.421967 0.622253 0.638672
0.484436 0.621765 0.636688
0.000000 0.629883 0.664032
0.000000 0.639313 0.672699
0.000000 0.649170 0.680389
0.000000 0.659271 0.686768
0.042297 0.671844 0.691895
0.255585 0.671265 0.686493
0.409576 0.672302 0.688629
0.491974 0.671722 0.692230
0.000000 0.000000 0.096985
0.000000 0.000000 0.124115
0.121521 0.000000 0.135925
0.226227 0.000000 0.188477
0.324493 0.020538 0.236053
0.402283 0.040894 0.268890
0.443207 0.096985 0.293182
0.479126 0.180634 0.302734
0.000000 0.100006 0.232239
0.002686 0.111267 0.277374
0.064484 0.118011 0.303406
0.192017 0.124573 0.330414
0.332184 0.130157 0.345428
0.401123 0.136261 0.346252
0.448761 0.198334 0.354340
0.484650 0.247345 0.364838
0.000000 0.246246 0.364014
0.000000 0.270844 0.379730
0.017212 0.312256 0.401459
0.201904 0.319214 0.403046
0.317566 0.306732 0.400513
0.389618 0.315430 0.403900
0.433777 0.328003 0.417511
0.483704 0.329803 0.424744
0.000000 0.371582 0.433472
0.000000 0.386292 0.446594
0.040497 0.401459 0.457886
0.132812 0.409607 0.457397
0.296173 0.412537 0.464996
0.380676 0.410553 0.465271
0.432098 0.413788 0.465057
0.482361 0.417816 0.470612
0.000000 0.437714 0.493805
0.000000 0.454803 0.512512
0.000793 0.468231 0.519165
0.064362 0.479797 0.521973
0.215698 0.487244 0.525757
0.369446 0.485840 0.523224
0.422028 0.480469 0.518341
0.470001 0.489166 0.527618
0.000000 0.506958 0.560089
0.000000 0.517853 0.566467
0.000000 0.530670 0.576630
0.000000 0.543732 0.584991
0.103516 0.557343 0.586975
0.284485 0.555450 0.582214
0.418335 0.556458 0.589355
0.471039 0.556976 0.590607
0.000000 0.565094 0.614807
0.000000 0.578491 0.626953
0.000000 0.593689 0.638580
0.000000 0.609680 0.646667
0.000000 0.615997 0.648712
0.149994 0.621399 0.653107
0.402344 0.621765 0.655518
0.465698 0.624115 0.657532
0.000000 0.622314 0.669678
0.000000 0.634705 0.683197
0.000000 0.644623 0.692993
0.000000 0.654114 0.700409
0.000000 0.663666 0.705627
0.183380 0.672760 0.702820
0.385071 0.672913 0.705170
0.473633 0.672516 0.710938
0.000000 0.000000 0.175934
0.000000 0.000000 0.197601
0.092133 0.000000 0.204773
0.214905 0.000000 0.232819
0.324097 0.009918 0.280304
0.399048 0.041260 0.310211
0.442291 0.094818 0.330811
0.476471 0.183380 0.338593
0.000000 0.116364 0.309479
0.000000 0.114227 0.337006
0.046295 0.123291 0.348785
0.174316 0.124573 0.360718
0.329498 0.125061 0.377594
0.393890 0.137299 0.380249
0.445343 0.189301 0.384979
0.481567 0.248535 0.393982
0.000000 0.252350 0.384949
0.000000 0.276031 0.398590
0.043091 0.302277 0.417419
0.172455 0.320038 0.430756
0.295868 0.299591 0.431671
0.380493 0.328552 0.434753
0.429993 0.331207 0.439514
0.476685 0.329132 0.442749
0.000000 0.369507 0.443817
0.000000 0.376038 0.455414
0.058563 0.386200 0.465027
0.132935 0.401337 0.478943
0.238312 0.412842 0.490204
0.374664 0.409882 0.486359
0.421661 0.415009 0.492889
0.471039 0.417206 0.498535
0.000000 0.430389 0.504913
0.000000 0.441711 0.518982
0.000000 0.458496 0.531952
0.040619 0.471069 0.541656
0.150879 0.485962 0.545624
0.336884 0.487488 0.549438
0.415710 0.483795 0.545593
0.464935 0.488708 0.547882
0.000000 0.496338 0.564270
0.000000 0.508179 0.576019
0.000000 0.519714 0.586090
0.000000 0.534088 0.596161
0.049652 0.550262 0.606110
0.234436 0.557281 0.604950
0.395203 0.556732 0.611450
0.463959 0.557343 0.608673
0.000000 0.555756 0.622528
0.000000 0.569092 0.635254
0.000000 0.584259 0.651672
0.000000 0.599487 0.661621
0.002167 0.609680 0.665588
0.059570 0.617981 0.666626
0.379395 0.621582 0.670624
0.460999 0.621918 0.670868
0.000000 0.614136 0.680328
0.000000 0.626038 0.692902
0.000000 0.636047 0.704987
0.000000 0.646820 0.713531
0.000000 0.658051 0.719696
0.100616 0.668945 0.721710
0.327789 0.674377 0.725800
0.444061 0.675140 0.722168
0.000000 0.000000 0.255341
0.000000 0.000000 0.273071
0.072144 0.000000 0.273743
0.187622 0.000000 0.280060
0.315948 0.000000 0.324768
0.391968 0.041260 0.355103
0.439056 0.105408 0.365845
0.473389 0.186249 0.371582
0.000000 0.117554 0.364471
0.000000 0.117310 0.382263
0.000000 0.136261 0.389526
0.159912 0.128662 0.392151
0.317657 0.129913 0.400177
0.391602 0.152466 0.409332
0.439911 0.204285 0.416168
0.476593 0.247894 0.419373
0.000000 0.263855 0.413513
0.000000 0.288544 0.425598
0.020538 0.314270 0.442200
0.098450 0.313477 0.454895
0.286285 0.315063 0.458862
0.368103 0.323669 0.459137
0.429718 0.324951 0.462097
0.469604 0.334320 0.467163
0.000000 0.369507 0.454926
0.000000 0.374756 0.467834
0.042175 0.384155 0.476898
0.158478 0.391205 0.486084
0.251984 0.403564 0.506531
0.354889 0.412140 0.513306
0.412384 0.414093 0.516724
0.462158 0.414093 0.519073
0.000000 0.428253 0.515808
0.000000 0.436829 0.525940
0.000275 0.448608 0.538849
0.045654 0.461334 0.554718
0.152924 0.474121 0.563416
0.282532 0.485748 0.568970
0.405487 0.484924 0.569672
0.451782 0.488373 0.569122
0.000000 0.490082 0.571960
0.000000 0.496063 0.582275
0.000000 0.509460 0.594910
0.005646 0.524689 0.605927
0.021057 0.541229 0.615814
0.180847 0.555573 0.628662
0.355591 0.558624 0.630371
0.444977 0.558411 0.632080
0.000000 0.548309 0.628326
0.000000 0.562012 0.641541
0.000000 0.576172 0.660919
0.000000 0.588776 0.670380
0.000000 0.601013 0.676880
0.120697 0.610809 0.682098
0.362640 0.622528 0.686676
0.438690 0.623444 0.689117
0.000000 0.607117 0.687347
0.000000 0.616577 0.699127
0.000000 0.628143 0.712463
0.000000 0.640961 0.721130
0.000000 0.651733 0.730499
0.026703 0.660767 0.736816
0.233490 0.671722 0.741272
0.416473 0.676025 0.742371
0.000000 0.000000 0.316498
0.000000 0.000000 0.335876
0.053986 0.000000 0.336273
0.150452 0.008698 0.339111
0.299683 0.000000 0.356873
0.389496 0.045258 0.382172
0.436462 0.116364 0.393921
0.469055 0.180115 0.397125
0.000000 0.120697 0.402283
0.000000 0.122009 0.415710
0.000000 0.132233 0.416870
0.119751 0.138794 0.420441
0.299530 0.136627 0.430908
0.387939 0.159027 0.431396
0.437408 0.231873 0.445679
0.473145 0.257294 0.446136
0.000000 0.275696 0.433990
0.000000 0.305969 0.453979
0.003357 0.323547 0.472351
0.064240 0.315948 0.481567
0.255859 0.321045 0.481750
0.356812 0.325989 0.482544
0.420837 0.327515 0.487427
0.464661 0.339233 0.490784
0.000000 0.374512 0.477936
0.000000 0.381165 0.491516
0.011261 0.390839 0.499268
0.133026 0.396454 0.507538
0.224640 0.406769 0.523041
0.319824 0.414124 0.536560
0.403015 0.415344 0.541107
0.450378 0.410919 0.537964
0.000000 0.428162 0.524139
0.000000 0.436249 0.534149
0.000275 0.446106 0.546936
0.040894 0.458099 0.563232
0.167603 0.466003 0.569977
0.267670 0.477173 0.581299
0.379028 0.484589 0.589874
0.440613 0.488617 0.588165
0.000000 0.490753 0.585785
0.000000 0.495758 0.596497
0.000000 0.504059 0.604889
0.030243 0.513794 0.613708
0.116608 0.529846 0.628052
0.226593 0.545959 0.642303
0.304932 0.560455 0.647705
0.429688 0.557831 0.649292
0.000000 0.545837 0.634521
0.000000 0.555908 0.648560
0.000000 0.566193 0.664612
0.000000 0.578522 0.675049
0.000000 0.591797 0.682983
0.057037 0.604889 0.696808
0.246613 0.617157 0.705719
0.413391 0.627075 0.709167
0.000000 0.600189 0.688965
0.000000 0.609558 0.702972
0.000000 0.618896 0.714355
0.000000 0.630829 0.725739
0.000000 0.644806 0.740540
0.006317 0.651398 0.746643
0.215302 0.665039 0.752777
0.393951 0.675354 0.758698
0.000000 0.000000 0.364746
0.000000 0.001068 0.379486
0.043091 0.000275 0.381958
0.118256 0.014282 0.384094
0.278534 0.004852 0.389069
0.389404 0.057037 0.402557
0.436462 0.116364 0.417206
0.464447 0.191376 0.423920
0.000000 0.125763 0.431213
0.000000 0.127136 0.442932
0.000000 0.137756 0.443909
0.074158 0.140594 0.441589
0.294037 0.148071 0.463928
0.382996 0.170959 0.461975
0.430115 0.233887 0.460480
0.472107 0.259247 0.475830
0.000000 0.295410 0.467102
0.000000 0.316223 0.485992
0.000000 0.325226 0.502319
0.049652 0.320679 0.508179
0.196167 0.321045 0.501190
0.336151 0.333038 0.512268
0.413849 0.339111 0.511688
0.468536 0.339233 0.509430
0.000000 0.376282 0.501678
0.000000 0.388611 0.515869
0.005920 0.397125 0.523132
0.029602 0.406372 0.533051
0.086609 0.414307 0.549774
0.244568 0.417725 0.561188
0.391632 0.416840 0.562286
0.446045 0.411285 0.556000
0.000000 0.429535 0.537506
0.000000 0.439880 0.549683
0.000000 0.449005 0.562012
0.032593 0.459290 0.574707
0.110657 0.467041 0.584473
0.267151 0.474762 0.589630
0.369080 0.483704 0.605774
0.418060 0.490692 0.621765
0.000000 0.492859 0.598175
0.000000 0.496399 0.603424
0.000000 0.506378 0.614594
0.000000 0.513702 0.622894
0.106384 0.523865 0.635376
0.264465 0.534149 0.646179
0.327057 0.549194 0.659882
0.403931 0.559753 0.671204
0.000000 0.545837 0.646362
0.000000 0.555908 0.659363
0.000000 0.563385 0.669739
0.000000 0.571747 0.680511
0.007782 0.581482 0.691437
0.076996 0.591736 0.703156
0.228333 0.607819 0.714661
0.373535 0.623627 0.725922
0.000000 0.600189 0.698669
0.000000 0.606140 0.709320
0.000000 0.612671 0.717621
0.000000 0.623962 0.731598
0.000000 0.636993 0.746063
0.024078 0.647888 0.755127
0.148438 0.658325 0.762604
0.370758 0.671082 0.773621
0.000000 0.000000 0.401062
0.000000 0.014954 0.409607
0.029602 0.014160 0.411652
0.151794 0.040497 0.417664
0.266632 0.029999 0.422150
0.376709 0.067871 0.432587
0.427704 0.119293 0.440369
0.463196 0.198425 0.448883
0.000000 0.143799 0.468719
0.000000 0.139252 0.477264
0.000000 0.136719 0.476410
0.052216 0.147064 0.479279
0.268707 0.165955 0.488251
0.372864 0.177216 0.483582
0.417877 0.230621 0.483521
0.465027 0.264465 0.495239
0.000000 0.314270 0.502991
0.000000 0.326111 0.516266
0.000000 0.331085 0.526428
0.000397 0.319977 0.533661
0.111267 0.320251 0.527069
0.300812 0.332581 0.531616
0.400055 0.340546 0.531616
0.455414 0.339111 0.531189
0.000000 0.380981 0.522736
0.000000 0.393768 0.538910
0.000000 0.403046 0.552032
0.000000 0.413818 0.565643
0.019989 0.419281 0.579498
0.166168 0.420837 0.585815
0.372253 0.416748 0.584381
0.437042 0.416443 0.583160
0.000000 0.437744 0.562286
0.000000 0.449524 0.575714
0.000000 0.459808 0.588531
0.000000 0.465057 0.595184
0.068756 0.474091 0.606720
0.211731 0.483459 0.616669
0.298187 0.490692 0.629578
0.401459 0.494141 0.637177
0.000000 0.493408 0.605377
0.000000 0.496765 0.608337
0.000000 0.506989 0.619995
0.000000 0.516083 0.633789
0.000000 0.523956 0.646454
0.232727 0.533783 0.655945
0.355103 0.543304 0.668488
0.417908 0.555420 0.682281
0.000000 0.545837 0.659088
0.000000 0.555573 0.671143
0.000000 0.563629 0.679077
0.000000 0.573181 0.690674
0.014008 0.579254 0.697998
0.098328 0.587128 0.708160
0.285309 0.598907 0.720612
0.394257 0.613739 0.734894
0.000000 0.600067 0.708099
0.000000 0.606140 0.717133
0.000000 0.614349 0.726349
0.000000 0.620911 0.738342
0.000000 0.633301 0.753265
0.079620 0.641937 0.760651
0.277710 0.652740 0.772003
0.389618 0.663483 0.780823
