OutOfControl/Assets/Art/ColorGrading/Ridley Scott - Blade Runner LUT/Ridley Scott - Blade Runner.3DL
#Created by: Adobe Photoshop Export Color Lookup Plugin
#Description: Ridley Scott - Blade Runner LUT.psd
0 33 66 99 132 165 198 231 264 297 330 363 396 429 462 495 528 561 594 627 660 693 726 759 792 825 858 891 924 957 990 1023
0 0 0
0 0 49
0 0 97
0 0 148
0 0 196
0 0 245
0 0 296
0 0 347
0 0 397
0 0 457
0 0 545
0 0 636
0 0 720
0 0 807
0 0 888
0 0 968
0 0 1046
0 0 1116
0 0 1178
0 0 1238
0 0 1296
0 0 1350
0 0 1402
0 0 1450
0 0 1494
0 0 1534
0 0 1571
0 0 1607
0 0 1642
0 0 1677
0 4 1711
0 20 1741
0 93 170
0 84 193
0 93 235
0 101 292
0 111 349
0 114 403
0 116 456
0 116 507
0 116 593
0 115 701
0 114 797
0 113 881
0 113 962
0 113 1037
0 112 1110
0 106 1174
0 93 1226
0 82 1279
0 82 1333
0 82 1386
0 82 1433
0 82 1478
0 92 1516
0 106 1549
0 111 1584
0 111 1619
0 111 1655
0 111 1690
0 111 1724
0 111 1759
0 116 1790
0 131 1819
0 187 337
0 174 363
0 172 386
0 177 419
0 186 466
0 194 519
0 207 575
0 214 639
0 223 726
0 227 829
0 230 930
0 231 1024
0 234 1111
0 235 1190
0 242 1258
0 228 1312
0 212 1361
0 193 1410
0 181 1455
0 177 1500
0 177 1541
0 191 1573
0 205 1605
0 217 1637
0 226 1669
0 226 1704
0 226 1738
0 226 1771
0 225 1804
0 225 1838
0 229 1869
0 244 1897
0 283 504
0 272 529
0 260 548
0 262 573
0 267 602
0 275 643
0 281 690
0 287 759
0 302 842
0 315 937
0 323 1037
0 335 1128
0 344 1212
0 351 1291
0 358 1352
0 359 1404
0 350 1447
0 334 1489
0 318 1527
0 302 1561
0 303 1595
0 317 1628
0 331 1661
0 344 1695
0 355 1728
0 368 1762
0 368 1801
0 363 1836
0 357 1873
0 355 1906
0 351 1942
0 376 1976
0 446 658
0 428 674
0 402 701
0 379 719
0 384 748
0 384 783
0 388 834
0 401 894
0 410 951
0 422 1014
0 440 1096
0 460 1186
0 477 1267
0 487 1337
0 485 1394
0 485 1450
0 481 1493
0 476 1533
0 472 1569
0 474 1605
0 494 1647
0 485 1672
0 488 1701
0 502 1734
0 515 1766
0 527 1802
0 558 1844
0 589 1885
0 589 1919
0 588 1954
0 586 1989
0 571 2019
0 606 856
0 589 867
0 566 879
0 541 883
0 527 904
0 527 938
0 527 973
0 528 1008
0 540 1072
0 552 1135
0 561 1197
0 573 1255
0 589 1321
0 598 1382
0 604 1438
0 605 1487
0 616 1536
0 626 1582
0 627 1618
0 651 1658
0 673 1696
0 683 1729
0 659 1748
0 639 1767
0 654 1800
0 669 1838
0 691 1876
0 734 1919
0 780 1964
0 796 2002
0 797 2032
0 792 2061
0 758 1057
0 729 1072
0 705 1086
0 683 1094
0 659 1097
0 654 1120
0 656 1149
0 662 1180
0 669 1210
0 679 1260
0 688 1315
0 694 1361
0 697 1402
0 700 1439
0 701 1474
0 712 1524
0 726 1567
0 758 1618
0 777 1656
0 806 1693
0 838 1733
0 865 1769
0 848 1787
0 834 1804
0 841 1839
0 862 1878
0 881 1913
0 925 1957
0 973 2003
0 994 2038
0 999 2068
0 997 2099
0 967 1240
0 935 1259
0 899 1270
0 870 1280
0 837 1285
0 803 1286
0 808 1311
0 812 1338
0 819 1362
0 824 1387
0 832 1418
0 841 1456
0 852 1493
0 862 1526
0 872 1556
0 881 1586
0 893 1615
0 922 1658
0 948 1692
0 964 1718
0 989 1751
0 1017 1787
0 1020 1812
0 1018 1834
0 1043 1877
0 1062 1914
0 1084 1954
0 1121 1996
0 1161 2038
0 1166 2069
0 1170 2096
0 1175 2126
0 1160 1377
0 1130 1403
0 1105 1422
0 1081 1433
0 1049 1438
0 1019 1441
0 999 1448
0 1005 1470
0 1008 1491
0 1016 1509
0 1020 1528
0 1023 1546
0 1033 1576
0 1044 1605
0 1054 1634
0 1067 1665
0 1080 1693
0 1086 1711
0 1095 1728
0 1108 1750
0 1129 1777
0 1147 1807
0 1166 1836
0 1183 1870
0 1210 1913
0 1237 1958
0 1260 1998
0 1278 2033
0 1287 2060
0 1291 2088
0 1298 2118
0 1302 2146
0 1321 1493
0 1299 1514
0 1273 1532
0 1252 1543
0 1234 1554
0 1210 1560
0 1189 1565
0 1179 1573
0 1183 1591
0 1189 1608
0 1192 1625
0 1198 1642
0 1202 1659
0 1210 1683
0 1224 1712
0 1232 1732
0 1238 1749
0 1246 1767
0 1253 1785
0 1261 1803
0 1264 1819
0 1268 1837
0 1281 1863
0 1296 1901
0 1314 1939
0 1335 1979
0 1351 2015
0 1367 2053
0 1383 2082
0 1397 2110
0 1404 2139
0 1411 2168
0 1450 1584
0 1431 1598
0 1411 1605
0 1387 1612
0 1367 1618
0 1350 1630
0 1335 1641
0 1320 1650
0 1321 1666
0 1325 1683
0 1329 1699
0 1333 1715
0 1331 1728
0 1331 1739
0 1334 1753
0 1340 1770
0 1348 1788
0 1350 1804
0 1354 1822
0 1358 1839
0 1360 1855
0 1370 1879
0 1379 1907
0 1385 1934
0 1394 1968
0 1412 2005
0 1429 2042
0 1438 2070
0 1453 2100
0 1468 2128
0 1481 2156
0 1493 2187
0 1551 1647
0 1539 1659
0 1521 1668
0 1506 1678
0 1487 1687
0 1471 1693
0 1455 1701
0 1440 1711
0 1430 1722
0 1433 1738
0 1432 1750
0 1432 1762
0 1432 1774
0 1432 1785
0 1432 1797
0 1432 1808
0 1434 1824
0 1438 1840
0 1440 1858
0 1447 1878
0 1460 1907
0 1464 1933
0 1469 1960
0 1473 1986
0 1478 2012
0 1482 2037
0 1494 2068
0 1495 2087
0 1508 2116
0 1523 2145
0 1540 2177
0 1553 2206
0 1630 1713
0 1618 1727
0 1602 1735
0 1591 1745
0 1578 1753
0 1564 1759
0 1550 1764
0 1537 1769
0 1522 1775
0 1513 1783
0 1513 1795
0 1513 1806
0 1513 1817
0 1513 1829
0 1513 1840
0 1513 1851
0 1513 1863
0 1514 1877
0 1525 1905
0 1532 1933
0 1534 1957
0 1535 1981
0 1538 2006
0 1539 2031
0 1541 2054
0 1545 2078
0 1551 2102
0 1555 2121
0 1560 2141
0 1578 2172
0 1591 2201
0 1603 2230
0 1705 1781
0 1694 1795
0 1682 1805
0 1671 1819
0 1657 1825
0 1643 1830
0 1630 1837
0 1614 1840
0 1600 1844
0 1584 1841
0 1582 1850
0 1582 1862
0 1582 1873
0 1582 1884
0 1582 1895
0 1582 1908
0 1582 1921
0 1582 1934
0 1580 1948
0 1583 1973
0 1584 1998
0 1587 2022
0 1589 2046
0 1591 2071
0 1598 2095
0 1603 2119
0 1610 2143
0 1613 2163
0 1619 2183
0 1627 2204
0 1637 2225
0 1648 2253
0 1753 1827
0 1743 1840
0 1737 1853
0 1731 1865
0 1722 1881
0 1717 1899
0 1706 1909
0 1690 1910
0 1678 1915
0 1661 1917
0 1649 1918
0 1649 1928
0 1649 1940
0 1649 1953
0 1649 1966
0 1649 1980
0 1648 1991
0 1644 2002
0 1642 2013
0 1639 2024
0 1640 2046
0 1643 2071
0 1648 2094
0 1654 2118
0 1660 2142
0 1665 2164
0 1667 2183
0 1670 2201
0 1671 2219
0 1680 2243
0 1690 2264
0 1700 2287
0 1808 1874
0 1797 1884
0 1789 1896
0 1782 1909
0 1775 1924
0 1769 1940
0 1761 1957
0 1755 1972
0 1748 1986
0 1735 1992
0 1722 1992
0 1711 1995
0 1711 2008
0 1711 2021
0 1710 2033
0 1707 2044
0 1705 2055
0 1701 2066
0 1699 2077
0 1696 2087
0 1696 2096
0 1698 2110
0 1704 2133
0 1707 2155
0 1710 2173
0 1712 2190
0 1713 2209
0 1721 2231
0 1730 2258
0 1739 2284
0 1749 2309
0 1758 2331
0 1874 1934
0 1859 1938
0 1850 1948
0 1841 1959
0 1833 1969
0 1825 1980
0 1813 1998
0 1802 2009
0 1792 2022
0 1786 2035
0 1776 2046
0 1767 2057
0 1762 2068
0 1761 2080
0 1759 2091
0 1756 2102
0 1754 2112
0 1753 2121
0 1753 2129
0 1753 2138
0 1753 2146
0 1753 2155
0 1754 2164
0 1756 2182
0 1759 2201
0 1763 2222
0 1773 2249
0 1783 2276
0 1793 2303
0 1802 2329
0 1812 2354
0 1815 2372
0 1945 2000
0 1928 2001
0 1915 2004
0 1905 2017
0 1897 2031
0 1889 2045
0 1880 2058
0 1872 2071
0 1860 2082
0 1848 2093
0 1835 2102
0 1823 2110
0 1811 2117
0 1811 2134
0 1811 2147
0 1811 2156
0 1811 2164
0 1811 2173
0 1811 2181
0 1811 2189
0 1811 2198
0 1813 2209
0 1816 2219
0 1819 2231
0 1825 2254
0 1834 2280
0 1842 2307
0 1851 2333
0 1860 2359
0 1865 2380
0 1869 2398
0 1875 2418
0 2024 2064
0 2007 2071
0 1994 2082
0 1977 2092
0 1965 2100
0 1956 2114
0 1949 2129
0 1941 2141
0 1934 2154
0 1920 2162
0 1910 2172
0 1898 2177
0 1888 2183
0 1877 2189
0 1877 2201
0 1877 2213
0 1877 2223
0 1877 2232
0 1877 2240
0 1879 2250
0 1881 2261
0 1884 2275
0 1887 2290
0 1889 2304
0 1892 2319
0 1896 2337
0 1904 2363
0 1913 2388
0 1916 2405
0 1922 2425
0 1928 2445
0 1934 2464
0 2099 2135
0 2086 2152
0 2075 2168
0 2059 2178
0 2045 2188
0 2033 2198
0 2024 2207
0 2012 2211
0 2000 2218
0 1994 2227
0 1983 2234
0 1972 2239
0 1958 2242
0 1948 2245
0 1942 2254
0 1942 2265
0 1942 2278
0 1942 2290
0 1944 2304
0 1947 2318
0 1949 2333
0 1952 2347
0 1954 2361
0 1957 2376
0 1959 2390
0 1962 2404
0 1963 2416
0 1967 2433
0 1972 2451
0 1978 2468
0 1982 2485
0 1986 2501
0 2155 2194
0 2143 2207
0 2137 2226
0 2126 2242
0 2117 2257
0 2106 2266
0 2092 2272
0 2084 2283
0 2076 2294
0 2067 2299
0 2053 2300
0 2046 2307
0 2033 2311
0 2022 2314
0 2010 2317
0 2007 2328
0 2007 2342
0 2007 2356
0 2007 2370
0 2008 2384
0 2010 2399
0 2013 2412
0 2015 2427
0 2018 2441
0 2018 2450
0 2018 2456
0 2018 2462
0 2018 2468
0 2021 2479
0 2024 2495
0 2028 2511
0 2034 2531
0 2214 2262
0 2203 2274
0 2192 2282
0 2182 2289
0 2171 2299
0 2164 2311
0 2153 2320
0 2146 2331
0 2137 2337
0 2126 2343
0 2116 2349
0 2105 2358
0 2099 2373
0 2089 2381
0 2080 2389
0 2068 2394
0 2068 2408
0 2068 2422
0 2068 2436
0 2068 2449
0 2068 2464
0 2069 2474
0 2069 2478
0 2069 2484
0 2069 2490
0 2069 2496
0 2069 2502
0 2069 2508
0 2069 2514
0 2070 2522
0 2080 2553
0 2086 2577
0 2274 2325
0 2260 2331
0 2250 2338
0 2235 2342
0 2224 2349
0 2218 2358
0 2209 2366
0 2200 2373
0 2192 2383
0 2182 2395
0 2173 2407
0 2162 2418
0 2155 2430
0 2145 2441
0 2134 2449
0 2124 2455
0 2118 2465
0 2118 2478
0 2118 2492
0 2124 2503
0 2128 2515
0 2128 2523
0 2128 2531
0 2128 2536
0 2128 2542
0 2128 2549
0 2128 2554
0 2128 2566
0 2128 2579
0 2128 2593
0 2128 2606
0 2132 2626
0 2338 2381
0 2323 2387
0 2312 2396
0 2296 2402
0 2282 2407
0 2274 2415
0 2264 2424
0 2255 2433
0 2251 2448
0 2244 2459
0 2238 2472
0 2223 2481
0 2213 2491
0 2204 2503
0 2190 2510
0 2181 2515
0 2172 2519
0 2173 2528
0 2177 2541
0 2179 2549
0 2179 2557
0 2179 2565
0 2179 2573
0 2179 2581
0 2179 2590
0 2179 2603
0 2179 2617
0 2179 2630
0 2179 2643
0 2179 2656
0 2179 2669
0 2179 2682
0 2397 2441
0 2389 2451
0 2380 2460
0 2368 2468
0 2354 2478
0 2346 2492
0 2333 2500
0 2322 2508
0 2314 2518
0 2302 2524
0 2291 2532
0 2285 2543
0 2276 2549
0 2270 2556
0 2263 2563
0 2253 2567
0 2245 2573
0 2235 2575
0 2235 2583
0 2235 2591
0 2235 2598
0 2235 2608
0 2235 2621
0 2235 2634
0 2235 2647
0 2235 2660
0 2235 2673
0 2235 2686
0 2235 2699
0 2235 2711
0 2235 2722
0 2235 2733
0 2463 2510
0 2449 2516
0 2439 2526
0 2431 2541
0 2419 2551
0 2411 2563
0 2402 2574
0 2390 2581
0 2381 2589
0 2369 2592
0 2360 2597
0 2350 2601
0 2338 2603
0 2329 2607
0 2322 2612
0 2312 2615
0 2303 2618
0 2298 2625
0 2291 2628
0 2291 2641
0 2291 2654
0 2291 2667
0 2291 2680
0 2291 2693
0 2292 2707
0 2295 2721
0 2295 2735
0 2295 2746
0 2295 2756
0 2295 2767
0 2295 2777
0 2295 2787
0 2514 2567
0 2505 2581
0 2495 2589
0 2485 2602
0 2477 2614
0 2466 2622
0 2460 2632
0 2449 2637
0 2441 2645
0 2433 2652
0 2420 2655
0 2411 2659
0 2402 2663
0 2389 2665
0 2380 2668
0 2373 2673
0 2366 2680
0 2360 2686
0 2352 2690
0 2349 2700
0 2349 2713
0 2349 2726
0 2350 2739
0 2352 2753
0 2354 2766
0 2354 2777
0 2354 2787
0 2354 2797
0 2354 2807
0 2354 2818
0 2354 2827
0 2354 2835
0 2558 2625
0 2550 2635
0 2542 2643
0 2539 2656
0 2528 2663
0 2521 2671
0 2513 2679
0 2505 2686
0 2495 2693
0 2490 2702
0 2483 2709
0 2472 2716
0 2464 2726
0 2450 2730
0 2444 2737
0 2438 2742
0 2432 2747
0 2421 2749
0 2416 2755
0 2406 2757
0 2407 2770
0 2409 2784
0 2409 2794
0 2409 2804
0 2409 2815
0 2409 2824
0 2409 2834
0 2409 2844
0 2409 2854
0 2409 2863
0 2409 2871
0 2409 2880
0 2608 2697
0 2602 2707
0 2592 2709
0 2587 2714
