OutOfControl/Assets/Art/ColorGrading/Ridley Scott - Martian LUT/Ridley Scott - Martian.CUBE
#Created by: Adobe Photoshop Export Color Lookup Plugin
TITLE "Ridley Scott - Martian LUT.png"
#LUT size
LUT_3D_SIZE 8
#data domain
#LUT data points
DOMAIN_MIN 0.000000 0.000000 0.000000
DOMAIN_MAX 0.903226 0.903226 0.903226
0.003967 0.000000 0.000000
0.246490 0.000000 0.000000
0.409424 0.011627 0.000000
0.550171 0.034271 0.000000
0.677948 0.056335 0.016479
0.797089 0.076202 0.035980
0.909485 0.094543 0.054413
1.000000 0.110291 0.072144
0.148346 0.157654 0.117035
0.228821 0.137268 0.000000
0.398254 0.151031 0.000000
0.542786 0.163025 0.000000
0.671051 0.176300 0.000000
0.790375 0.189056 0.018463
0.903046 0.201752 0.038452
1.000000 0.214264 0.057312
0.222137 0.231110 0.171173
0.234314 0.236084 0.000610
0.377258 0.245392 0.000000
0.524323 0.260712 0.000000
0.659271 0.271484 0.000000
0.782410 0.281586 0.004578
0.896576 0.292145 0.021637
1.000000 0.303070 0.041595
0.265106 0.290314 0.211945
0.271423 0.322205 0.107483
0.365814 0.321350 0.000000
0.506012 0.339386 0.000000
0.639465 0.354980 0.000610
0.764587 0.366577 0.011230
0.883850 0.376648 0.021057
0.996307 0.385223 0.028992
0.305969 0.345886 0.250366
0.346924 0.379700 0.220825
0.375031 0.408264 0.020538
0.493652 0.408173 0.000000
0.621826 0.425781 0.011078
0.746246 0.440826 0.020447
0.864655 0.453064 0.029358
0.978333 0.463470 0.038300
0.345062 0.398346 0.287323
0.412445 0.422668 0.296906
0.402985 0.478180 0.126617
0.491272 0.480072 0.000000
0.610321 0.489288 0.008820
0.730347 0.506500 0.027893
0.847321 0.521423 0.037598
0.960907 0.533752 0.044830
0.382690 0.448883 0.322510
0.453644 0.473389 0.337555
0.446777 0.527649 0.225220
0.500763 0.557831 0.054626
0.600342 0.551483 0.000000
0.718292 0.566437 0.028473
0.832581 0.583466 0.044403
0.944946 0.598083 0.050995
0.419189 0.497620 0.356537
0.491974 0.523712 0.374603
0.504852 0.561066 0.318176
0.516327 0.627441 0.121063
0.605377 0.623383 0.024872
0.709137 0.625732 0.017303
0.820557 0.640533 0.047150
0.930176 0.657013 0.060486
0.060822 0.032776 0.093018
0.244415 0.000000 0.009369
0.409424 0.011627 0.000000
0.550171 0.034271 0.000000
0.677948 0.056335 0.016479
0.797089 0.076202 0.035980
0.909485 0.094543 0.054413
1.000000 0.110291 0.072144
0.091736 0.150177 0.130524
0.240784 0.140106 0.047974
0.400726 0.146515 0.000000
0.543091 0.158569 0.000000
0.671356 0.171631 0.000000
0.790619 0.184784 0.019714
0.903290 0.197388 0.039154
1.000000 0.210114 0.057892
0.200623 0.232635 0.191956
0.268799 0.241516 0.125946
0.384125 0.246643 0.033844
0.525574 0.256836 0.000000
0.660767 0.267303 0.000000
0.784119 0.277100 0.001617
0.896851 0.288208 0.022369
1.000000 0.299194 0.042267
0.252289 0.294342 0.228607
0.309814 0.324921 0.189850
0.374908 0.326294 0.075775
0.508972 0.338104 0.018036
0.640106 0.351532 0.001068
0.766449 0.362885 0.007935
0.885773 0.372437 0.017303
0.996582 0.381683 0.030182
0.299683 0.348907 0.266052
0.378601 0.378876 0.274902
0.384521 0.413452 0.122070
0.499451 0.410370 0.062897
0.623291 0.422943 0.008972
0.747986 0.437866 0.017151
0.866638 0.449646 0.026031
0.978699 0.460175 0.038788
0.342896 0.399963 0.302673
0.425995 0.428406 0.323425
0.421814 0.477051 0.206787
0.499603 0.484772 0.101929
0.613525 0.489136 0.048584
0.731964 0.504089 0.025208
0.849182 0.518677 0.033936
0.961365 0.530792 0.045654
0.383850 0.448853 0.337433
0.461029 0.477600 0.357666
0.477600 0.517242 0.295349
0.509155 0.562531 0.144836
0.606720 0.554382 0.081543
0.718964 0.564209 0.035919
0.834290 0.581177 0.041290
0.945465 0.595459 0.051544
0.417633 0.499054 0.371185
0.495209 0.525360 0.390686
0.533081 0.551453 0.372955
0.524933 0.631714 0.194763
0.613281 0.628021 0.125610
0.712982 0.626587 0.069061
0.820892 0.637909 0.047638
0.930420 0.654480 0.061005
0.092957 0.072876 0.179596
0.245850 0.053223 0.113708
0.408752 0.010132 0.059509
0.550110 0.034210 0.005585
0.677948 0.056335 0.016479
0.797089 0.076202 0.035980
0.909485 0.094543 0.054413
1.000000 0.110291 0.072144
0.107239 0.164398 0.200928
0.252197 0.152771 0.137451
0.409241 0.149658 0.096130
0.545990 0.157684 0.040131
0.671600 0.167267 0.000305
0.790955 0.180206 0.020447
0.903564 0.192902 0.040131
1.000000 0.205658 0.058533
0.122620 0.242432 0.222778
0.277252 0.244934 0.192413
0.397461 0.251465 0.126984
0.536316 0.257843 0.077820
0.663391 0.264282 0.012512
0.784363 0.273102 0.002289
0.897247 0.284546 0.023041
1.000000 0.295593 0.042908
0.202271 0.307373 0.257446
0.341309 0.325378 0.258545
0.385620 0.332458 0.158234
0.520905 0.343872 0.117615
0.647339 0.351959 0.066132
0.766876 0.359283 0.008972
0.886108 0.368896 0.017944
0.996826 0.378235 0.030914
0.268585 0.360657 0.286163
0.390930 0.376984 0.303650
0.393829 0.418610 0.196045
0.508667 0.416168 0.150177
0.632874 0.428162 0.108124
0.750549 0.436981 0.054352
0.867096 0.446472 0.026459
0.981079 0.456635 0.034912
0.323059 0.410309 0.320160
0.426941 0.428345 0.338623
0.440247 0.474548 0.277893
0.508209 0.489685 0.178802
0.622284 0.494690 0.140808
0.738403 0.506683 0.097321
0.849731 0.516113 0.038361
0.961761 0.527710 0.046112
0.360352 0.461517 0.354492
0.461975 0.477539 0.372223
0.500336 0.512054 0.356384
0.520599 0.564117 0.223267
0.615479 0.559845 0.164215
0.726990 0.569702 0.133057
0.837189 0.581512 0.087250
0.945801 0.592529 0.052002
0.402740 0.508087 0.386047
0.496124 0.525330 0.404907
0.550812 0.550018 0.409302
0.541504 0.626587 0.277893
0.621155 0.632782 0.199585
0.721405 0.631714 0.155273
0.828339 0.642181 0.121613
0.933167 0.653198 0.072937
0.107819 0.088959 0.240143
0.253113 0.092163 0.165222
0.399780 0.034271 0.146240
0.549286 0.032227 0.107208
0.677612 0.055328 0.063843
0.797089 0.076202 0.035980
0.909485 0.094543 0.054413
1.000000 0.110291 0.072144
0.114410 0.172394 0.260834
0.265961 0.179901 0.213013
0.406494 0.152405 0.177002
0.551147 0.159515 0.138000
0.676300 0.169037 0.097229
0.792084 0.177063 0.042145
0.903809 0.188690 0.040955
1.000000 0.201294 0.059143
0.123352 0.251282 0.279816
0.273712 0.255341 0.246277
0.409912 0.252777 0.197479
0.547119 0.259460 0.159363
0.671448 0.266113 0.119446
0.787292 0.273041 0.071960
0.897522 0.280579 0.023773
1.000000 0.291870 0.043518
0.134583 0.321136 0.300476
0.326630 0.329254 0.288208
0.396606 0.338501 0.227112
0.534424 0.347595 0.188171
0.659821 0.354431 0.148590
0.778076 0.360596 0.104553
0.889374 0.366455 0.050598
0.997040 0.374817 0.031555
0.211700 0.379517 0.324738
0.392120 0.376953 0.319153
0.416321 0.418701 0.268890
0.518402 0.422058 0.220673
0.644287 0.432922 0.181763
0.762634 0.440399 0.140533
0.874176 0.447174 0.096405
0.981567 0.453247 0.036682
0.271057 0.431671 0.349274
0.420380 0.431824 0.355347
0.467560 0.470093 0.330231
0.516998 0.494598 0.246094
0.631775 0.500702 0.211731
0.748596 0.511810 0.173492
0.860046 0.520172 0.131409
0.966644 0.527222 0.085449
0.325928 0.479156 0.375702
0.462433 0.478027 0.386749
0.520996 0.511078 0.391510
0.528595 0.569336 0.286743
0.624329 0.565247 0.233704
0.736481 0.575500 0.204620
0.847260 0.586487 0.164886
0.952942 0.595245 0.123810
0.374268 0.523407 0.407593
0.497345 0.525330 0.419312
0.565765 0.552155 0.436249
0.560547 0.618896 0.350494
0.628937 0.637299 0.265839
0.729858 0.637054 0.225891
0.837097 0.647858 0.194824
0.941772 0.658234 0.156525
0.121887 0.103333 0.296570
0.264709 0.106842 0.219116
0.379486 0.103088 0.213348
0.538696 0.048431 0.183960
0.676849 0.053131 0.146027
0.796356 0.074829 0.110901
0.909363 0.094299 0.069427
1.000000 0.110291 0.072144
0.127777 0.180206 0.316833
0.276855 0.190002 0.267639
0.395050 0.169220 0.238983
0.549988 0.152924 0.205688
0.678345 0.167267 0.174438
0.797516 0.180603 0.140839
0.906647 0.188446 0.099152
1.000000 0.197174 0.060181
0.136322 0.259308 0.334595
0.278625 0.274536 0.322052
0.413177 0.266205 0.262238
0.552124 0.261292 0.232208
0.677155 0.269318 0.198151
0.792725 0.276031 0.161194
0.902008 0.282990 0.120880
1.000000 0.289795 0.074402
0.143250 0.329346 0.353058
0.303864 0.339386 0.332520
0.408875 0.344055 0.288086
0.546326 0.349701 0.252380
0.671967 0.355530 0.216583
0.788055 0.361572 0.180420
0.897614 0.367859 0.142120
1.000000 0.374298 0.099731
0.154724 0.393951 0.372253
0.337006 0.396057 0.360535
0.442810 0.413666 0.335846
0.530060 0.428314 0.282684
0.656555 0.436493 0.246063
0.775055 0.442932 0.209106
0.886017 0.449127 0.171234
0.992615 0.455017 0.130615
0.220306 0.449890 0.391876
0.399231 0.443634 0.376862
0.493164 0.463287 0.384399
0.525757 0.499664 0.308197
0.642303 0.506775 0.275024
0.759583 0.516235 0.238983
0.870636 0.523468 0.202576
0.978027 0.529785 0.163696
0.273926 0.500641 0.414398
0.452972 0.483673 0.404938
0.535583 0.505554 0.419861
0.538849 0.572327 0.347717
0.633087 0.570465 0.297729
0.746155 0.581360 0.268402
0.857117 0.591309 0.232208
0.963501 0.599091 0.194977
0.334229 0.544189 0.434509
0.486664 0.532867 0.436554
0.568085 0.552307 0.451416
0.583618 0.606506 0.413574
0.636871 0.642059 0.327484
0.738403 0.642273 0.290466
0.845551 0.652924 0.260742
0.951385 0.663208 0.224152
0.135345 0.116516 0.350555
0.272034 0.118286 0.279968
0.381500 0.127502 0.245392
0.513214 0.093445 0.256348
0.670166 0.060944 0.216003
0.795532 0.072632 0.182251
0.908447 0.092407 0.149567
1.000000 0.109650 0.114716
0.140289 0.187531 0.370026
0.283630 0.195679 0.326721
0.400482 0.194458 0.268433
0.528687 0.172089 0.275085
0.676849 0.161224 0.238770
0.796875 0.174591 0.208923
0.909729 0.188538 0.177948
1.000000 0.199585 0.142944
0.148193 0.266632 0.387299
0.285065 0.281586 0.375519
0.416809 0.284119 0.307800
0.548340 0.258209 0.293427
0.679260 0.267700 0.264130
0.798096 0.279022 0.234894
0.907135 0.285980 0.199951
1.000000 0.292847 0.162903
0.156189 0.336731 0.404358
0.292419 0.351654 0.392456
0.415527 0.356384 0.350952
0.552643 0.351593 0.316833
0.677795 0.358215 0.285248
0.793488 0.364410 0.252319
0.902740 0.370605 0.217957
1.000000 0.376984 0.182373
0.162323 0.401642 0.422272
0.295654 0.416260 0.411102
0.442078 0.415802 0.374359
0.543335 0.432861 0.339081
0.670441 0.438385 0.304169
0.785828 0.444550 0.272552
0.896759 0.450165 0.237976
1.000000 0.456146 0.203217
0.173370 0.463043 0.440521
0.348450 0.464233 0.424316
0.492126 0.464020 0.403656
0.535095 0.504486 0.366333
0.653809 0.512115 0.333099
0.770813 0.519623 0.299927
0.882904 0.526031 0.265106
0.989624 0.532166 0.230865
0.227783 0.518066 0.458832
0.404053 0.510803 0.439575
0.536774 0.505554 0.433929
0.552490 0.572815 0.402527
0.642120 0.575897 0.357697
0.756897 0.586731 0.327271
0.867065 0.595398 0.294067
0.974365 0.602356 0.259399
0.277618 0.567963 0.479584
0.451080 0.554169 0.463867
0.569214 0.552338 0.465424
0.609314 0.594849 0.459290
0.644684 0.646576 0.385895
0.746643 0.647278 0.351013
0.854950 0.658356 0.320801
0.959961 0.667358 0.288177
0.148621 0.129059 0.402008
0.270416 0.125519 0.356079
0.390228 0.134674 0.275208
0.502899 0.136108 0.289368
0.649017 0.093445 0.281219
0.793304 0.074036 0.246368
0.907776 0.090881 0.216522
1.000000 0.107849 0.185913
0.153198 0.194824 0.420868
0.279938 0.199585 0.397675
0.411041 0.207184 0.304108
0.509491 0.207886 0.322968
0.657990 0.172180 0.305908
0.795837 0.168182 0.270264
0.908691 0.182251 0.241913
1.000000 0.195679 0.212341
0.160095 0.273346 0.438080
0.294983 0.288208 0.426392
0.433014 0.291565 0.342926
0.527740 0.282959 0.348969
0.675537 0.264465 0.323120
0.797607 0.274048 0.295166
0.910309 0.286072 0.267487
1.000000 0.295715 0.236755
0.168457 0.343750 0.454193
0.299622 0.358612 0.444000
0.420563 0.369537 0.415253
0.542511 0.355103 0.376404
0.680115 0.356842 0.345490
0.798859 0.367249 0.318481
0.907837 0.373322 0.287109
1.000000 0.379761 0.254364
0.175812 0.408386 0.470642
0.305725 0.423096 0.460266
0.439362 0.427277 0.434174
0.554291 0.435486 0.394165
0.678619 0.440308 0.365204
0.794006 0.446228 0.334778
0.903168 0.452179 0.303528
1.000000 0.457825 0.271332
0.180420 0.469910 0.488617
0.310242 0.483826 0.477753
0.463745 0.479279 0.448303
0.550507 0.504822 0.422607
0.665497 0.516144 0.388550
0.782776 0.522308 0.356903
0.895142 0.527649 0.324097
0.999603 0.533234 0.292450
0.192108 0.528168 0.505981
0.354614 0.532867 0.490112
0.512024 0.520721 0.464294
0.578552 0.557343 0.454559
0.651337 0.581268 0.414154
0.766937 0.591553 0.383850
0.878967 0.598755 0.351227
0.985107 0.605255 0.319641
0.230835 0.586029 0.526398
0.403320 0.580231 0.504974
0.553131 0.564209 0.488831
0.634918 0.580811 0.497101
0.652649 0.651093 0.441620
0.754791 0.652527 0.408752
0.863983 0.663300 0.378296
0.971313 0.671265 0.344788
0.161255 0.141205 0.451752
0.279724 0.136536 0.409485
0.402100 0.148987 0.317139
0.503906 0.165863 0.308228
0.617676 0.139496 0.336853
0.770416 0.100616 0.312653
0.905090 0.090820 0.278168
1.000000 0.106476 0.249329
0.165680 0.202271 0.470184
0.289032 0.206055 0.446960
0.422058 0.215057 0.344757
0.512054 0.224792 0.340515
0.632568 0.203186 0.356354
0.784973 0.173035 0.331635
0.907867 0.175934 0.301178
1.000000 0.189514 0.273804
0.171600 0.280029 0.487518
0.304688 0.294708 0.475311
0.437256 0.297089 0.396027
0.528992 0.303619 0.373291
0.647400 0.282562 0.386597
0.794830 0.269745 0.352203
0.909485 0.280640 0.325256
1.000000 0.292694 0.298462
0.178802 0.350586 0.503723
0.308777 0.364838 0.493011
0.433502 0.375214 0.457031
0.546875 0.372437 0.403839
0.674194 0.356079 0.401215
0.798401 0.362885 0.374542
0.911011 0.373932 0.348999
1.000000 0.382355 0.320526
0.187256 0.415344 0.518646
0.315399 0.429657 0.508362
0.425659 0.443695 0.498016
0.553741 0.445801 0.435547
0.680969 0.439423 0.422089
0.799316 0.448822 0.396362
0.908234 0.454712 0.367035
1.000000 0.460419 0.336792
0.193146 0.476349 0.535187
0.320648 0.490143 0.524719
0.435822 0.501099 0.509857
0.556030 0.510193 0.471863
0.677246 0.517944 0.442017
0.794434 0.523254 0.411774
0.903595 0.528870 0.382446
1.000000 0.534485 0.352661
0.197754 0.535095 0.552368
0.324615 0.548553 0.541992
0.455353 0.554321 0.527161
0.583527 0.553497 0.493805
0.660767 0.586426 0.468536
0.780121 0.595245 0.435791
0.890411 0.601532 0.406433
0.996765 0.607147 0.375336
0.208130 0.591705 0.569702
0.360565 0.599518 0.555969
0.517456 0.587067 0.526337
0.635315 0.581696 0.510803
0.661011 0.655792 0.495087
0.763824 0.658112 0.462799
0.874847 0.667572 0.431885
0.981354 0.674622 0.401154
