OutOfControl/Assets/Art/ColorGrading/Ridley Scott - Martian LUT/Ridley Scott - Martian.CUBE
#Created by: Adobe Photoshop Export Color Lookup Plugin
TITLE "Ridley Scott - Martian LUT.png"
#LUT size
LUT_3D_SIZE 5
#data domain
#LUT data points
DOMAIN_MIN 0.000000 0.000000 0.000000
DOMAIN_MAX 0.903226 0.903226 0.903226
0.003967 0.000000 0.000000
0.371643 0.005798 0.000000
0.615417 0.045776 0.006714
0.825745 0.080872 0.040741
1.000000 0.110291 0.072144
0.210938 0.215668 0.160431
0.342743 0.220154 0.000000
0.597473 0.243835 0.000000
0.814148 0.261871 0.010651
1.000000 0.281738 0.045776
0.285736 0.318359 0.231415
0.341248 0.367859 0.011841
0.565063 0.383453 0.001984
0.785339 0.408051 0.017944
0.987000 0.425781 0.035767
0.354584 0.411224 0.296112
0.409058 0.480530 0.197540
0.545807 0.497528 0.000000
0.756500 0.526123 0.032135
0.956482 0.550323 0.046600
0.419189 0.497620 0.356537
0.511078 0.542023 0.348450
0.559082 0.628174 0.068451
0.737885 0.629486 0.024292
0.930176 0.657013 0.060486
0.088898 0.068573 0.163269
0.370819 0.004425 0.046326
0.615417 0.045776 0.006714
0.825745 0.080872 0.040741
1.000000 0.110291 0.072144
0.118561 0.222198 0.202881
0.360992 0.225342 0.109833
0.601349 0.236816 0.004578
0.814789 0.254883 0.011841
1.000000 0.275085 0.046875
0.247742 0.332123 0.262543
0.358551 0.377289 0.173065
0.575500 0.385437 0.092163
0.787750 0.401917 0.015442
0.989685 0.419189 0.031921
0.340790 0.419250 0.324158
0.451813 0.473083 0.313751
0.559540 0.504913 0.143768
0.760986 0.524414 0.071533
0.957428 0.545319 0.047424
0.406281 0.505890 0.382080
0.540771 0.543549 0.408173
0.573151 0.635803 0.208923
0.746735 0.632996 0.127502
0.932190 0.652924 0.056793
0.114929 0.096405 0.268768
0.346802 0.085785 0.190948
0.614227 0.042755 0.127075
0.825653 0.080627 0.053955
1.000000 0.110291 0.072144
0.127716 0.236664 0.302795
0.377808 0.241913 0.231598
0.614685 0.241333 0.174286
0.819153 0.253754 0.103882
1.000000 0.268188 0.047974
0.145569 0.358215 0.337158
0.406738 0.376648 0.305695
0.596832 0.392883 0.217163
0.804688 0.404205 0.149597
0.993774 0.414276 0.067505
0.258118 0.454834 0.374756
0.492584 0.462219 0.383728
0.575562 0.514709 0.264923
0.779236 0.533142 0.204956
0.968353 0.546295 0.135956
0.354523 0.533386 0.420502
0.550507 0.545685 0.439972
0.592041 0.637238 0.331390
0.761444 0.642151 0.251862
0.946533 0.660614 0.191223
0.138763 0.119751 0.363464
0.358185 0.124695 0.248627
0.588287 0.079865 0.254211
0.824127 0.077209 0.190979
1.000000 0.109314 0.133606
0.149261 0.249512 0.395996
0.393890 0.265625 0.313080
0.614990 0.235718 0.286896
0.826599 0.256622 0.236847
1.000000 0.271118 0.177490
0.163055 0.371063 0.425201
0.402802 0.389038 0.392578
0.616058 0.396179 0.325409
0.820282 0.406830 0.269775
1.000000 0.417542 0.210266
0.177948 0.479523 0.457367
0.468414 0.475861 0.427124
0.592041 0.524292 0.370056
0.798645 0.539795 0.312836
0.989166 0.550629 0.252747
0.262695 0.574066 0.491180
0.548065 0.548340 0.466370
0.611969 0.638641 0.433258
0.775818 0.651062 0.359253
0.963013 0.668274 0.302307
0.161255 0.141205 0.451752
0.376251 0.147156 0.332489
0.549255 0.163025 0.331909
0.806702 0.095337 0.303589
1.000000 0.106476 0.249329
0.170563 0.261536 0.483032
0.393219 0.273865 0.421387
0.574463 0.277618 0.382965
0.824799 0.246613 0.339081
1.000000 0.268097 0.292450
0.183502 0.383453 0.510712
0.396210 0.408051 0.492950
0.604401 0.399597 0.429596
0.827881 0.409515 0.379578
1.000000 0.422089 0.328583
0.194397 0.491272 0.539490
0.405151 0.515228 0.521149
0.612183 0.533386 0.463318
0.820038 0.543152 0.409393
1.000000 0.552216 0.356506
0.208130 0.591705 0.569702
0.477173 0.592804 0.535767
0.647675 0.617249 0.511261
0.792084 0.660706 0.455261
0.981354 0.674622 0.401154
