OutOfControl/Assets/Art/ColorGrading/Ridley Scott - Martian LUT/Ridley Scott - Martian.3DL
#Created by: Adobe Photoshop Export Color Lookup Plugin
#Description: Ridley Scott - Martian LUT.png
0 33 66 99 132 165 198 231 264 297 330 363 396 429 462 495 528 561 594 627 660 693 726 759 792 825 858 891 924 957 990 1023
16 0 0
76 0 0
136 5 104
194 71 253
249 134 381
299 195 488
341 250 588
364 281 669
381 298 735
397 315 799
412 332 862
427 349 923
442 364 983
456 380 1043
471 395 1101
485 409 1158
499 423 1214
513 437 1271
526 450 1326
540 464 1381
554 477 1436
568 490 1488
582 504 1542
595 516 1594
609 528 1646
622 540 1698
635 553 1749
648 566 1800
660 578 1850
673 590 1900
686 603 1950
698 615 1999
205 124 0
116 109 0
171 165 156
226 219 303
277 271 422
327 318 525
360 358 625
372 371 694
388 380 760
403 391 823
419 400 885
434 410 946
448 420 1006
463 428 1065
477 438 1122
491 448 1180
505 456 1236
519 465 1292
533 475 1348
546 483 1402
560 492 1456
573 502 1508
587 510 1562
600 521 1613
613 534 1666
626 546 1717
639 559 1768
652 571 1819
665 584 1869
678 596 1919
690 609 1969
703 621 2018
366 340 177
292 328 196
212 316 216
259 360 343
310 403 455
351 441 559
378 469 651
387 478 718
396 486 783
408 494 846
424 504 908
438 512 968
453 520 1028
467 529 1087
481 537 1145
496 546 1201
510 555 1258
523 563 1313
537 572 1368
551 579 1422
564 588 1476
578 597 1528
591 605 1581
604 613 1634
617 622 1685
630 629 1737
644 638 1787
656 647 1838
669 654 1888
682 662 1938
695 670 1987
708 678 2036
495 505 347
435 496 363
372 487 379
297 478 394
339 510 491
376 545 590
396 566 674
404 575 740
412 584 804
420 591 866
431 599 929
447 608 989
461 616 1049
473 624 1108
487 631 1166
502 639 1222
516 648 1279
529 655 1333
543 664 1389
557 672 1442
570 679 1496
584 688 1548
597 696 1601
610 704 1653
623 712 1704
636 719 1756
649 727 1806
662 735 1857
674 742 1907
687 750 1956
700 758 2005
712 765 2054
607 646 479
552 638 493
496 630 507
437 623 520
376 615 534
401 642 624
419 655 695
429 664 760
439 673 823
449 681 885
447 690 948
454 698 1010
469 706 1068
483 714 1126
495 722 1185
509 729 1241
523 738 1297
534 745 1354
548 752 1409
561 760 1462
574 768 1515
588 775 1569
601 783 1621
614 790 1673
627 798 1723
640 806 1775
653 812 1826
666 820 1875
678 828 1925
691 835 1975
704 843 2024
716 851 2073
707 745 563
654 739 578
601 735 594
546 728 610
498 728 631
445 732 656
447 740 717
461 749 780
470 758 842
481 765 903
478 775 966
470 784 1028
477 793 1088
492 800 1146
504 808 1204
518 816 1260
532 823 1315
543 831 1372
557 839 1427
570 845 1480
584 853 1533
592 859 1589
606 866 1640
619 874 1692
633 881 1743
646 889 1794
658 897 1845
671 903 1894
684 910 1944
697 918 1994
709 925 2042
721 932 2091
808 817 612
758 811 627
707 807 642
661 805 662
619 806 685
553 812 713
466 822 746
465 830 803
478 839 864
486 846 924
480 856 987
474 866 1049
489 875 1106
500 882 1165
511 890 1223
526 898 1279
540 906 1334
551 913 1391
565 921 1444
578 928 1497
588 935 1553
602 942 1604
615 949 1657
628 956 1709
641 964 1759
650 969 1813
663 977 1863
676 984 1914
688 990 1963
701 998 2012
713 1004 2061
725 1012 2109
864 883 657
856 882 675
810 878 692
772 879 715
733 881 737
655 890 769
573 900 799
486 910 831
483 918 886
484 926 947
482 935 1008
481 945 1068
496 953 1126
508 962 1184
523 969 1240
535 977 1298
549 986 1352
560 992 1409
574 1000 1461
584 1007 1517
598 1014 1570
611 1022 1622
625 1029 1673
634 1035 1728
647 1042 1778
660 1050 1829
673 1056 1879
686 1063 1928
698 1071 1978
705 1075 2031
717 1082 2079
729 1089 2127
910 946 701
911 946 719
907 946 738
869 948 761
822 953 786
746 963 818
668 972 850
587 982 880
502 993 912
483 1003 970
481 1012 1030
490 1021 1088
505 1029 1146
517 1037 1203
532 1045 1259
544 1054 1315
558 1062 1370
569 1069 1426
583 1077 1479
592 1084 1534
607 1092 1586
621 1098 1638
629 1106 1693
642 1111 1744
656 1119 1794
668 1126 1845
682 1134 1894
690 1139 1947
703 1147 1996
715 1152 2045
727 1160 2094
739 1167 2142
954 1009 744
956 1009 762
957 1009 780
954 1009 798
893 1015 827
820 1025 858
745 1035 889
666 1045 920
585 1061 958
501 1077 998
481 1088 1053
495 1096 1110
510 1104 1167
525 1111 1222
540 1119 1277
552 1128 1334
563 1136 1390
577 1143 1443
591 1151 1496
602 1159 1552
615 1166 1603
625 1172 1658
639 1180 1709
652 1188 1759
665 1194 1810
674 1201 1863
687 1208 1913
700 1214 1962
713 1221 2012
725 1229 2059
733 1233 2112
745 1241 2160
999 1070 786
1000 1070 804
1001 1070 821
1001 1070 840
966 1080 857
894 1089 889
821 1099 921
746 1112 957
667 1129 997
586 1145 1036
506 1160 1077
501 1169 1131
516 1177 1188
531 1184 1243
546 1192 1298
561 1200 1352
572 1208 1408
587 1215 1461
597 1223 1516
611 1231 1569
625 1239 1620
635 1246 1674
648 1253 1725
662 1260 1775
671 1267 1829
684 1274 1879
697 1281 1928
704 1288 1981
717 1294 2030
729 1301 2078
741 1307 2126
754 1314 2175
1042 1130 828
1043 1129 845
1044 1129 863
1032 1134 879
1002 1143 897
968 1153 914
897 1165 949
823 1180 989
748 1197 1029
669 1212 1067
598 1226 1110
527 1240 1156
522 1249 1209
536 1255 1263
551 1263 1319
566 1271 1372
581 1278 1426
596 1285 1478
606 1294 1533
621 1301 1585
630 1310 1639
644 1317 1691
657 1324 1741
667 1331 1794
680 1339 1845
693 1345 1894
702 1352 1947
714 1359 1996
727 1365 2045
739 1372 2093
747 1379 2144
759 1385 2192
1086 1189 868
1087 1189 886
1088 1189 902
1064 1197 920
1033 1205 936
1003 1215 954
973 1226 975
901 1242 1014
828 1259 1054
753 1274 1094
688 1288 1139
622 1301 1184
551 1315 1230
542 1325 1284
557 1333 1339
572 1341 1392
587 1349 1446
601 1355 1498
615 1363 1550
626 1371 1604
640 1379 1656
653 1386 1707
663 1393 1760
676 1400 1810
690 1408 1860
699 1415 1913
712 1421 1962
724 1429 2011
732 1436 2063
745 1441 2111
757 1448 2159
770 1455 2207
1128 1247 909
1129 1247 925
1125 1249 943
1095 1258 959
1065 1268 976
1036 1278 995
1009 1289 1014
979 1299 1035
909 1314 1074
841 1330 1117
778 1342 1161
714 1356 1206
646 1374 1257
574 1392 1306
562 1402 1359
577 1410 1412
591 1417 1465
606 1424 1517
621 1431 1570
635 1439 1621
649 1446 1672
659 1454 1726
673 1461 1776
681 1469 1829
695 1476 1879
709 1484 1928
722 1490 1977
729 1497 2029
741 1504 2077
754 1510 2125
761 1517 2177
774 1524 2225
1170 1304 948
1171 1304 965
1160 1308 981
1129 1318 998
1099 1328 1016
1071 1339 1035
1043 1350 1055
1015 1360 1075
987 1370 1095
925 1383 1139
865 1397 1184
801 1413 1233
735 1431 1283
666 1449 1332
596 1467 1381
583 1477 1432
597 1485 1485
612 1491 1537
626 1498 1589
640 1506 1640
654 1513 1691
668 1520 1741
678 1528 1794
691 1535 1845
704 1542 1894
713 1550 1946
726 1556 1995
739 1563 2043
751 1570 2091
759 1578 2143
772 1584 2191
784 1591 2238
1212 1360 987
1213 1360 1003
1204 1364 1019
1189 1370 1035
1161 1381 1055
1133 1392 1074
1105 1402 1094
1076 1413 1114
1043 1426 1135
989 1445 1161
930 1459 1209
867 1477 1259
804 1494 1309
739 1511 1358
672 1528 1406
611 1543 1454
602 1551 1505
616 1558 1556
631 1565 1608
646 1572 1659
660 1579 1710
674 1586 1760
687 1593 1810
701 1600 1860
710 1608 1912
723 1615 1961
736 1622 2010
744 1629 2062
757 1636 2109
770 1643 2157
782 1649 2205
788 1656 2256
1253 1416 1025
1251 1418 1042
1242 1421 1056
1238 1424 1073
1227 1429 1089
1199 1440 1109
1171 1450 1129
1142 1461 1148
1100 1477 1172
1046 1496 1200
990 1519 1230
930 1537 1280
867 1554 1330
804 1572 1379
738 1589 1427
686 1601 1476
634 1613 1524
623 1623 1576
637 1630 1628
651 1637 1678
665 1645 1729
678 1651 1779
692 1658 1829
706 1665 1879
720 1672 1927
728 1681 1979
741 1687 2028
753 1694 2076
767 1701 2124
774 1709 2175
786 1714 2223
799 1721 2269
1294 1471 1064
1288 1474 1079
1282 1477 1095
1278 1479 1111
1274 1481 1127
1264 1486 1144
1236 1497 1163
1209 1507 1182
1158 1526 1209
1104 1548 1239
1048 1571 1269
991 1593 1300
931 1611 1348
869 1628 1396
809 1644 1445
761 1656 1493
708 1671 1545
653 1685 1595
641 1695 1647
655 1702 1698
669 1709 1748
684 1716 1798
698 1722 1847
711 1729 1897
725 1736 1946
738 1743 1995
751 1750 2042
759 1758 2094
772 1764 2142
784 1771 2190
791 1779 2241
804 1785 2287
1333 1525 1101
1326 1528 1117
1322 1531 1132
1319 1534 1149
1314 1536 1165
1310 1538 1180
1301 1543 1197
1265 1556 1219
1213 1578 1248
1160 1600 1278
1106 1622 1308
1050 1645 1338
993 1667 1367
933 1684 1413
880 1698 1462
831 1712 1514
780 1727 1565
728 1741 1616
675 1756 1666
661 1766 1717
675 1773 1767
689 1779 1817
702 1786 1866
716 1793 1916
729 1800 1964
742 1806 2012
756 1813 2060
769 1820 2108
782 1826 2156
788 1835 2207
801 1841 2254
814 1847 2301
1374 1579 1139
1372 1580 1155
1368 1582 1171
1363 1585 1187
1360 1588 1202
1355 1590 1218
1351 1592 1233
1321 1607 1253
1269 1629 1284
1215 1652 1314
1162 1674 1344
1107 1695 1374
1052 1718 1403
995 1739 1433
948 1754 1482
900 1767 1534
851 1782 1585
800 1796 1636
748 1811 1686
696 1826 1736
680 1836 1785
693 1843 1835
708 1848 1884
721 1856 1934
735 1862 1982
748 1869 2031
761 1875 2079
773 1882 2126
786 1889 2174
799 1895 2220
807 1903 2272
819 1910 2318
1413 1631 1177
1414 1631 1192
1413 1632 1208
1409 1636 1223
1404 1638 1239
1400 1640 1254
1393 1645 1270
1360 1662 1290
1323 1680 1311
1271 1702 1341
1219 1724 1371
1165 1746 1401
1110 1768 1430
1055 1790 1464
999 1812 1504
950 1828 1554
902 1842 1605
854 1856 1656
804 1870 1705
752 1884 1756
710 1896 1804
699 1905 1854
713 1911 1903
726 1918 1952
739 1924 2001
752 1931 2048
765 1937 2097
778 1944 2144
791 1951 2192
805 1957 2239
817 1963 2285
830 1970 2332
1452 1684 1213
1454 1684 1229
1455 1684 1244
1453 1685 1260
1449 1687 1275
1445 1690 1291
1428 1700 1308
1396 1717 1327
1362 1734 1346
1326 1751 1368
1274 1773 1397
1221 1795 1427
1168 1817 1456
1112 1840 1495
1057 1863 1535
1002 1884 1574
953 1900 1623
904 1914 1674
856 1928 1724
807 1943 1774
769 1953 1824
729 1964 1873
717 1972 1922
731 1979 1970
745 1986 2019
758 1993 2066
770 1998 2115
783 2005 2162
796 2012 2209
809 2018 2256
821 2024 2302
834 2031 2349
1491 1736 1249
1492 1736 1264
1494 1736 1280
1495 1736 1295
1493 1737 1311
1490 1738 1327
1463 1754 1345
1430 1770 1364
1398 1787 1383
1364 1804 1402
1329 1822 1422
1277 1844 1451
1223 1867 1485
1169 1890 1525
1116 1911 1565
1061 1934 1604
1004 1956 1644
955 1971 1692
908 1986 1741
863 1999 1793
824 2010 1843
787 2021 1892
748 2031 1941
736 2040 1989
749 2047 2037
762 2053 2085
775 2059 2132
787 2065 2180
800 2072 2227
813 2078 2274
826 2084 2320
839 2091 2367
1529 1787 1284
1530 1787 1301
1532 1787 1316
1533 1787 1331
1534 1787 1347
1527 1791 1363
1495 1808 1382
1463 1825 1401
1431 1842 1420
1399 1858 1439
1365 1874 1457
1330 1892 1478
1278 1916 1515
1224 1938 1555
1171 1961 1595
1118 1983 1635
1063 2005 1673
1007 2027 1712
956 2044 1762
917 2056 1812
880 2066 1862
843 2076 1910
806 2088 1959
768 2098 2007
753 2106 2055
767 2113 2103
780 2119 2150
793 2125 2198
806 2132 2244
818 2138 2291
831 2144 2338
843 2151 2384
1567 1838 1321
1569 1838 1335
1570 1838 1351
1571 1838 1367
1572 1838 1382
1563 1844 1398
1541 1856 1414
1508 1873 1433
1476 1890 1452
1442 1907 1471
1409 1924 1490
1377 1942 1511
1335 1962 1538
1283 1985 1579
1230 2006 1619
1177 2029 1658
1122 2050 1697
1066 2073 1737
1009 2097 1781
968 2110 1829
933 2121 1879
897 2131 1927
861 2142 1976
824 2151 2023
787 2163 2072
772 2173 2121
784 2178 2168
797 2185 2216
810 2191 2262
823 2198 2309
835 2203 2356
848 2210 2401
1604 1889 1356
1606 1889 1371
1607 1889 1387
1608 1889 1402
1609 1889 1417
1594 1898 1432
1580 1907 1448
1558 1918 1464
1526 1935 1483
1493 1952 1501
1461 1970 1523
1427 1988 1545
1386 2010 1572
1343 2030 1600
1291 2051 1639
1239 2073 1678
1186 2095 1718
1130 2119 1759
1072 2144 1804
1010 2168 1852
969 2182 1900
934 2192 1948
898 2202 1996
862 2213 2045
823 2225 2094
797 2232 2140
789 2237 2186
801 2244 2233
815 2250 2279
828 2257 2326
840 2262 2373
853 2268 2418
1642 1938 1391
1644 1938 1406
1645 1938 1421
1646 1938 1437
1640 1942 1451
1626 1951 1467
1611 1960 1482
1597 1969 1497
1575 1980 1514
1543 1998 1534
1512 2015 1554
1475 2035 1580
1434 2055 1606
1393 2075 1632
1352 2096 1659
1300 2117 1698
1247 2141 1740
1193 2166 1783
1134 2190 1829
1073 2215 1875
1012 2239 1921
969 2252 1969
934 2262 2017
898 2274 2067
863 2284 2116
840 2291 2161
816 2296 2206
807 2302 2251
820 2308 2298
832 2315 2343
845 2320 2390
857 2327 2436
1679 1988 1426
1681 1988 1441
1682 1988 1456
1683 1988 1471
1672 1995 1486
1657 2004 1501
1643 2013 1516
1628 2021 1531
1613 2030 1546
1594 2042 1564
1563 2059 1585
1523 2080 1612
1484 2100 1638
1443 2121 1665
1402 2141 1691
1360 2162 1719
1308 2186 1762
1253 2210 1805
1194 2235 1853
1135 2260 1899
1074 2284 1945
1013 2308 1990
969 2323 2039
933 2335 2090
903 2343 2136
880 2349 2182
857 2354 2226
833 2360 2270
824 2366 2315
836 2372 2361
850 2378 2407
862 2384 2454
1717 2038 1460
1718 2038 1476
1719 2038 1490
1720 2038 1506
