OutOfControl/Assets/Art/ColorGrading/Ridley Scott - Martian LUT/Ridley Scott - Martian.CUBE
#Created by: Adobe Photoshop Export Color Lookup Plugin
TITLE "Ridley Scott - Martian LUT.png"
#LUT size
LUT_3D_SIZE 32
#data domain
DOMAIN_MIN 0.0 0.0 0.0
DOMAIN_MAX 1.0 1.0 1.0
#LUT data points
0.003967 0.000000 0.000000
0.088562 0.000000 0.000000
0.148193 0.000000 0.000000
0.199524 0.000000 0.000000
0.246490 0.000000 0.000000
0.290436 0.000000 0.000000
0.331848 0.000000 0.000000
0.371643 0.005798 0.000000
0.409424 0.011627 0.000000
0.446289 0.017303 0.000000
0.481750 0.023102 0.000000
0.516541 0.028687 0.000000
0.550171 0.034271 0.000000
0.583252 0.040131 0.001770
0.615417 0.045776 0.006714
0.646942 0.051086 0.011627
0.677948 0.056335 0.016479
0.708496 0.061340 0.021271
0.738556 0.066437 0.026093
0.768066 0.071350 0.030975
0.797089 0.076202 0.035980
0.825745 0.080872 0.040741
0.853973 0.085388 0.045563
0.881927 0.089996 0.050110
0.909485 0.094543 0.054413
0.936523 0.098633 0.058929
0.963501 0.102570 0.063385
0.990173 0.106476 0.067810
1.000000 0.110291 0.072144
1.000000 0.114075 0.076324
1.000000 0.117798 0.080505
1.000000 0.121582 0.084564
0.049988 0.030334 0.000000
0.082550 0.021118 0.000000
0.144470 0.026672 0.000000
0.196960 0.030396 0.000000
0.243866 0.035492 0.000000
0.287964 0.040741 0.000000
0.329620 0.044952 0.000000
0.369537 0.050446 0.000000
0.407349 0.055603 0.000000
0.444275 0.060608 0.000000
0.479797 0.065613 0.000000
0.514587 0.070557 0.000000
0.548279 0.075226 0.000000
0.581360 0.079865 0.000000
0.613617 0.084381 0.002136
0.645111 0.088776 0.007111
0.676208 0.093048 0.011993
0.706848 0.097229 0.016846
0.736816 0.101166 0.021698
0.766357 0.105133 0.026672
0.795380 0.109222 0.031647
0.824066 0.113037 0.036560
0.852325 0.116760 0.041382
0.880310 0.120270 0.046204
0.907867 0.124146 0.050873
0.935059 0.127625 0.055206
0.961914 0.131287 0.059662
0.988617 0.134796 0.064026
1.000000 0.138245 0.068451
1.000000 0.142120 0.072693
1.000000 0.145721 0.076904
1.000000 0.149139 0.081024
0.089294 0.083069 0.043182
0.100159 0.068115 0.000000
0.138245 0.067810 0.000000
0.191620 0.073853 0.000000
0.239471 0.077209 0.000000
0.285065 0.081207 0.000000
0.327240 0.084595 0.000000
0.367340 0.088287 0.000000
0.405304 0.092407 0.000000
0.442261 0.096497 0.000000
0.477905 0.100464 0.000000
0.512634 0.104279 0.000000
0.546448 0.108063 0.000000
0.579498 0.111908 0.000000
0.611786 0.115845 0.000000
0.643341 0.119476 0.002594
0.674530 0.123169 0.007477
0.705109 0.126709 0.012360
0.735107 0.130249 0.017212
0.764648 0.133789 0.022278
0.793732 0.137329 0.027313
0.822449 0.140778 0.032227
0.850677 0.144379 0.037170
0.878662 0.147858 0.041992
0.906281 0.151459 0.046814
0.933563 0.154907 0.051483
0.960449 0.158325 0.056152
0.987061 0.161652 0.060608
1.000000 0.165039 0.065094
1.000000 0.168243 0.069305
1.000000 0.171600 0.073608
1.000000 0.174866 0.077698
0.120758 0.123352 0.084839
0.136322 0.113373 0.033417
0.134979 0.099670 0.000000
0.186188 0.105896 0.000000
0.234528 0.110657 0.000000
0.279663 0.114258 0.000000
0.322479 0.117493 0.000000
0.364166 0.119537 0.000000
0.403320 0.122528 0.000000
0.440216 0.126068 0.000000
0.476013 0.129608 0.000000
0.510681 0.133118 0.000000
0.544647 0.136627 0.000000
0.577667 0.140076 0.000000
0.609985 0.143372 0.000000
0.641541 0.146912 0.000000
0.672852 0.150269 0.003357
0.703369 0.153564 0.007874
0.733368 0.157074 0.012726
0.763000 0.160309 0.017883
0.792053 0.164032 0.022949
0.820770 0.167358 0.027893
0.849060 0.170532 0.032928
0.877075 0.173798 0.037781
0.904663 0.177002 0.042694
0.931976 0.180298 0.047424
0.958954 0.183441 0.052155
0.985504 0.186768 0.056732
1.000000 0.189880 0.061279
1.000000 0.193207 0.065674
1.000000 0.196625 0.070068
1.000000 0.199677 0.074402
0.148346 0.157654 0.117035
0.167969 0.149109 0.081909
0.165527 0.136414 0.004272
0.182617 0.131561 0.000000
0.228821 0.137268 0.000000
0.273987 0.142120 0.000000
0.317108 0.145905 0.000000
0.358521 0.148682 0.000000
0.398254 0.151031 0.000000
0.436615 0.153839 0.000000
0.473083 0.156891 0.000000
0.508759 0.159698 0.000000
0.542786 0.163025 0.000000
0.575775 0.166229 0.000000
0.608154 0.169495 0.000000
0.639801 0.173065 0.000000
0.671051 0.176300 0.000000
0.701599 0.179443 0.003815
0.731659 0.182648 0.008545
0.761261 0.185760 0.013489
0.790375 0.189056 0.018463
0.819122 0.192108 0.023560
0.847443 0.195282 0.028564
0.875397 0.198517 0.033508
0.903046 0.201752 0.038452
0.930389 0.204926 0.043243
0.957397 0.207977 0.048035
0.983917 0.211121 0.052734
1.000000 0.214264 0.057312
1.000000 0.217133 0.061859
1.000000 0.220306 0.066315
1.000000 0.223206 0.070679
0.172638 0.182007 0.137451
0.195435 0.179108 0.117035
0.193359 0.167206 0.053497
0.185089 0.158447 0.000000
0.224976 0.161041 0.000000
0.268799 0.166199 0.000000
0.311615 0.171143 0.000000
0.353394 0.174591 0.000000
0.393524 0.177521 0.000000
0.431732 0.180420 0.000000
0.468170 0.183746 0.000000
0.504517 0.186340 0.000000
0.539520 0.188965 0.000000
0.573639 0.191650 0.000000
0.606323 0.194489 0.000000
0.638153 0.197632 0.000000
0.669312 0.200775 0.000000
0.699829 0.203766 0.000000
0.729919 0.206879 0.004211
0.759583 0.210266 0.009430
0.788696 0.213318 0.014618
0.817444 0.216309 0.019409
0.845734 0.219421 0.024292
0.873779 0.222351 0.029205
0.901398 0.225433 0.034210
0.928772 0.228302 0.039062
0.955811 0.231262 0.043915
0.982544 0.234314 0.048645
1.000000 0.237427 0.053345
1.000000 0.240570 0.057892
1.000000 0.243469 0.062439
1.000000 0.246490 0.066895
0.197266 0.199585 0.149567
0.216278 0.206726 0.143280
0.205688 0.194580 0.080566
0.197449 0.187347 0.000000
0.222626 0.183746 0.000000
0.264893 0.188446 0.000000
0.306702 0.193970 0.000000
0.348267 0.198486 0.000000
0.388245 0.202209 0.000000
0.426331 0.205475 0.000000
0.463196 0.208710 0.000000
0.499298 0.211731 0.000000
0.534454 0.214417 0.000000
0.569336 0.216766 0.000000
0.603088 0.219299 0.000000
0.635162 0.222198 0.000000
0.667511 0.224640 0.000000
0.698090 0.227539 0.000000
0.728210 0.230469 0.000000
0.757843 0.233490 0.004822
0.787018 0.236389 0.010132
0.815826 0.239258 0.015198
0.844116 0.242188 0.020294
0.872162 0.245117 0.025452
0.899811 0.248108 0.030487
0.927155 0.251221 0.035217
0.954224 0.254120 0.039978
0.980957 0.256989 0.044678
1.000000 0.260010 0.049316
1.000000 0.262848 0.053955
1.000000 0.265625 0.058533
1.000000 0.268585 0.063080
0.210938 0.215668 0.160431
0.232391 0.224548 0.162384
0.218201 0.221863 0.104553
0.210419 0.214722 0.032013
0.228638 0.210022 0.000000
0.262604 0.210327 0.000000
0.302551 0.214722 0.000000
0.342743 0.220154 0.000000
0.382568 0.224762 0.000000
0.421265 0.228394 0.000000
0.457855 0.231995 0.000000
0.493866 0.235474 0.000000
0.529663 0.238220 0.000000
0.563934 0.241058 0.000000
0.597473 0.243835 0.000000
0.630859 0.246277 0.000000
0.663483 0.248718 0.000000
0.695038 0.251129 0.000000
0.726471 0.253021 0.000000
0.756165 0.256134 0.000153
0.785339 0.259064 0.005493
0.814148 0.261871 0.010651
0.842468 0.264709 0.015869
0.870514 0.267639 0.020996
0.898163 0.270294 0.026093
0.925568 0.273163 0.031067
0.952637 0.276001 0.036041
0.979401 0.278809 0.040955
1.000000 0.281738 0.045776
1.000000 0.284790 0.050446
1.000000 0.287476 0.054626
1.000000 0.290344 0.059204
0.222137 0.231110 0.171173
0.246307 0.240448 0.177643
0.230988 0.244446 0.123901
0.220490 0.241058 0.057648
0.234314 0.236084 0.000610
0.262726 0.232910 0.000000
0.300171 0.235657 0.000000
0.338043 0.240204 0.000000
0.377258 0.245392 0.000000
0.416199 0.249908 0.000000
0.452850 0.254028 0.000000
0.488708 0.257599 0.000000
0.524323 0.260712 0.000000
0.559387 0.263550 0.000000
0.593079 0.266632 0.000000
0.626373 0.269104 0.000000
0.659271 0.271484 0.000000
0.690948 0.274139 0.000000
0.722290 0.276398 0.000000
0.753235 0.278687 0.000000
0.782410 0.281586 0.004578
0.812592 0.283630 0.006104
0.840851 0.286346 0.011322
0.868896 0.289185 0.016541
0.896576 0.292145 0.021637
0.923950 0.294861 0.026672
0.951019 0.297638 0.031708
0.977814 0.300354 0.036682
1.000000 0.303070 0.041595
1.000000 0.305878 0.046326
1.000000 0.308533 0.051086
1.000000 0.311371 0.055725
0.233063 0.246429 0.181763
0.256927 0.255280 0.188110
0.246948 0.261230 0.143677
0.229706 0.266113 0.078949
0.238617 0.260925 0.019867
0.266937 0.257507 0.000000
0.297791 0.255707 0.000000
0.335785 0.260162 0.000000
0.373016 0.265015 0.000000
0.410767 0.270050 0.000000
0.447937 0.274597 0.000000
0.484528 0.278473 0.000000
0.519592 0.282166 0.000000
0.554749 0.285217 0.000000
0.588287 0.288239 0.000000
0.621368 0.291046 0.000000
0.654175 0.293793 0.000000
0.687317 0.295898 0.000000
0.717255 0.298920 0.000000
0.748138 0.301392 0.001923
0.778992 0.303589 0.004059
0.809235 0.305786 0.005737
0.837860 0.308594 0.010864
0.867279 0.310486 0.011993
0.894958 0.313049 0.017212
0.922363 0.315765 0.022278
0.949432 0.318573 0.027405
0.976227 0.321136 0.032410
1.000000 0.324036 0.037323
1.000000 0.326813 0.042206
1.000000 0.329437 0.047028
1.000000 0.332153 0.051758
0.243896 0.261292 0.191864
0.267456 0.270111 0.198090
0.262543 0.277618 0.162659
0.244537 0.283539 0.102173
0.242645 0.285309 0.037659
0.270874 0.282104 0.001617
0.299744 0.278900 0.000000
0.333710 0.279816 0.000000
0.370270 0.283997 0.000000
0.406433 0.288696 0.000000
0.443481 0.293640 0.000000
0.479645 0.298218 0.000000
0.514618 0.302277 0.000000
0.549164 0.305817 0.000000
0.583618 0.308929 0.000000
0.616058 0.312256 0.000000
0.649994 0.314911 0.000000
0.682129 0.317505 0.000000
0.713409 0.320190 0.000000
0.744263 0.322754 0.001831
0.773956 0.325562 0.006958
0.804260 0.327911 0.009216
0.834290 0.330017 0.010712
0.862762 0.332733 0.015808
0.891785 0.334686 0.016998
0.919128 0.337402 0.022217
0.947845 0.339081 0.023041
0.974640 0.341766 0.028046
1.000000 0.344360 0.033051
1.000000 0.347015 0.037933
1.000000 0.349670 0.042816
1.000000 0.352264 0.047638
0.254547 0.275848 0.202087
0.277771 0.284668 0.208191
0.277649 0.292633 0.180878
0.262939 0.300049 0.128784
0.252197 0.306610 0.065674
0.274780 0.305725 0.019562
0.303040 0.302734 0.000000
0.333008 0.300232 0.000000
0.368134 0.302979 0.000000
0.403687 0.307373 0.000000
0.438843 0.311890 0.000000
0.475006 0.316895 0.000000
0.510681 0.321167 0.000000
0.544434 0.325378 0.000000
0.578796 0.328949 0.000000
0.611328 0.332275 0.000000
0.644653 0.335236 0.000000
0.676819 0.338104 0.000244
0.708130 0.341125 0.002380
0.739044 0.343781 0.005432
0.769989 0.346313 0.007172
0.800812 0.348572 0.008972
0.829193 0.351471 0.014679
0.859283 0.353546 0.015717
0.888794 0.355560 0.016754
0.915985 0.358368 0.022217
0.944611 0.360260 0.023041
0.971375 0.362915 0.028259
0.999634 0.364624 0.028687
1.000000 0.367096 0.033722
1.000000 0.369720 0.038635
1.000000 0.372284 0.043518
0.265106 0.290314 0.211945
0.287994 0.298706 0.217926
0.298340 0.307251 0.208954
0.284607 0.314911 0.161316
0.271423 0.322205 0.107483
0.278198 0.328949 0.036835
0.306305 0.325836 0.004974
0.335236 0.322723 0.000000
0.365814 0.321350 0.000000
0.401459 0.325684 0.000000
0.435913 0.329895 0.000000
0.471344 0.334747 0.000000
0.506012 0.339386 0.000000
0.540588 0.344025 0.000000
0.574127 0.348053 0.000000
0.606567 0.351501 0.000000
0.639465 0.354980 0.000610
0.671478 0.358154 0.003906
0.702942 0.361084 0.006348
0.733856 0.363831 0.009125
0.764587 0.366577 0.011230
0.795319 0.369263 0.012726
0.825562 0.371704 0.014771
0.855621 0.373993 0.015961
0.883850 0.376648 0.021057
0.912872 0.378754 0.022156
0.941376 0.380737 0.023102
0.968079 0.383453 0.028412
0.996307 0.385223 0.028992
1.000000 0.387787 0.034210
1.000000 0.390442 0.039276
1.000000 0.391693 0.039276
0.275482 0.304535 0.221893
0.298096 0.312836 0.227783
0.313019 0.321045 0.225586
0.305725 0.329315 0.191864
0.292084 0.337555 0.143127
0.295105 0.345642 0.082123
0.309845 0.348663 0.022583
0.338165 0.345428 0.000000
0.367279 0.342834 0.000000
0.399231 0.343842 0.000000
0.433746 0.347778 0.000000
0.467529 0.351959 0.000000
0.502197 0.356812 0.000000
0.535675 0.361542 0.000000
0.568848 0.365997 0.000702
0.601898 0.370056 0.002380
0.634766 0.373901 0.003967
0.666138 0.377167 0.007111
0.698578 0.380157 0.006866
0.729706 0.383240 0.009735
0.760468 0.386078 0.011688
0.791107 0.388611 0.013336
0.821411 0.391113 0.015289
0.849792 0.393951 0.020691
0.879608 0.396210 0.021790
0.909027 0.398438 0.022583
0.936005 0.401459 0.028198
0.964233 0.403564 0.029205
0.992737 0.405304 0.029907
1.000000 0.407990 0.035492
1.000000 0.410675 0.040527
1.000000 0.412018 0.040588
0.285736 0.318359 0.231415
0.308014 0.326782 0.237335
0.325775 0.334808 0.238831
0.324432 0.343140 0.216919
0.313019 0.352570 0.175110
0.313782 0.361023 0.121582
0.317902 0.368561 0.051941
0.341248 0.367859 0.011841
0.369629 0.364899 0.000000
0.398224 0.362915 0.000000
0.431549 0.365601 0.000000
0.465424 0.369751 0.000000
0.498291 0.373718 0.000000
0.531860 0.378784 0.000000
0.565063 0.383453 0.001984
0.597595 0.387848 0.004974
0.630432 0.391632 0.006195
0.662811 0.395447 0.006714
0.693695 0.398804 0.010498
0.724548 0.401917 0.013031
0.755157 0.404999 0.015961
0.785339 0.408051 0.017944
0.815674 0.410645 0.020020
0.845459 0.413177 0.021576
0.875153 0.415680 0.022797
0.904633 0.417938 0.023621
0.932007 0.420715 0.028931
0.960052 0.422913 0.030701
0.987000 0.425781 0.035767
1.000000 0.427460 0.036255
1.000000 0.430389 0.041504
1.000000 0.431824 0.041443
0.295898 0.332184 0.241089
0.317841 0.340179 0.246826
0.338562 0.348358 0.251862
0.336975 0.356476 0.230377
0.332947 0.366272 0.204254
0.331757 0.375366 0.155029
0.335846 0.383240 0.097229
0.344086 0.389618 0.028107
0.372345 0.386627 0.003815
0.400146 0.383942 0.000000
0.429260 0.383179 0.000000
0.463104 0.386993 0.000000
0.495972 0.391022 0.000000
0.528381 0.395081 0.000244
0.561279 0.400024 0.003967
0.593719 0.404694 0.006561
0.625916 0.409027 0.008972
0.658386 0.413025 0.009888
0.688965 0.416504 0.013275
0.720764 0.419983 0.013336
0.751373 0.423126 0.016327
0.781250 0.426270 0.018616
0.811462 0.429138 0.020905
0.841217 0.431885 0.022430
0.870544 0.434296 0.023834
0.898438 0.437408 0.029205
0.927460 0.439789 0.030701
0.955963 0.442047 0.031799
0.982758 0.444672 0.037109
1.000000 0.446686 0.037170
1.000000 0.449432 0.042633
1.000000 0.451202 0.042542
0.305969 0.345886 0.250366
0.327606 0.353760 0.256195
0.348572 0.361542 0.261810
0.349426 0.369843 0.243530
0.346924 0.379700 0.220825
0.345947 0.389923 0.181915
0.346436 0.399414 0.124084
0.351562 0.408203 0.060944
0.375031 0.408264 0.020538
0.402557 0.405151 0.000000
0.430328 0.403137 0.000000
0.460602 0.404205 0.000000
0.493652 0.408173 0.000000
0.526062 0.411926 0.000000
0.557556 0.416107 0.005432
0.589905 0.420929 0.008545
0.621826 0.425781 0.011078
0.653992 0.430023 0.012451
0.685760 0.433899 0.013184
0.715820 0.437622 0.017212
0.746246 0.440826 0.020447
0.776001 0.444214 0.023041
0.805756 0.447296 0.025787
0.836792 0.450134 0.023468
0.864655 0.453064 0.029358
0.893890 0.455658 0.031128
0.922729 0.458191 0.032227
0.951569 0.460480 0.032928
0.978333 0.463470 0.038300
1.000000 0.465729 0.038574
1.000000 0.468323 0.043640
1.000000 0.470337 0.043793
0.315918 0.359100 0.259796
0.337250 0.367126 0.265350
0.358032 0.374817 0.270813
0.363098 0.382233 0.258087
0.363556 0.391144 0.240814
0.358459 0.404327 0.205505
0.356720 0.415344 0.149017
0.360382 0.425323 0.092621
0.379364 0.428314 0.042755
0.405090 0.426392 0.012146
0.431824 0.423584 0.000000
0.459534 0.422150 0.000000
0.491302 0.424835 0.000000
0.523651 0.428833 0.000000
0.555603 0.432831 0.001831
0.586090 0.436798 0.010559
0.617920 0.441803 0.013031
0.649689 0.446381 0.015564
0.681274 0.450653 0.016541
0.711273 0.454529 0.020905
0.742401 0.458099 0.021057
0.772186 0.461609 0.023712
0.801636 0.464661 0.026611
0.831116 0.467957 0.028625
0.860199 0.470703 0.030975
0.889221 0.473633 0.032501
0.918243 0.476288 0.033630
0.947083 0.478790 0.034485
0.973877 0.481476 0.039978
1.000000 0.483856 0.040588
1.000000 0.486755 0.045654
1.000000 0.488922 0.045776
0.325562 0.372467 0.268860
0.346832 0.380096 0.274597
0.367432 0.387939 0.280060
0.380432 0.393311 0.278351
0.381012 0.402130 0.261444
0.377563 0.413727 0.232605
0.367126 0.431091 0.172394
0.369965 0.442047 0.120178
0.387939 0.445160 0.077332
0.407898 0.447083 0.028931
0.434448 0.444336 0.004364
0.461182 0.442200 0.000000
0.488983 0.441589 0.000000
0.521362 0.445404 0.000000
0.553345 0.449219 0.000000
0.584351 0.453094 0.006653
0.615234 0.457642 0.012451
0.645630 0.462067 0.017822
0.676910 0.466644 0.019928
0.708008 0.470917 0.020844
0.737671 0.474731 0.024567
0.768524 0.478485 0.024139
0.797943 0.481750 0.027191
0.827301 0.485107 0.029480
0.856323 0.488068 0.031860
0.885345 0.491150 0.033356
0.913879 0.493805 0.035217
0.941010 0.496704 0.040802
0.969604 0.499481 0.041656
0.997925 0.501831 0.042267
1.000000 0.504578 0.047424
1.000000 0.506836 0.047638
0.335449 0.385559 0.278137
0.356323 0.393188 0.283508
0.376740 0.400696 0.288849
0.392334 0.406067 0.290466
0.397430 0.412048 0.280243
0.395905 0.422455 0.257355
0.383575 0.441864 0.199188
0.379913 0.457520 0.144531
0.395599 0.461823 0.104309
0.414124 0.464539 0.058624
0.437042 0.464874 0.021362
0.463043 0.462097 0.000000
0.489655 0.460480 0.000000
0.518982 0.461670 0.000000
0.550934 0.465546 0.000000
0.582062 0.469421 0.004211
0.612335 0.473206 0.011932
0.642761 0.477875 0.017517
0.673889 0.482666 0.019409
0.703857 0.486816 0.023621
0.734772 0.491058 0.024414
0.763702 0.494690 0.028198
0.793152 0.498322 0.031555
0.823761 0.501801 0.030396
0.852478 0.505066 0.032562
0.881287 0.508179 0.034332
0.908325 0.511108 0.040863
0.936646 0.514099 0.042206
0.965210 0.516724 0.043091
0.993256 0.519257 0.043915
1.000000 0.522247 0.049194
1.000000 0.524597 0.049713
0.345062 0.398346 0.287323
0.365723 0.406097 0.292633
0.385986 0.413544 0.297913
0.402130 0.419617 0.300018
0.412445 0.422668 0.296906
0.413818 0.430939 0.281250
0.402069 0.450653 0.225800
0.391357 0.471405 0.168457
0.402985 0.478180 0.126617
0.419861 0.482452 0.082550
0.439697 0.484985 0.038300
0.465485 0.482483 0.013031
0.491272 0.480072 0.000000
0.517456 0.478760 0.000000
0.548248 0.481506 0.000000
0.579651 0.485352 0.001312
0.610321 0.489288 0.008820
0.639832 0.493286 0.017151
0.669830 0.497711 0.022430
0.700989 0.502411 0.023468
0.730347 0.506500 0.027893
0.760834 0.510712 0.028198
0.789642 0.514618 0.032135
0.818695 0.518188 0.034912
0.847321 0.521423 0.037598
0.875763 0.524811 0.039978
0.904388 0.527802 0.041992
0.932526 0.530945 0.043518
0.960907 0.533752 0.044830
0.988831 0.536438 0.046051
1.000000 0.539337 0.051544
1.000000 0.541809 0.051941
0.354584 0.411224 0.296112
0.375031 0.418640 0.301361
0.395142 0.426270 0.306702
0.412384 0.432770 0.309998
0.422180 0.436005 0.306274
0.430145 0.440399 0.300354
0.420319 0.459351 0.251740
0.409058 0.480530 0.197540
0.407379 0.496460 0.140198
0.424316 0.500793 0.099670
0.442871 0.504272 0.056335
0.467804 0.502319 0.030396
0.493317 0.499695 0.005188
0.519073 0.497955 0.000000
0.545807 0.497528 0.000000
0.577271 0.501312 0.000000
0.607941 0.505005 0.006104
0.638245 0.508820 0.013336
0.667053 0.512817 0.022217
0.696655 0.517181 0.027100
0.727509 0.522034 0.027832
0.756500 0.526123 0.032135
0.786499 0.530396 0.032349
0.815125 0.533936 0.035919
0.843781 0.537537 0.038452
0.872040 0.541077 0.041229
0.900299 0.544220 0.043091
0.928558 0.547394 0.045105
0.956482 0.550323 0.046600
0.984619 0.553253 0.047699
1.000000 0.556091 0.053223
1.000000 0.558777 0.053894
0.363983 0.423981 0.305084
0.384308 0.431335 0.310303
0.404205 0.438629 0.315491
0.422546 0.445770 0.319855
0.432159 0.449005 0.316193
0.442108 0.452332 0.313049
0.436676 0.468781 0.277893
0.425293 0.490082 0.226227
0.418884 0.509216 0.167328
0.428772 0.519165 0.114960
0.446320 0.523346 0.072632
0.470795 0.521545 0.047852
0.495636 0.519348 0.022278
0.520599 0.516907 0.000000
0.546295 0.515625 0.000000
0.574646 0.516846 0.000000
0.605591 0.520691 0.003815
0.635742 0.524567 0.011017
0.665222 0.528412 0.018524
0.693756 0.532196 0.027191
0.723114 0.536682 0.031799
0.753540 0.541443 0.032227
0.782074 0.545410 0.036560
0.811707 0.549744 0.036407
0.840210 0.553375 0.039154
0.868439 0.556976 0.042145
0.896454 0.560272 0.044281
0.924530 0.563568 0.046478
0.952637 0.566498 0.047974
0.980377 0.569611 0.049194
1.000000 0.572479 0.054962
1.000000 0.575409 0.056061
0.373352 0.436340 0.313660
0.393463 0.443909 0.318878
0.413269 0.451141 0.324310
0.432343 0.458282 0.329376
0.442810 0.461487 0.326904
0.452942 0.464325 0.323944
0.451630 0.477753 0.301086
0.440796 0.498779 0.252533
0.432983 0.518555 0.196960
0.434509 0.535980 0.131958
0.449982 0.542084 0.088226
0.473907 0.540833 0.063263
0.497986 0.538879 0.038788
0.522736 0.536255 0.014771
0.547729 0.534515 0.000000
0.573151 0.533203 0.000000
0.603058 0.536072 0.001068
0.633240 0.539856 0.008545
0.663269 0.543732 0.015717
0.691956 0.547485 0.023560
0.720154 0.551361 0.032013
0.749176 0.555725 0.036346
0.779205 0.560455 0.036774
0.807495 0.564392 0.040802
0.836914 0.568848 0.040131
0.865143 0.572357 0.042816
0.893158 0.575897 0.045502
0.920807 0.579407 0.047638
0.948853 0.582520 0.049194
0.976501 0.585663 0.051086
1.000000 0.588654 0.056854
1.000000 0.591583 0.057770
0.382690 0.448883 0.322510
0.402588 0.456085 0.327637
0.422211 0.463531 0.332764
0.441315 0.470612 0.337769
0.453644 0.473389 0.337555
0.463501 0.476654 0.334625
0.464294 0.487885 0.315979
0.456055 0.507477 0.277832
0.446777 0.527649 0.225220
0.448639 0.545563 0.164703
0.453796 0.560272 0.103180
0.476746 0.559784 0.077576
0.500763 0.557831 0.054626
0.525024 0.555603 0.031342
0.549377 0.553162 0.006500
0.574432 0.551758 0.000244
0.600342 0.551483 0.000000
0.630798 0.555267 0.005890
0.660645 0.559052 0.012817
0.690033 0.562714 0.020538
0.718292 0.566437 0.028473
0.746124 0.570282 0.036835
0.776306 0.575287 0.036896
0.804535 0.579407 0.041077
0.832581 0.583466 0.044403
0.861877 0.587646 0.043518
0.889893 0.591309 0.046326
0.917328 0.594696 0.048645
0.944946 0.598083 0.050995
0.971039 0.601379 0.057129
0.998322 0.604401 0.058411
1.000000 0.607452 0.059662
0.391785 0.461273 0.331055
0.411591 0.468384 0.336334
0.431061 0.475525 0.341370
0.450043 0.482758 0.346375
0.463806 0.485901 0.347351
0.473969 0.488892 0.345001
0.476837 0.498047 0.330566
0.469696 0.516724 0.296295
0.460724 0.537079 0.252899
0.462402 0.554962 0.195251
0.464233 0.572510 0.130920
0.479523 0.578583 0.090424
0.503632 0.576630 0.069427
0.527466 0.574554 0.046814
0.551575 0.572144 0.023407
0.575897 0.570068 0.005035
0.600647 0.569031 0.001068
0.628296 0.570221 0.003510
0.658234 0.574005 0.010498
0.687744 0.577759 0.017517
0.716400 0.581543 0.025513
0.744232 0.585327 0.033417
0.771851 0.589111 0.041504
0.801575 0.593964 0.041382
0.829590 0.598022 0.045227
0.857361 0.602051 0.048523
0.886536 0.606232 0.047211
0.914032 0.609955 0.049866
0.939606 0.613281 0.056854
0.968811 0.616943 0.053802
0.994537 0.619904 0.060547
1.000000 0.623077 0.061798
0.401093 0.473328 0.339661
0.420593 0.480652 0.344727
0.439880 0.487671 0.349701
0.458649 0.494690 0.354645
0.473206 0.498627 0.356537
0.484863 0.500275 0.356049
0.489868 0.507629 0.345642
0.482666 0.526123 0.311981
0.475281 0.545288 0.277374
0.475250 0.564178 0.224304
0.476257 0.582581 0.164673
0.483368 0.596222 0.105225
0.506348 0.595490 0.082825
0.530121 0.593475 0.061340
0.553833 0.591125 0.039429
0.577698 0.588531 0.015717
0.602051 0.587189 0.005890
0.626587 0.585938 0.001923
0.655762 0.589111 0.007568
0.685120 0.592682 0.015289
0.714325 0.596344 0.022217
0.742310 0.600098 0.030548
0.769958 0.603851 0.038086
0.797333 0.607605 0.045990
0.826630 0.612549 0.045776
0.854370 0.616638 0.049042
0.881897 0.620697 0.052490
0.910828 0.624878 0.050995
0.936279 0.628082 0.057892
0.963409 0.631653 0.060486
0.990631 0.635101 0.062103
1.000000 0.638550 0.063446
0.410034 0.485535 0.348267
0.429504 0.492798 0.353302
0.448639 0.499756 0.358215
0.467346 0.506653 0.363129
0.482727 0.511200 0.365601
0.494110 0.512848 0.365143
0.503174 0.516571 0.360840
0.496277 0.534760 0.328430
0.489990 0.553345 0.297607
0.486816 0.573334 0.251953
0.487579 0.591766 0.195099
0.493439 0.606903 0.138947
0.509003 0.613953 0.095154
0.532806 0.612030 0.075012
0.556305 0.609680 0.054352
0.579865 0.607361 0.032227
0.603394 0.605103 0.010651
