OutOfControl/Assets/Art/ColorGrading/Ridley Scott - Black Hawk Down LUT/Ridley Scott - Black Hawk Down.CUBE
#Created by: Adobe Photoshop Export Color Lookup Plugin
TITLE "Ridley Scott - Black Hawk Down LUT.png"
#LUT size
LUT_3D_SIZE 8
#data domain
#LUT data points
DOMAIN_MIN 0.000000 0.000000 0.000000
DOMAIN_MAX 0.903226 0.903226 0.903226
0.003540 0.006195 0.000000
0.141113 0.032806 0.000000
0.333984 0.119629 0.000885
0.498718 0.212769 0.001434
0.647949 0.285095 0.001770
0.766174 0.334106 0.001770
0.857269 0.380035 0.002655
0.907227 0.407959 0.002655
0.113647 0.101379 0.003754
0.143768 0.111145 0.000549
0.307739 0.165527 0.029266
0.469757 0.226196 0.002441
0.628326 0.294983 0.001770
0.757782 0.348541 0.002106
0.859528 0.393188 0.002655
0.909790 0.422760 0.002655
0.022675 0.285461 0.180176
0.029480 0.289551 0.161560
0.240784 0.300751 0.116638
0.459503 0.375854 0.194672
0.643585 0.415771 0.094757
0.783875 0.444519 0.003204
0.881836 0.478271 0.002655
0.921753 0.498169 0.002869
0.000000 0.424103 0.326050
0.000000 0.433502 0.323120
0.036560 0.451721 0.309326
0.419006 0.455566 0.296692
0.634216 0.567841 0.355743
0.789307 0.619812 0.360596
0.898193 0.635254 0.214874
0.944794 0.645844 0.124451
0.000214 0.577057 0.403992
0.021698 0.581940 0.396179
0.104218 0.602478 0.398865
0.448486 0.623138 0.423981
0.606628 0.620361 0.418030
0.785767 0.718567 0.480621
0.897156 0.771179 0.521484
0.960144 0.795410 0.514648
0.057129 0.702789 0.471039
0.162354 0.705505 0.465790
0.321442 0.721619 0.475250
0.519226 0.740631 0.490479
0.673676 0.754059 0.540497
0.754242 0.746307 0.536041
0.899597 0.835144 0.584717
0.965790 0.888092 0.629730
0.312408 0.791870 0.532288
0.365173 0.795319 0.527985
0.436676 0.811859 0.536926
0.546692 0.826904 0.544708
0.750946 0.854248 0.586334
0.822845 0.860260 0.649384
0.870361 0.854401 0.637726
0.972137 0.935638 0.695129
0.410034 0.867310 0.579041
0.447662 0.871460 0.575989
0.505463 0.883026 0.581512
0.582184 0.893860 0.587585
0.797577 0.925568 0.624207
0.888275 0.942902 0.710114
0.933746 0.949799 0.759308
0.957397 0.944946 0.735016
0.079437 0.015961 0.053040
0.190094 0.015167 0.056396
0.343903 0.095551 0.000885
0.504578 0.201508 0.001434
0.652191 0.278473 0.001770
0.768555 0.331024 0.001770
0.858612 0.377502 0.002655
0.906982 0.404327 0.002655
0.114044 0.102661 0.010468
0.159515 0.106293 0.047791
0.317902 0.125580 0.009705
0.475891 0.209778 0.001556
0.636902 0.287750 0.001770
0.767059 0.342926 0.002319
0.865143 0.392731 0.002655
0.910675 0.419098 0.002655
0.020081 0.288666 0.190186
0.045380 0.287567 0.191528
0.293793 0.325775 0.155212
0.494354 0.365479 0.178284
0.667328 0.389496 0.023346
0.791382 0.420319 0.002655
0.887299 0.459351 0.002655
0.920929 0.478516 0.002655
0.000000 0.430206 0.335175
0.000000 0.433105 0.338135
0.073914 0.473602 0.336273
0.490479 0.511719 0.338440
0.703125 0.601715 0.380920
0.836731 0.613342 0.292450
0.922394 0.614685 0.069824
0.943481 0.616333 0.018341
0.000458 0.577576 0.417755
0.003998 0.588348 0.413971
0.069214 0.611603 0.413116
0.511200 0.681549 0.466766
0.690735 0.688385 0.480255
0.859070 0.773834 0.533142
0.945770 0.798370 0.534515
0.962738 0.786835 0.499542
0.024719 0.702515 0.482178
0.184814 0.711304 0.483551
0.285004 0.717133 0.481598
0.535980 0.769958 0.514069
0.757965 0.824829 0.596558
0.834717 0.818451 0.603912
0.961792 0.904327 0.651794
0.976624 0.911194 0.657898
0.248535 0.790344 0.539856
0.356995 0.799957 0.543243
0.407928 0.804993 0.540985
0.546875 0.842438 0.559753
0.794403 0.902649 0.622345
0.908600 0.939789 0.738739
0.948151 0.935089 0.725586
0.980042 0.952118 0.713409
0.374481 0.864044 0.583649
0.438873 0.873047 0.587616
0.479340 0.878235 0.585724
0.577789 0.894714 0.594299
0.802246 0.932556 0.634369
0.911713 0.957153 0.738922
0.961731 0.966034 0.780853
0.977722 0.955963 0.727692
0.139709 0.081055 0.265717
0.212219 0.066223 0.257385
0.343933 0.051361 0.145874
0.504333 0.132935 0.005524
0.658051 0.237610 0.002869
0.770172 0.320557 0.001770
0.859436 0.373016 0.002655
0.907654 0.403046 0.002655
0.008057 0.261963 0.293976
0.166931 0.134888 0.243500
0.309601 0.106476 0.180603
0.478119 0.157806 0.015503
0.641327 0.257538 0.003754
0.769592 0.329651 0.002228
0.865326 0.386505 0.002655
0.910919 0.414429 0.002655
0.020721 0.288483 0.194061
0.000000 0.321167 0.244171
0.292236 0.294525 0.272369
0.477417 0.326477 0.215271
0.660034 0.366638 0.109680
0.794983 0.403229 0.018555
0.890778 0.443512 0.002655
0.925385 0.463043 0.002991
0.000000 0.429871 0.330231
0.000000 0.459808 0.358795
0.036560 0.453918 0.374451
0.472290 0.484558 0.349121
0.668152 0.541443 0.366455
0.811859 0.564331 0.266235
0.906403 0.583252 0.101196
0.942657 0.597626 0.039734
0.000000 0.585846 0.414581
0.000000 0.598938 0.448181
0.081757 0.603149 0.457550
0.459747 0.646637 0.463989
0.680511 0.672638 0.468994
0.835999 0.739166 0.509796
0.934418 0.756531 0.481934
0.958527 0.751617 0.449127
0.013977 0.708862 0.484802
0.008057 0.703857 0.524139
0.210327 0.718170 0.520844
0.512909 0.746735 0.517609
0.733032 0.800903 0.585938
0.825745 0.803253 0.591156
0.950256 0.882874 0.631805
0.973114 0.892761 0.644012
0.227905 0.795685 0.545959
0.128510 0.789856 0.566315
0.320618 0.801849 0.568207
0.557770 0.826385 0.562347
0.775574 0.883514 0.617920
0.896851 0.927002 0.727417
0.939240 0.920837 0.709534
0.979675 0.949951 0.715942
0.246155 0.857727 0.596069
0.262024 0.857849 0.607483
0.379700 0.867676 0.610626
0.593628 0.894592 0.603912
0.796844 0.929413 0.645874
0.909668 0.955261 0.740295
0.960907 0.965149 0.783356
0.977814 0.955811 0.731934
0.240723 0.194153 0.425842
0.252747 0.166931 0.420227
0.350220 0.107452 0.398346
0.495483 0.063354 0.277130
0.645691 0.150970 0.125702
0.769104 0.254211 0.058990
0.865814 0.332245 0.002655
0.915863 0.369720 0.002655
0.206604 0.283722 0.427185
0.235138 0.212067 0.403229
0.300018 0.151062 0.383820
0.461395 0.110382 0.293854
0.632141 0.182526 0.148712
0.767456 0.276276 0.082336
0.869904 0.343079 0.014191
0.920319 0.377960 0.003418
0.000000 0.432892 0.394867
0.000000 0.427277 0.463776
0.279266 0.320343 0.412750
0.457062 0.301758 0.371735
0.656097 0.328613 0.284027
0.795074 0.362213 0.213470
0.893524 0.399658 0.103546
0.929565 0.418762 0.051483
0.000000 0.430237 0.335541
0.000000 0.493011 0.376984
0.000000 0.477020 0.408447
0.432343 0.444519 0.435913
0.643311 0.479309 0.400574
0.804291 0.515564 0.352814
0.909515 0.546997 0.289764
0.947113 0.566864 0.252899
0.000000 0.585724 0.407501
0.033020 0.655151 0.446869
0.000000 0.627747 0.482635
0.350708 0.612061 0.517487
0.649902 0.650452 0.510376
0.804474 0.691315 0.523712
0.914825 0.700989 0.462891
0.956696 0.705872 0.429382
0.046204 0.709106 0.479065
0.158508 0.745911 0.511353
0.004761 0.718262 0.559937
0.407471 0.727539 0.573425
0.661530 0.767456 0.588318
0.813385 0.789124 0.601624
0.935547 0.853210 0.628204
0.968842 0.866821 0.644409
0.275208 0.796967 0.541992
0.262543 0.814819 0.567169
0.003662 0.787811 0.617035
0.443573 0.812195 0.615662
0.701691 0.852509 0.625916
0.874847 0.907196 0.714935
0.931854 0.908752 0.705444
0.979370 0.947479 0.722534
0.367493 0.866058 0.585968
0.153839 0.855560 0.618622
0.078003 0.850189 0.655304
0.465363 0.877075 0.660004
0.729706 0.916626 0.667480
0.899170 0.951538 0.744629
0.960052 0.964630 0.791199
0.978088 0.955933 0.738739
0.331024 0.298065 0.554504
0.330109 0.281647 0.549561
0.340851 0.212616 0.532715
0.522522 0.125305 0.502106
0.641327 0.042603 0.364838
0.757507 0.132935 0.285583
0.856873 0.268036 0.213959
0.918915 0.323364 0.142120
0.327728 0.322693 0.545624
0.322327 0.301727 0.534973
0.327942 0.252472 0.521729
0.459198 0.172516 0.497498
0.623260 0.103027 0.387421
0.755951 0.167725 0.307739
0.862061 0.284454 0.270355
0.922333 0.332977 0.219849
0.000000 0.514008 0.565857
0.183472 0.431366 0.567871
0.339752 0.373505 0.543335
0.432343 0.329224 0.526459
0.632263 0.299469 0.452759
0.783173 0.319489 0.374146
0.888458 0.362213 0.349091
0.932617 0.383789 0.325806
0.000000 0.581940 0.469421
0.000000 0.649536 0.575592
0.000000 0.579834 0.603882
0.374878 0.463379 0.553772
0.608002 0.451202 0.514343
0.797821 0.475922 0.447021
0.909851 0.501221 0.416443
0.950104 0.513123 0.398926
0.000000 0.586060 0.420624
0.014832 0.666107 0.470520
0.001892 0.649109 0.509369
0.254547 0.638153 0.539734
0.571777 0.601227 0.578278
0.781311 0.632904 0.546234
0.908539 0.652252 0.503113
0.959656 0.665955 0.481842
0.046844 0.709106 0.476532
0.297668 0.780365 0.525146
0.271240 0.762909 0.529449
0.322266 0.740265 0.587189
0.541687 0.733337 0.632141
0.788879 0.770874 0.644623
0.908600 0.805817 0.651672
0.963593 0.812897 0.635132
0.307587 0.797852 0.537964
0.380310 0.850006 0.573792
0.218933 0.824615 0.591370
0.326569 0.806000 0.654633
0.581238 0.824738 0.678009
0.811829 0.873657 0.713867
0.922913 0.899200 0.739105
0.979645 0.939331 0.759491
0.388275 0.868073 0.583496
0.386322 0.879028 0.599518
0.078400 0.854950 0.645569
0.373260 0.860474 0.715942
0.596222 0.893250 0.722137
0.839172 0.937164 0.752594
0.956970 0.965027 0.823212
0.980774 0.961731 0.786163
0.386383 0.360291 0.663696
0.384766 0.351105 0.658997
0.383514 0.314270 0.641907
0.429565 0.229950 0.619080
0.685150 0.099884 0.570587
0.751434 0.004639 0.430084
0.846039 0.074738 0.381744
0.912048 0.236877 0.358398
0.381592 0.369476 0.649445
0.380005 0.363159 0.644989
0.379120 0.337280 0.634277
0.404144 0.270020 0.613495
0.654449 0.171722 0.581726
0.749146 0.051270 0.457855
0.850708 0.128052 0.404114
0.917877 0.244781 0.390991
0.172852 0.535156 0.678040
0.374146 0.444366 0.658966
0.396118 0.425995 0.655548
0.418488 0.381958 0.639740
0.614471 0.325684 0.616791
0.764069 0.257141 0.518066
0.873688 0.299316 0.454376
0.928711 0.330200 0.444946
0.000000 0.692505 0.672180
0.030121 0.663208 0.714661
0.133301 0.570923 0.691498
0.395569 0.506378 0.664032
0.553436 0.463654 0.645508
0.765106 0.452423 0.580109
0.895935 0.474426 0.517822
0.949738 0.487640 0.506683
0.000000 0.699524 0.541229
0.000000 0.763611 0.609344
0.113251 0.744202 0.688171
0.241455 0.688690 0.714874
0.457001 0.600647 0.678406
0.742188 0.603516 0.640594
0.903168 0.621429 0.573944
0.961639 0.630341 0.558258
0.004211 0.708344 0.488464
0.179138 0.778717 0.538696
0.012207 0.760284 0.569794
0.217224 0.753540 0.606201
0.479004 0.746582 0.645294
0.701324 0.726471 0.702484
0.888031 0.749054 0.670380
0.965118 0.760376 0.639526
0.298096 0.797638 0.539185
0.402649 0.869110 0.581421
0.432098 0.863983 0.583557
0.350464 0.840485 0.617798
0.505280 0.830597 0.688049
0.694702 0.835663 0.747162
0.905701 0.884827 0.778961
0.973724 0.912598 0.790405
0.407257 0.869904 0.581055
0.417023 0.886383 0.594757
0.337799 0.873108 0.613861
0.319092 0.863831 0.673737
0.505768 0.877869 0.752502
0.726349 0.912720 0.792267
0.925720 0.955597 0.840485
0.983154 0.967194 0.845337
0.418182 0.395996 0.747528
0.416962 0.389221 0.744263
0.415009 0.360962 0.734222
0.424744 0.309204 0.713318
0.578094 0.223480 0.702606
0.809509 0.048645 0.614380
0.834564 0.000885 0.496124
0.900177 0.023773 0.462799
0.416931 0.407379 0.740814
0.416595 0.403931 0.739014
0.415405 0.383423 0.732666
0.421570 0.338898 0.716003
0.526184 0.267395 0.708466
0.800110 0.109589 0.632050
0.839203 0.003204 0.519073
0.905579 0.067474 0.483948
0.372894 0.542419 0.764465
0.426422 0.472656 0.750275
0.431000 0.462982 0.751373
0.440308 0.425964 0.740967
0.505066 0.368958 0.730804
0.796356 0.282898 0.671326
0.857666 0.161713 0.567413
0.915039 0.237396 0.528259
0.140350 0.696045 0.764771
0.189941 0.650238 0.787628
0.346802 0.577087 0.770691
0.431061 0.541199 0.760925
0.503418 0.493927 0.748566
0.740234 0.460693 0.729431
0.874359 0.425995 0.630981
0.939423 0.448364 0.586578
0.168762 0.775757 0.695129
0.289368 0.806061 0.812439
0.245453 0.739288 0.800812
0.324158 0.669891 0.785034
0.465332 0.622955 0.773468
0.669220 0.595551 0.763977
0.876160 0.602051 0.696716
0.958923 0.615692 0.638916
0.000000 0.780853 0.588409
0.007843 0.840179 0.659668
0.202240 0.834076 0.709839
0.322632 0.817383 0.789642
0.393616 0.764771 0.803650
0.568604 0.701263 0.787415
0.855103 0.723480 0.762268
0.968842 0.735138 0.696320
0.217316 0.795471 0.546783
0.271057 0.858917 0.594482
0.051361 0.841797 0.621399
0.180939 0.833649 0.662964
0.451324 0.838440 0.706146
0.627258 0.841705 0.753906
0.817810 0.834015 0.819763
0.963287 0.859680 0.808075
0.388275 0.868073 0.583496
0.408234 0.885468 0.595734
0.432404 0.886139 0.601593
0.374573 0.875366 0.629669
0.492981 0.883942 0.703552
0.651215 0.902496 0.790527
0.830688 0.928284 0.860016
0.981506 0.967621 0.893860
0.427246 0.405823 0.772095
0.426880 0.400909 0.771149
0.426025 0.377838 0.766815
0.433655 0.334991 0.759003
0.494690 0.263733 0.759766
0.802948 0.160736 0.720184
0.888672 0.004425 0.624054
0.892609 0.000000 0.553894
0.429443 0.420532 0.774353
0.429443 0.418182 0.773926
0.428772 0.400360 0.770447
0.433990 0.362183 0.763611
0.476440 0.301086 0.759705
0.765900 0.226715 0.743439
0.890564 0.024628 0.637299
0.898132 0.000000 0.571777
0.424866 0.521271 0.793243
0.440094 0.485504 0.785431
0.442047 0.474976 0.784302
0.449799 0.439911 0.778625
0.481903 0.388062 0.771759
0.744110 0.337982 0.769379
0.897583 0.126831 0.654633
0.906708 0.008820 0.616180
0.225494 0.690582 0.820374
0.318634 0.638824 0.821411
0.379608 0.585602 0.806366
0.446259 0.555450 0.801483
0.499573 0.510071 0.793640
0.655914 0.477081 0.802856
0.909332 0.402557 0.708557
0.926117 0.370941 0.678223
0.313049 0.812500 0.842133
0.304871 0.781128 0.841156
0.263733 0.716949 0.828430
0.368286 0.659515 0.824890
0.466278 0.634399 0.822845
0.598755 0.596405 0.821777
0.883881 0.590790 0.790253
0.944977 0.571442 0.737366
0.202515 0.838409 0.718079
0.331635 0.843811 0.830750
0.328064 0.824371 0.852814
0.329895 0.800659 0.846710
0.432343 0.740051 0.842773
0.543213 0.698761 0.847076
0.797516 0.702240 0.851715
0.954163 0.715454 0.804810
0.000000 0.842926 0.636444
0.040161 0.854248 0.686584
0.288208 0.854431 0.739014
0.363708 0.853912 0.795776
0.404144 0.845184 0.854889
0.480530 0.833038 0.867340
0.685181 0.786163 0.878326
0.950684 0.832123 0.874054
0.271484 0.859283 0.594666
0.134155 0.865692 0.618835
0.046844 0.859131 0.650055
0.211517 0.857880 0.696564
0.438232 0.872467 0.747681
0.599365 0.895477 0.798767
0.758759 0.917328 0.855133
0.917664 0.934875 0.925995
