OutOfControl/Assets/Art/ColorGrading/Ridley Scott - Black Hawk Down LUT/Ridley Scott - Black Hawk Down.3DL
#Created by: Adobe Photoshop Export Color Lookup Plugin
#Description: Ridley Scott - Black Hawk Down LUT.png
0 33 66 99 132 165 198 231 264 297 330 363 396 429 462 495 528 561 594 627 660 693 726 759 792 825 858 891 924 957 990 1023
14 25 0
92 20 21
168 14 42
249 37 125
325 65 217
388 112 384
444 170 584
505 244 824
572 332 1088
651 426 1292
759 547 1449
862 667 1593
986 795 1744
1097 914 1885
1197 1029 2023
1285 1131 2154
1356 1221 2271
1420 1299 2379
1480 1363 2490
1534 1421 2607
1582 1475 2718
1623 1521 2822
1660 1562 2919
1687 1594 2993
1712 1622 3061
1729 1640 3106
1742 1654 3142
1747 1659 3154
1750 1662 3162
1752 1665 3169
1755 1669 3176
1758 1672 3184
71 67 4
70 69 13
127 102 70
221 102 148
307 111 233
358 150 374
405 204 559
473 273 796
557 351 1054
635 444 1267
742 555 1423
847 675 1569
965 802 1719
1080 921 1862
1182 1033 2000
1273 1134 2132
1345 1223 2251
1411 1302 2360
1471 1365 2472
1526 1424 2585
1575 1478 2697
1617 1526 2803
1654 1567 2901
1683 1600 2979
1709 1629 3050
1728 1650 3101
1744 1667 3145
1748 1672 3156
1751 1675 3164
1754 1678 3171
1757 1682 3179
1760 1685 3186
127 109 9
126 112 19
125 113 26
275 275 120
333 376 389
291 375 492
330 370 629
402 376 833
524 394 1043
619 463 1240
728 573 1402
832 685 1547
952 813 1699
1064 931 1840
1168 1042 1980
1261 1141 2112
1336 1228 2231
1402 1306 2343
1463 1369 2455
1518 1429 2568
1568 1483 2679
1611 1530 2786
1650 1574 2886
1679 1607 2966
1707 1638 3041
1726 1659 3093
1745 1679 3143
1750 1685 3158
1753 1688 3166
1756 1691 3173
1759 1694 3181
1762 1698 3188
291 256 11
294 262 32
298 263 14
294 262 33
447 428 126
342 669 591
228 740 798
186 756 962
254 772 1164
419 790 1323
672 811 1454
812 859 1582
958 910 1708
1062 1002 1837
1166 1094 1975
1260 1186 2107
1334 1262 2225
1400 1329 2335
1461 1389 2446
1515 1443 2558
1565 1497 2668
1609 1541 2776
1647 1585 2877
1678 1620 2961
1707 1650 3036
1726 1671 3091
1746 1691 3142
1752 1698 3159
1756 1701 3168
1758 1704 3176
1761 1707 3183
1764 1710 3190
465 415 15
457 411 45
471 422 30
476 425 14
467 420 43
465 608 211
346 824 591
97 1060 1046
33 1073 1204
35 1086 1347
147 1105 1487
463 1129 1617
846 1162 1749
1036 1206 1888
1183 1252 2022
1272 1287 2131
1342 1321 2234
1399 1358 2330
1460 1413 2439
1513 1464 2550
1563 1513 2659
1606 1558 2767
1646 1601 2868
1677 1635 2953
1707 1668 3034
1727 1689 3089
1748 1710 3142
1755 1718 3160
1759 1722 3171
1762 1725 3179
1764 1728 3186
1767 1731 3194
472 600 95
464 595 123
456 612 129
460 614 113
462 614 107
453 610 136
399 799 355
289 1001 676
33 1213 1116
0 1338 1372
0 1340 1473
34 1358 1607
63 1390 1762
575 1409 1894
967 1438 2035
1183 1465 2161
1331 1491 2275
1433 1519 2386
1486 1545 2487
1533 1570 2579
1575 1595 2679
1613 1617 2771
1653 1657 2873
1685 1689 2959
1715 1721 3040
1734 1742 3096
1755 1762 3149
1762 1768 3168
1766 1771 3179
1769 1773 3187
1771 1775 3194
1774 1777 3201
378 795 216
391 785 238
377 801 256
375 805 244
367 811 235
369 809 237
376 800 259
268 999 572
99 1184 887
0 1348 1195
0 1504 1481
0 1585 1664
0 1594 1766
6 1618 1901
151 1647 2041
666 1669 2178
955 1697 2294
1234 1720 2397
1376 1741 2510
1484 1761 2619
1573 1774 2728
1632 1787 2831
1676 1794 2915
1704 1798 2989
1728 1801 3058
1743 1797 3102
1762 1813 3156
1769 1818 3175
1773 1821 3187
1776 1823 3196
1779 1824 3202
1781 1826 3209
246 992 441
261 982 457
253 997 499
248 1001 492
239 1006 483
231 1011 475
239 1006 483
251 1000 502
86 1182 818
0 1338 1073
0 1479 1300
0 1632 1545
0 1803 1818
0 1846 1959
0 1851 2059
0 1876 2183
76 1905 2302
233 1934 2428
773 1956 2541
1188 1976 2646
1348 1990 2750
1479 1998 2853
1598 1999 2945
1680 1995 3033
1747 1985 3100
1776 1976 3149
1788 1968 3186
1790 1953 3198
1792 1934 3208
1791 1915 3211
1792 1910 3217
1794 1911 3224
93 1169 738
101 1163 746
103 1163 765
85 1181 789
82 1182 779
76 1185 773
76 1187 772
80 1183 776
85 1181 795
0 1336 1026
0 1474 1216
0 1615 1387
0 1773 1617
0 1936 1881
0 2107 2145
0 2105 2235
0 2105 2317
0 2123 2419
0 2147 2543
102 2175 2665
708 2191 2777
1070 2207 2881
1273 2225 2975
1414 2227 3062
1527 2221 3130
1619 2205 3185
1676 2186 3222
1715 2162 3241
1740 2135 3248
1759 2106 3249
1774 2082 3250
1789 2057 3252
0 1320 968
0 1317 970
0 1318 988
0 1336 1007
0 1335 998
0 1335 992
0 1336 991
0 1337 991
0 1335 993
0 1336 1009
0 1472 1177
0 1613 1331
0 1763 1475
0 1914 1687
0 2084 1948
0 2247 2205
0 2364 2389
0 2349 2454
0 2348 2550
0 2363 2655
0 2384 2768
210 2402 2880
642 2411 2983
938 2426 3079
1185 2434 3160
1290 2443 3222
1374 2436 3266
1453 2411 3289
1512 2382 3300
1563 2346 3299
1610 2313 3298
1653 2280 3298
0 1454 1117
0 1452 1121
0 1454 1133
0 1472 1156
0 1471 1150
0 1470 1143
0 1470 1139
0 1472 1137
0 1472 1138
0 1470 1144
0 1472 1156
0 1612 1300
0 1763 1422
0 1910 1571
0 2070 1762
0 2230 2009
0 2396 2258
0 2542 2468
0 2586 2607
0 2568 2681
0 2562 2773
0 2564 2870
122 2573 2968
385 2583 3065
642 2589 3151
956 2590 3228
1160 2589 3288
1273 2583 3328
1323 2569 3347
1338 2549 3348
1365 2529 3349
1390 2508 3350
0 1586 1237
0 1585 1248
0 1586 1258
0 1601 1274
0 1610 1276
0 1610 1270
0 1609 1265
0 1609 1259
0 1611 1255
0 1609 1259
0 1610 1269
0 1611 1279
0 1762 1396
0 1911 1516
0 2068 1674
0 2221 1839
0 2388 2056
0 2543 2302
0 2650 2518
0 2741 2712
16 2746 2811
32 2724 2879
166 2719 2965
333 2718 3053
477 2718 3138
658 2720 3214
792 2719 3278
912 2716 3325
1037 2706 3357
1100 2691 3364
1144 2674 3371
1191 2657 3378
0 1737 1335
0 1736 1343
0 1737 1353
0 1738 1364
0 1762 1373
0 1761 1368
0 1761 1363
0 1760 1357
0 1760 1352
0 1762 1349
0 1760 1355
0 1761 1365
0 1762 1374
0 1911 1489
0 2072 1617
0 2222 1768
0 2383 1922
0 2539 2123
0 2658 2320
0 2758 2549
0 2836 2753
138 2900 2926
267 2877 2989
429 2858 3056
575 2850 3132
708 2846 3208
803 2841 3273
866 2836 3323
923 2828 3359
946 2815 3372
964 2800 3378
980 2785 3382
0 1880 1418
0 1879 1429
0 1880 1439
0 1881 1452
0 1910 1467
0 1910 1459
0 1910 1454
0 1909 1449
0 1908 1443
0 1909 1437
0 1909 1434
0 1909 1445
0 1910 1455
0 1911 1467
0 2075 1576
0 2226 1712
0 2388 1855
0 2539 2007
0 2652 2176
0 2767 2359
0 2856 2566
0 2927 2789
250 2986 2965
622 3020 3096
718 2995 3150
817 2979 3213
907 2967 3274
960 2959 3325
999 2950 3364
1009 2937 3382
1013 2923 3394
1009 2908 3398
0 2043 1502
0 2043 1513
0 2044 1524
0 2045 1537
0 2070 1557
0 2074 1550
0 2074 1543
0 2073 1538
0 2072 1532
0 2072 1525
0 2072 1519
0 2072 1520
0 2072 1532
0 2074 1543
0 2074 1557
0 2231 1661
0 2392 1801
0 2543 1944
0 2655 2084
0 2765 2228
0 2860 2396
0 2948 2588
297 3016 2808
392 3070 3004
825 3118 3155
983 3128 3249
1025 3102 3292
1075 3088 3339
1112 3075 3377
1118 3061 3398
1120 3046 3413
1110 3031 3415
0 2195 1580
0 2196 1593
0 2197 1605
0 2198 1620
0 2207 1638
0 2230 1640
0 2230 1631
0 2229 1624
0 2229 1617
0 2228 1611
0 2227 1604
0 2228 1597
0 2227 1603
0 2229 1615
0 2230 1627
0 2230 1644
0 2399 1748
0 2549 1887
0 2661 2020
0 2767 2159
0 2860 2275
0 2950 2428
0 3031 2615
653 3100 2829
619 3153 3033
953 3197 3192
1142 3237 3323
1188 3228 3376
1204 3203 3402
1217 3187 3422
1222 3171 3437
1213 3154 3438
1 2363 1654
1 2363 1669
1 2364 1681
2 2365 1695
2 2365 1711
0 2400 1721
0 2400 1713
0 2399 1705
0 2399 1698
0 2398 1691
0 2398 1684
0 2398 1676
0 2399 1669
0 2398 1680
0 2399 1694
0 2400 1707
0 2400 1722
0 2556 1835
0 2671 1949
0 2778 2088
0 2865 2216
0 2951 2326
0 3033 2457
0 3110 2641
691 3177 2847
796 3235 3066
916 3275 3229
1210 3309 3359
1282 3327 3449
1282 3312 3461
1280 3292 3470
1274 3274 3467
1 2523 1725
1 2523 1740
1 2523 1755
2 2524 1769
2 2524 1783
0 2559 1801
0 2559 1793
0 2559 1785
0 2558 1777
0 2558 1769
0 2558 1761
0 2558 1753
0 2558 1746
0 2558 1740
0 2558 1755
0 2558 1770
0 2559 1784
0 2559 1799
0 2678 1901
0 2789 2014
0 2875 2151
0 2958 2272
0 3034 2372
0 3112 2484
5 3184 2667
754 3250 2862
989 3307 3081
684 3350 3266
1262 3366 3391
1307 3357 3467
1315 3359 3491
1310 3348 3490
39 2653 1795
37 2653 1809
37 2653 1823
37 2653 1836
37 2653 1850
3 2668 1868
2 2682 1863
2 2682 1855
3 2682 1848
4 2682 1841
5 2682 1834
5 2682 1826
6 2682 1819
8 2682 1812
8 2682 1812
5 2682 1825
5 2682 1840
2 2682 1852
2 2682 1867
1 2794 1972
0 2887 2079
0 2967 2211
0 3041 2318
0 3114 2417
0 3187 2526
14 3256 2693
776 3319 2887
1215 3373 3086
667 3410 3296
1291 3400 3413
1325 3381 3482
1319 3366 3495
49 2771 1861
46 2771 1874
45 2771 1888
43 2771 1900
41 2771 1912
6 2771 1941
3 2799 1934
4 2800 1924
6 2800 1918
8 2800 1911
9 2800 1905
11 2800 1898
13 2800 1891
14 2800 1884
16 2800 1877
15 2800 1882
12 2800 1895
9 2800 1908
5 2800 1920
3 2799 1938
1 2896 2030
0 2981 2146
0 3053 2265
0 3122 2363
0 3189 2465
0 3259 2572
15 3324 2722
805 3382 2917
1310 3426 3099
1025 3441 3315
1314 3428 3431
1330 3386 3485
234 2878 1929
203 2878 1941
166 2878 1952
112 2877 1963
101 2877 1975
45 2873 1998
15 2901 2001
49 2902 1992
57 2903 1985
59 2903 1979
92 2903 1973
171 2904 1968
189 2904 1962
191 2904 1955
223 2904 1949
301 2904 1944
192 2904 1951
188 2904 1964
77 2903 1974
57 2903 1986
17 2901 2000
0 2994 2084
0 3068 2201
0 3135 2310
0 3198 2410
0 3263 2515
2 3327 2624
19 3388 2753
829 3433 2941
1336 3455 3115
1269 3466 3329
1312 3436 3434
538 2976 1995
410 2976 2005
350 2976 2017
208 2975 2026
143 2974 2037
72 2971 2053
47 2993 2067
77 2999 2061
110 3001 2053
141 3001 2046
219 3001 2041
299 3002 2037
374 3002 2032
410 3002 2026
482 3002 2021
551 3002 2016
601 3002 2012
473 3002 2021
374 3002 2032
233 3002 2041
116 3001 2051
56 2998 2066
194 3082 2147
70 3150 2256
0 3211 2358
0 3269 2457
0 3332 2565
7 3391 2681
49 3438 2798
884 3460 2957
1356 3478 3128
1384 3472 3326
824 3069 2060
713 3069 2069
600 3068 2078
473 3068 2087
343 3066 2096
275 3063 2110
271 3076 2125
320 3088 2123
361 3090 2115
440 3091 2111
512 3092 2106
581 3092 2101
648 3093 2096
700 3094 2092
761 3094 2087
821 3094 2082
877 3094 2077
880 3094 2077
772 3094 2086
664 3093 2095
542 3092 2104
405 3091 2113
310 3088 2126
416 3165 2213
168 3229 2308
67 3285 2406
0 3337 2509
0 3395 2617
37 3441 2730
189 3463 2838
928 3483 2972
1357 3484 3130
1090 3157 2120
1011 3156 2129
922 3155 2138
834 3154 2146
722 3152 2155
591 3150 2164
499 3149 2182
616 3174 2183
691 3176 2179
759 3177 2174
825 3178 2169
882 3179 2165
928 3180 2160
972 3181 2156
1016 3181 2151
1064 3182 2147
1103 3182 2142
1140 3183 2138
1116 3182 2140
1039 3182 2149
954 3180 2157
868 3179 2166
749 3177 2175
616 3174 2183
504 3244 2267
201 3304 2353
91 3353 2455
0 3403 2560
0 3444 2661
110 3466 2769
406 3485 2876
933 3488 2974
1279 3243 2180
1222 3242 2188
1162 3240 2195
1095 3239 2203
1018 3236 2211
909 3234 2219
675 3226 2235
859 3257 2241
933 3258 2236
994 3260 2231
1049 3261 2227
1089 3263 2224
1127 3264 2219
1163 3264 2215
1197 3265 2211
1227 3267 2207
1260 3267 2203
1289 3268 2198
1316 3268 2194
1279 3268 2200
1221 3266 2208
1160 3264 2215
1090 3263 2224
1003 3260 2230
890 3257 2239
586 3320 2318
231 3372 2403
44 3414 2505
0 3452 2606
23 3468 2701
143 3486 2806
558 3490 2902
1401 3325 2235
1357 3324 2243
1313 3322 2250
1264 3320 2258
1207 3317 2263
1133 3315 2270
886 3305 2286
882 3322 2299
1114 3338 2290
1167 3340 2286
1203 3341 2283
1236 3343 2280
1269 3345 2277
1298 3345 2273
1322 3347 2269
1345 3348 2266
1368 3350 2262
1393 3350 2258
1416 3351 2254
1436 3352 2251
1392 3350 2258
1348 3348 2265
1303 3346 2272
1249 3344 2279
1184 3341 2284
1035 3335 2295
674 3390 2371
339 3434 2458
0 3460 2550
0 3475 2642
57 3488 2738
186 3491 2831
1510 3406 2289
1471 3404 2296
1431 3402 2302
1389 3399 2308
1345 3396 2314
1296 3393 2319
1073 3381 2335
879 3383 2352
1118 3406 2347
1289 3416 2333
1317 3417 2330
1343 3419 2328
1369 3420 2325
1393 3422 2322
1415 3424 2319
1438 3425 2315
1460 3426 2311
1481 3428 2309
1503 3429 2305
1523 3430 2301
1526 3430 2301
1487 3428 2308
1447 3425 2314
1404 3423 2320
1360 3420 2326
1311 3417 2331
1099 3405 2348
706 3453 2418
365 3480 2506
0 3482 2588
0 3493 2675
97 3494 2763
1597 3479 2329
1559 3477 2336
1522 3474 2340
1483 3472 2347
1443 3467 2352
1398 3465 2357
1174 3449 2378
811 3434 2399
1092 3468 2397
1270 3479 2384
1400 3488 2371
1425 3490 2368
1449 3492 2366
1471 3493 2363
1494 3495 2359
1514 3497 2356
1535 3498 2353
1555 3500 2351
1575 3502 2348
1597 3503 2344
1616 3504 2342
1605 3503 2343
1567 3501 2349
1529 3498 2354
1490 3495 2360
1448 3491 2366
1402 3488 2371
1130 3471 2395
700 3500 2462
239 3497 2540
0 3500 2622
0 3496 2697
1679 3552 2371
1645 3549 2376
1609 3545 2380
1572 3542 2385
