OutOfControl/Assets/Art/ColorGrading/Ridley Scott - Black Hawk Down LUT/Ridley Scott - Black Hawk Down.CUBE
#Created by: Adobe Photoshop Export Color Lookup Plugin
TITLE "Ridley Scott - Black Hawk Down LUT.png"
#LUT size
LUT_3D_SIZE 32
#data domain
DOMAIN_MIN 0.0 0.0 0.0
DOMAIN_MAX 1.0 1.0 1.0
#LUT data points
0.003540 0.006195 0.000000
0.025604 0.008942 0.000000
0.047150 0.011658 0.000000
0.094177 0.021698 0.000000
0.141113 0.032806 0.000000
0.192169 0.048523 0.000336
0.240570 0.067352 0.000763
0.290466 0.091187 0.000885
0.333984 0.119629 0.000885
0.373322 0.147064 0.000885
0.414978 0.172760 0.000885
0.454956 0.195251 0.001007
0.498718 0.212769 0.001434
0.539154 0.230011 0.001770
0.577637 0.250153 0.001770
0.613892 0.268555 0.001770
0.647949 0.285095 0.001770
0.680176 0.300476 0.001770
0.710297 0.313721 0.001770
0.738922 0.323120 0.001770
0.766174 0.334106 0.001770
0.791473 0.345093 0.001770
0.816254 0.357117 0.002106
0.838165 0.369507 0.002533
0.857269 0.380035 0.002655
0.873688 0.388977 0.002655
0.888397 0.397156 0.002655
0.899811 0.403778 0.002655
0.907227 0.407959 0.002655
0.909088 0.409241 0.002655
0.910889 0.410706 0.002655
0.912659 0.412109 0.002655
0.017365 0.016479 0.001099
0.020844 0.016479 0.000000
0.042419 0.020081 0.000000
0.087280 0.028198 0.000000
0.134155 0.038452 0.000000
0.182800 0.050842 0.000336
0.229797 0.067352 0.000763
0.280487 0.088989 0.000885
0.324707 0.114227 0.000885
0.363861 0.142395 0.000885
0.402435 0.170135 0.000885
0.443451 0.192749 0.001007
0.484070 0.212128 0.001434
0.525604 0.229492 0.001770
0.564453 0.248016 0.001770
0.601379 0.266174 0.001770
0.636932 0.282349 0.001770
0.669952 0.297638 0.001770
0.700897 0.312714 0.001770
0.730286 0.324402 0.001770
0.758057 0.335419 0.001770
0.784698 0.346466 0.001770
0.809845 0.358429 0.002106
0.834259 0.370117 0.002533
0.853516 0.380615 0.002655
0.870880 0.390167 0.002655
0.885925 0.398529 0.002655
0.899139 0.406403 0.002655
0.907806 0.411407 0.002655
0.909698 0.412567 0.002655
0.911560 0.413849 0.002655
0.913330 0.415283 0.002655
0.030975 0.026672 0.002106
0.034210 0.026672 0.000000
0.037842 0.026672 0.000000
0.085693 0.042816 0.000122
0.130219 0.051147 0.000122
0.174927 0.062622 0.003998
0.220459 0.074738 0.004211
0.272186 0.091003 0.001007
0.317688 0.114136 0.001007
0.355896 0.138885 0.000885
0.394501 0.167542 0.000885
0.433594 0.191528 0.001007
0.475220 0.211121 0.001434
0.514984 0.230408 0.001770
0.555145 0.249146 0.001770
0.592926 0.266296 0.001770
0.629547 0.282898 0.001770
0.663940 0.297943 0.001770
0.695862 0.313354 0.001770
0.726166 0.326447 0.001770
0.754883 0.338654 0.001984
0.782196 0.350067 0.001984
0.808716 0.361389 0.002106
0.833466 0.373077 0.002533
0.853973 0.383667 0.002655
0.871552 0.393372 0.002655
0.886230 0.401642 0.002655
0.899048 0.409393 0.002655
0.908417 0.414825 0.002655
0.910309 0.415894 0.002655
0.912201 0.417084 0.002655
0.913971 0.418427 0.002655
0.071075 0.062622 0.002777
0.073822 0.062836 0.000000
0.076569 0.062103 0.000000
0.088501 0.067047 0.000214
0.145233 0.095856 0.000549
0.176147 0.103729 0.017151
0.209839 0.112976 0.030029
0.264984 0.119904 0.016907
0.314209 0.129669 0.001984
0.352295 0.150513 0.001556
0.389709 0.172180 0.000885
0.429382 0.195587 0.001007
0.471924 0.213806 0.001434
0.511902 0.232910 0.001770
0.552917 0.253387 0.001770
0.590851 0.270355 0.001770
0.628265 0.287354 0.001770
0.663239 0.302185 0.001770
0.695831 0.317261 0.001770
0.726776 0.330139 0.001770
0.755676 0.342590 0.002106
0.783478 0.354767 0.002441
0.810120 0.365906 0.002441
0.835754 0.376923 0.002533
0.856262 0.387482 0.002655
0.874023 0.397552 0.002655
0.888702 0.405823 0.002655
0.900208 0.413025 0.002655
0.908997 0.418213 0.002655
0.910919 0.419250 0.002655
0.912781 0.420349 0.002655
0.914612 0.421631 0.002655
0.113647 0.101379 0.003754
0.115021 0.100677 0.000336
0.117096 0.099701 0.000000
0.125488 0.102264 0.000214
0.143768 0.111145 0.000549
0.189941 0.144592 0.014526
0.214569 0.153320 0.036255
0.255157 0.161987 0.050537
0.307739 0.165527 0.029266
0.350494 0.173798 0.008270
0.387329 0.191925 0.007294
0.427094 0.208984 0.002106
0.469757 0.226196 0.002441
0.510864 0.243286 0.001984
0.552124 0.262024 0.001770
0.590759 0.279388 0.001770
0.628326 0.294983 0.001770
0.664276 0.310394 0.001770
0.697052 0.323578 0.001770
0.728668 0.336395 0.001770
0.757782 0.348541 0.002106
0.785889 0.360779 0.002533
0.812897 0.371582 0.002655
0.838623 0.382507 0.002655
0.859528 0.393188 0.002655
0.877258 0.402893 0.002655
0.890594 0.410828 0.002655
0.901642 0.417847 0.002655
0.909790 0.422760 0.002655
0.911682 0.423798 0.002655
0.913574 0.425079 0.002655
0.915436 0.426239 0.002655
0.115295 0.146515 0.023132
0.120850 0.144867 0.017578
0.124176 0.144409 0.017242
0.133209 0.142670 0.015625
0.157440 0.147430 0.013214
0.177155 0.156372 0.012878
0.227753 0.193176 0.026581
0.261963 0.205231 0.055145
0.298096 0.215118 0.081848
0.344177 0.221069 0.057648
0.388733 0.229950 0.027771
0.428253 0.245667 0.022034
0.473328 0.259094 0.007935
0.514404 0.273499 0.005859
0.557495 0.287750 0.002533
0.596252 0.302460 0.001770
0.634369 0.314941 0.001770
0.669891 0.326721 0.001770
0.702393 0.336517 0.001770
0.733490 0.347443 0.001770
0.762207 0.358154 0.002106
0.790283 0.369171 0.002533
0.817078 0.379425 0.002655
0.842926 0.389557 0.002655
0.863678 0.399719 0.002655
0.881256 0.409485 0.002655
0.894531 0.417297 0.002655
0.902985 0.423218 0.002655
0.910675 0.428192 0.002655
0.912567 0.429138 0.002655
0.914459 0.430115 0.002655
0.916290 0.431061 0.002655
0.092377 0.194153 0.052826
0.095459 0.193848 0.047791
0.111145 0.190857 0.043121
0.125031 0.186676 0.039001
0.156281 0.187256 0.033325
0.180847 0.190857 0.030121
0.211365 0.198364 0.026459
0.271484 0.245514 0.052399
0.305298 0.259888 0.086090
0.336792 0.270874 0.114227
0.381378 0.278229 0.089478
0.425690 0.287964 0.071289
0.471039 0.299255 0.059296
0.515259 0.309998 0.035919
0.559753 0.320984 0.020294
0.600342 0.330688 0.013550
0.640106 0.340271 0.001770
0.675812 0.350281 0.001770
0.709106 0.359558 0.001984
0.739868 0.368317 0.001984
0.768799 0.378448 0.002106
0.796265 0.387665 0.002533
0.822327 0.397095 0.002655
0.848083 0.405731 0.002655
0.868774 0.414978 0.002655
0.886322 0.425354 0.002655
0.898346 0.432953 0.002655
0.906891 0.439270 0.002655
0.912964 0.443970 0.002655
0.914917 0.445374 0.002655
0.916840 0.446930 0.002655
0.918701 0.448456 0.002655
0.060028 0.242157 0.107635
0.058563 0.243378 0.103424
0.066742 0.244019 0.102356
0.085480 0.237518 0.095764
0.100006 0.240509 0.090271
0.131805 0.240997 0.085083
0.182098 0.246429 0.075165
0.212616 0.252686 0.071686
0.311188 0.298065 0.092896
0.342255 0.311249 0.121613
0.375641 0.321747 0.145966
0.418121 0.329529 0.139252
0.464508 0.339905 0.137787
0.509216 0.349213 0.121521
0.558228 0.358185 0.075378
0.601166 0.366943 0.049255
0.643890 0.374695 0.018555
0.682068 0.382751 0.001770
0.716064 0.391907 0.002228
0.748138 0.400299 0.002441
0.776855 0.410126 0.002441
0.804382 0.419586 0.002533
0.830139 0.428467 0.002655
0.854889 0.437103 0.002655
0.875458 0.445679 0.002655
0.892822 0.454468 0.002655
0.904724 0.460938 0.002655
0.910828 0.464508 0.002655
0.916565 0.467834 0.002655
0.918335 0.469238 0.002655
0.920227 0.470642 0.002655
0.922150 0.471954 0.002655
0.022675 0.285461 0.180176
0.022675 0.286224 0.178802
0.022034 0.285980 0.168610
0.028198 0.286987 0.166595
0.029480 0.289551 0.161560
0.040802 0.291718 0.156647
0.103943 0.295258 0.145050
0.162079 0.299530 0.134338
0.240784 0.300751 0.116638
0.346283 0.340454 0.139069
0.382782 0.354462 0.166138
0.416687 0.365906 0.188934
0.459503 0.375854 0.194672
0.503967 0.386444 0.194580
0.552063 0.398102 0.175964
0.598267 0.406555 0.133209
0.643585 0.415771 0.094757
0.683990 0.422394 0.064789
0.720917 0.430267 0.024963
0.753571 0.438202 0.025269
0.783875 0.444519 0.003204
0.811523 0.453735 0.003204
0.836823 0.462006 0.002655
0.861328 0.470062 0.002655
0.881836 0.478271 0.002655
0.899200 0.486725 0.002655
0.911072 0.492676 0.002869
0.917206 0.496338 0.002869
0.921753 0.498169 0.002869
0.923492 0.498596 0.002869
0.925140 0.498810 0.002869
0.926758 0.498779 0.002869
0.000000 0.322266 0.236298
0.000000 0.322968 0.235352
0.000000 0.322571 0.227844
0.000000 0.326385 0.223999
0.000000 0.328613 0.220856
0.000000 0.330872 0.216522
0.015289 0.335999 0.203857
0.086761 0.339142 0.192749
0.199646 0.340637 0.186920
0.287384 0.340302 0.164917
0.381744 0.379333 0.190857
0.424438 0.396576 0.213165
0.460785 0.409943 0.232452
0.500305 0.420563 0.242035
0.546997 0.434387 0.245575
0.592102 0.445862 0.234741
0.639557 0.456055 0.197876
0.683014 0.465332 0.161804
0.721344 0.472076 0.110657
0.757507 0.478912 0.064484
0.788361 0.484192 0.035828
0.817902 0.489502 0.004211
0.843048 0.497437 0.003540
0.867157 0.504608 0.002777
0.887543 0.512268 0.002655
0.905365 0.520203 0.002655
0.917145 0.525909 0.002869
0.923370 0.529114 0.003326
0.927887 0.531311 0.003418
0.929504 0.530945 0.003418
0.931183 0.531097 0.003418
0.932892 0.530853 0.003326
0.000000 0.355164 0.272888
0.000000 0.355896 0.270538
0.000000 0.356018 0.268799
0.000000 0.360260 0.268982
0.000000 0.362183 0.266632
0.000000 0.364899 0.266022
0.000000 0.369934 0.255432
0.006653 0.376617 0.239624
0.125214 0.378296 0.234161
0.264832 0.378601 0.235291
0.331970 0.378693 0.215454
0.418915 0.417542 0.236877
0.470337 0.441010 0.254211
0.505615 0.455048 0.272125
0.545746 0.469330 0.285461
0.589874 0.482330 0.289307
0.635162 0.498840 0.291718
0.679932 0.508057 0.262543
0.720886 0.519562 0.240051
0.757721 0.525970 0.197144
0.790924 0.532288 0.137115
0.820465 0.536804 0.107056
0.847412 0.540039 0.043243
0.871460 0.546234 0.033997
0.892456 0.552307 0.011017
0.910461 0.558838 0.002655
0.923096 0.563995 0.002869
0.929474 0.566864 0.003326
0.933899 0.568756 0.003540
0.935455 0.568573 0.003540
0.937073 0.568665 0.003540
0.938599 0.568481 0.003540
0.000000 0.387390 0.302094
0.000000 0.388367 0.300110
0.000000 0.388611 0.298492
0.000000 0.392853 0.299530
0.000000 0.396515 0.299835
0.000000 0.399231 0.300049
0.000000 0.403625 0.297211
0.000000 0.410156 0.283783
0.055542 0.415985 0.274841
0.213623 0.416382 0.275818
0.320312 0.416321 0.276062
0.373474 0.416687 0.259094
0.460907 0.458405 0.275452
0.515167 0.484650 0.290070
0.552612 0.500732 0.307800
0.589325 0.515381 0.321167
0.633942 0.532776 0.329315
0.676025 0.548889 0.335388
0.717682 0.560486 0.322693
0.757324 0.571869 0.309174
0.790649 0.578339 0.270874
0.822235 0.584320 0.221313
0.849426 0.587463 0.165192
0.874695 0.589813 0.095459
0.896057 0.594238 0.053558
0.915039 0.599304 0.016907
0.928101 0.603424 0.002869
0.935181 0.606171 0.003326
0.940216 0.607635 0.003540
0.941650 0.607513 0.003540
0.943146 0.607544 0.003540
0.944489 0.607544 0.003540
0.000000 0.424103 0.326050
0.000000 0.424927 0.323944
0.000000 0.425568 0.322083
0.000000 0.426788 0.321259
0.000000 0.433502 0.323120
0.000000 0.436707 0.322845
0.000000 0.440369 0.321625
0.000000 0.446106 0.317688
0.036560 0.451721 0.309326
0.183044 0.455811 0.310394
0.300323 0.456512 0.311005
0.369934 0.455414 0.309326
0.419006 0.455566 0.296692
0.502380 0.498474 0.309662
0.564026 0.533081 0.325897
0.599121 0.548859 0.340179
0.634216 0.567841 0.355743
0.676086 0.583740 0.363159
0.715057 0.598907 0.373657
0.754608 0.610077 0.364288
0.789307 0.619812 0.360596
0.821198 0.626282 0.337280
0.849945 0.630432 0.308685
0.875793 0.633118 0.268097
0.898193 0.635254 0.214874
0.917786 0.638916 0.173096
0.931732 0.642120 0.142212
0.939667 0.644409 0.127594
0.944794 0.645844 0.124451
0.946320 0.645874 0.119904
0.947723 0.645508 0.116333
0.949219 0.645844 0.110931
0.000000 0.458984 0.346313
0.000000 0.459442 0.344055
0.000000 0.460022 0.342255
0.000000 0.460724 0.340881
0.000000 0.470062 0.342773
0.000000 0.473114 0.342438
0.002655 0.476593 0.341949
0.002777 0.481934 0.338348
0.022919 0.487518 0.335785
0.174835 0.492126 0.337463
0.285645 0.495972 0.338409
0.360107 0.495972 0.338989
0.419220 0.494965 0.337555
0.463989 0.495880 0.326477
0.548309 0.542786 0.341858
0.610352 0.579773 0.356873
0.644653 0.598053 0.371826
0.677521 0.615540 0.386658
0.715210 0.630432 0.397675
0.752472 0.644409 0.407227
0.786591 0.655029 0.408356
0.819672 0.663849 0.405823
0.848877 0.669556 0.391510
0.875946 0.672882 0.368286
0.899200 0.675751 0.341980
0.919617 0.677734 0.309265
0.934418 0.679779 0.279999
0.943054 0.681763 0.260834
0.949097 0.682953 0.245148
0.950592 0.682709 0.237976
0.952118 0.682678 0.231873
0.953613 0.682739 0.225433
0.000000 0.498840 0.366760
0.000000 0.499329 0.364410
0.000000 0.500183 0.361725
0.000000 0.501099 0.359985
0.000000 0.510071 0.361755
0.000000 0.513916 0.360901
0.001343 0.516968 0.360443
0.012878 0.521759 0.359253
0.014282 0.526642 0.356140
0.183380 0.533844 0.362091
0.294800 0.538330 0.364288
0.367188 0.541077 0.369812
0.426605 0.541473 0.371368
0.474152 0.539764 0.366943
0.514313 0.539978 0.356995
0.591187 0.584564 0.371979
0.654602 0.621948 0.391754
0.686890 0.638763 0.406097
0.716339 0.652313 0.419037
0.751373 0.666931 0.430206
0.784454 0.680969 0.442780
0.817017 0.691711 0.446716
0.847229 0.701599 0.446869
0.875061 0.708435 0.437714
0.899475 0.712646 0.421997
0.921234 0.716431 0.404755
0.936890 0.718353 0.385895
0.946991 0.720917 0.376892
0.952972 0.721985 0.368195
0.954437 0.722137 0.366150
0.955933 0.721771 0.362305
0.957520 0.721954 0.359985
0.000000 0.536072 0.385925
0.000000 0.536682 0.383057
0.000000 0.537415 0.380371
0.000000 0.538544 0.378296
0.000549 0.544525 0.378418
0.006073 0.551910 0.379211
0.006073 0.555481 0.378357
0.020172 0.559662 0.377380
0.031525 0.563934 0.376251
0.181183 0.570312 0.381165
0.303009 0.577301 0.386963
0.374084 0.581146 0.393616
0.433746 0.583618 0.399506
0.482635 0.583557 0.399841
0.524597 0.581726 0.394653
0.560333 0.581604 0.385773
0.634705 0.623077 0.405334
0.696136 0.661316 0.424744
0.725342 0.674347 0.437531
0.753326 0.687256 0.450073
0.783264 0.701508 0.463348
0.815002 0.714966 0.475739
0.844543 0.727325 0.483765
0.873291 0.737152 0.484741
0.898804 0.746216 0.483337
0.921356 0.750702 0.472137
0.938812 0.755341 0.464783
0.949432 0.757751 0.457123
0.956757 0.759460 0.451874
0.958374 0.759796 0.450775
0.959808 0.759888 0.449097
0.961273 0.760101 0.447388
0.000214 0.577057 0.403992
0.000214 0.577637 0.401245
0.003540 0.578278 0.398346
0.016907 0.579346 0.397247
0.021698 0.581940 0.396179
0.057220 0.592102 0.399872
0.060120 0.595459 0.399231
0.088898 0.598663 0.399597
0.104218 0.602478 0.398865
0.222168 0.607819 0.402618
0.327026 0.613892 0.408020
0.392395 0.619476 0.416382
0.448486 0.623138 0.423981
0.498932 0.624115 0.430206
0.542114 0.623230 0.432098
0.577484 0.621246 0.426575
0.606628 0.620361 0.418030
0.673431 0.659546 0.436737
0.730194 0.691895 0.457184
0.760620 0.706482 0.470337
0.785767 0.718567 0.480621
0.813599 0.732056 0.492554
0.842743 0.746826 0.506805
0.870972 0.759766 0.517212
0.897156 0.771179 0.521484
0.921295 0.781799 0.524292
0.939423 0.787445 0.518982
0.952698 0.793488 0.518768
0.960144 0.795410 0.514648
0.961792 0.796112 0.514618
0.963257 0.796295 0.513397
0.964661 0.796570 0.512512
0.000214 0.615997 0.421173
0.000214 0.616486 0.418030
0.000671 0.617035 0.414795
0.024719 0.618042 0.414429
0.042084 0.619202 0.413696
0.077301 0.630615 0.417908
0.104218 0.633453 0.418579
0.133301 0.636414 0.419128
0.163116 0.639404 0.419647
0.259003 0.643860 0.423004
0.348236 0.649078 0.428314
0.411285 0.654297 0.435669
0.464447 0.659210 0.445160
0.512329 0.662018 0.453186
0.556366 0.661652 0.459351
0.594452 0.660828 0.461975
0.622559 0.658691 0.455444
0.649384 0.657227 0.448334
0.709320 0.690063 0.468414
0.762177 0.720856 0.487854
0.792969 0.737030 0.500183
0.816956 0.748749 0.509857
0.841614 0.761993 0.520203
0.869537 0.777283 0.535156
0.895111 0.792023 0.547668
0.919678 0.803833 0.553436
0.939911 0.815918 0.562012
0.953247 0.822174 0.562469
0.962952 0.827118 0.563690
0.964691 0.827942 0.563751
0.966309 0.828796 0.564148
0.967743 0.829529 0.564178
0.009491 0.647766 0.438416
0.009491 0.648193 0.435211
0.009918 0.648712 0.432098
0.046844 0.649658 0.431946
0.070465 0.650635 0.431549
0.127777 0.659302 0.436096
0.159515 0.663025 0.437439
0.199738 0.665619 0.438660
0.231354 0.668396 0.439484
0.291656 0.672211 0.441345
0.363861 0.677063 0.445374
0.430481 0.682770 0.451782
0.488159 0.688354 0.460999
0.533325 0.692535 0.471466
0.573059 0.694519 0.483185
0.611877 0.693939 0.488831
0.639801 0.692047 0.492920
0.666107 0.690033 0.486755
0.686340 0.687866 0.479340
0.742249 0.719116 0.498474
0.791687 0.748688 0.516968
0.823608 0.766388 0.530029
0.845886 0.777985 0.536835
0.868835 0.790680 0.544800
0.894257 0.806976 0.559326
0.918121 0.822632 0.572357
0.938263 0.834839 0.581512
0.953949 0.847046 0.593506
0.963989 0.852661 0.596100
0.966858 0.855072 0.598511
0.968750 0.856445 0.599609
0.970245 0.857574 0.600800
0.011993 0.676636 0.454559
0.012329 0.676941 0.451508
0.013550 0.677643 0.448639
0.056915 0.678558 0.448395
0.099609 0.679504 0.448639
0.149780 0.684814 0.451447
0.201263 0.691406 0.455078
0.242645 0.693878 0.456421
0.281036 0.696350 0.457916
0.327148 0.699677 0.460144
0.385193 0.704376 0.463135
0.442505 0.709351 0.467865
0.503662 0.715363 0.476379
0.555206 0.720673 0.485626
0.592773 0.723633 0.499573
0.628662 0.725861 0.511688
0.656158 0.724060 0.517181
0.682526 0.722076 0.522369
0.702667 0.719879 0.515411
0.721710 0.717651 0.508484
0.773071 0.747223 0.526855
0.819641 0.775360 0.544891
0.852478 0.795166 0.556030
0.873779 0.806610 0.561707
0.893982 0.819061 0.567780
0.917847 0.835907 0.581787
0.937897 0.851105 0.595734
0.953644 0.863556 0.608337
0.965179 0.872986 0.617859
0.968353 0.875885 0.621155
0.970886 0.878021 0.623505
0.972382 0.879547 0.625275
0.057129 0.702789 0.471039
0.072205 0.703094 0.468445
0.073303 0.703552 0.465668
0.115204 0.704529 0.465302
0.162354 0.705505 0.465790
0.206024 0.708618 0.467499
0.261810 0.716675 0.472321
0.294312 0.719177 0.473846
0.321442 0.721619 0.475250
0.351196 0.724548 0.476776
0.397156 0.728638 0.479095
0.451752 0.733521 0.482727
0.519226 0.740631 0.490479
0.572723 0.746552 0.498871
0.614960 0.750793 0.513916
0.649536 0.753479 0.527283
0.673676 0.754059 0.540497
0.699463 0.752289 0.545746
0.718964 0.750488 0.548553
0.737610 0.748413 0.542664
0.754242 0.746307 0.536041
0.802094 0.774139 0.554199
0.846405 0.801971 0.569733
0.880005 0.823334 0.579590
0.899597 0.835144 0.584717
0.918121 0.847321 0.589691
0.937958 0.863098 0.604095
0.954102 0.878021 0.619202
0.965790 0.888092 0.629730
0.969757 0.892181 0.634949
0.972809 0.895081 0.638519
0.974243 0.896637 0.640564
0.131348 0.726715 0.487274
0.148529 0.726959 0.484833
0.176208 0.727478 0.482727
0.208679 0.728424 0.482117
0.242859 0.729614 0.482666
0.274841 0.731659 0.483673
0.315948 0.740753 0.489044
0.337769 0.743286 0.490662
0.357422 0.745911 0.492035
0.380341 0.748535 0.493469
0.416809 0.752228 0.495270
0.456848 0.756287 0.497620
0.527130 0.763702 0.504669
0.587799 0.770874 0.511780
0.631042 0.775452 0.526581
0.670563 0.779816 0.541138
0.694977 0.780701 0.554626
0.716705 0.781158 0.567841
0.736389 0.779572 0.571381
0.753540 0.777802 0.573486
0.769958 0.775818 0.568817
0.784912 0.773834 0.562469
0.829742 0.800781 0.578888
0.871704 0.828064 0.591980
0.905182 0.851440 0.604797
0.923462 0.863251 0.610443
0.939331 0.874756 0.617462
0.955200 0.889465 0.632538
0.967194 0.901031 0.644745
0.971252 0.905365 0.649628
0.974731 0.908783 0.654053
0.976013 0.910034 0.655579
0.201263 0.749451 0.502991
0.225281 0.749756 0.500946
0.251038 0.750305 0.498993
0.275574 0.751221 0.498169
0.300385 0.752441 0.498688
0.322174 0.754456 0.499664
0.347900 0.761627 0.503723
0.369324 0.766052 0.506165
0.386841 0.768738 0.507477
0.405029 0.771179 0.508850
0.433350 0.774567 0.510498
0.466248 0.778137 0.512268
0.534973 0.785950 0.518158
0.596985 0.793304 0.525208
0.647919 0.799622 0.536469
0.687347 0.803986 0.551270
0.715424 0.807098 0.567932
0.736725 0.807800 0.581299
0.754730 0.808075 0.594574
0.771362 0.806519 0.598724
0.786407 0.804901 0.599915
0.800751 0.803101 0.595673
0.814697 0.801117 0.588348
0.856354 0.826996 0.601898
0.896332 0.853851 0.617004
0.927856 0.879028 0.633636
0.943848 0.890503 0.640594
0.957489 0.901306 0.648987
0.968597 0.911835 0.659302
0.972931 0.917328 0.665466
0.976593 0.921051 0.669647
0.977753 0.922272 0.670898
0.266174 0.770905 0.517792
0.283600 0.771240 0.515808
0.301453 0.771851 0.513947
0.317749 0.772858 0.512939
0.335510 0.774292 0.513550
0.353638 0.776123 0.514404
0.374695 0.781586 0.517456
0.397125 0.788086 0.521240
0.413361 0.790649 0.522522
0.429535 0.793121 0.523834
0.452881 0.796265 0.525421
0.477783 0.799469 0.527039
0.541321 0.806793 0.532135
0.605774 0.814972 0.538025
0.657440 0.821411 0.548309
0.703979 0.827667 0.560303
0.733398 0.830994 0.576202
0.755951 0.833466 0.593750
0.774353 0.834106 0.607605
0.789459 0.834259 0.620911
0.804230 0.833191 0.625580
0.817230 0.831726 0.625580
0.830536 0.829987 0.621490
0.842316 0.827820 0.611481
0.881378 0.852936 0.626526
0.918121 0.879456 0.643707
0.946869 0.904388 0.661621
0.960449 0.915192 0.669922
0.970062 0.923096 0.675659
0.973816 0.927307 0.679871
0.977417 0.931732 0.684875
0.978241 0.932861 0.685913
0.312408 0.791870 0.532288
0.324280 0.792206 0.530396
0.336060 0.792969 0.528656
0.348969 0.793823 0.527344
0.365173 0.795319 0.527985
0.381165 0.797180 0.528870
0.398834 0.800751 0.530792
0.420898 0.809265 0.535583
0.436676 0.811859 0.536926
0.451721 0.814362 0.538177
0.470917 0.817169 0.539581
0.493164 0.820221 0.541138
0.546692 0.826904 0.544708
0.610901 0.835022 0.550598
0.667969 0.842804 0.559021
0.714203 0.849030 0.570587
0.750946 0.854248 0.586334
0.773621 0.856934 0.603943
0.793579 0.859314 0.621796
0.808838 0.860046 0.637054
0.822845 0.860260 0.649384
0.835571 0.859680 0.653870
0.848053 0.858276 0.653687
0.858734 0.856506 0.647430
0.870361 0.854401 0.637726
0.905945 0.878418 0.652588
0.938049 0.903778 0.670349
0.961395 0.926178 0.688049
0.972137 0.935638 0.695129
0.975342 0.938385 0.696503
0.978180 0.941528 0.698853
0.978943 0.942993 0.700470
0.342133 0.812073 0.545776
0.352295 0.812561 0.544067
0.363159 0.813263 0.542328
0.373413 0.814209 0.541077
0.389160 0.815887 0.541779
0.404266 0.817627 0.542603
0.419983 0.820343 0.544128
0.442505 0.829834 0.549744
0.457458 0.832458 0.551086
0.472229 0.834991 0.552399
0.489075 0.837646 0.553711
0.507263 0.840393 0.555084
0.554413 0.846344 0.558075
0.615417 0.854523 0.562134
0.672668 0.862213 0.569885
0.724701 0.869873 0.580261
0.763550 0.875427 0.594269
0.790131 0.879547 0.614380
0.811554 0.882416 0.632538
0.827301 0.884674 0.652222
0.842041 0.885834 0.667511
0.854462 0.886383 0.677765
0.866669 0.886047 0.683075
0.876617 0.884460 0.680206
0.886993 0.882782 0.674896
0.895996 0.880280 0.663818
0.927185 0.902557 0.678925
0.955292 0.926178 0.696716
0.972809 0.942230 0.705933
0.976257 0.944885 0.706329
0.978607 0.946350 0.706238
0.979156 0.946930 0.706360
0.368622 0.831818 0.558960
0.377838 0.832306 0.557251
0.387085 0.833130 0.555847
0.396515 0.833954 0.554443
0.411102 0.835602 0.555115
0.425903 0.837402 0.555908
0.440918 0.840057 0.557373
0.460175 0.847321 0.560974
0.476227 0.851532 0.563019
0.490601 0.854095 0.564331
0.507233 0.856659 0.565735
0.524536 0.859375 0.567047
0.564606 0.864716 0.570465
0.624878 0.872742 0.574493
0.680267 0.880615 0.581573
0.732056 0.888275 0.591980
0.776917 0.895172 0.604675
0.803406 0.899506 0.624603
0.828339 0.903595 0.644379
0.844635 0.906372 0.665314
0.860046 0.908600 0.684418
0.872742 0.910095 0.697937
0.884613 0.910614 0.707855
0.894440 0.910400 0.710815
0.904144 0.908997 0.707916
0.911743 0.907379 0.701660
0.920105 0.904846 0.690399
0.946289 0.925507 0.705200
0.967285 0.942291 0.714050
0.976074 0.947693 0.711700
0.979034 0.950439 0.712402
0.979523 0.950897 0.712311
0.390045 0.849670 0.568848
0.398651 0.850342 0.567627
0.407379 0.851166 0.566315
0.416046 0.852081 0.565155
0.430115 0.853821 0.565643
0.443909 0.855499 0.566345
0.458740 0.858032 0.567627
0.474701 0.862457 0.569977
0.493286 0.869507 0.573273
0.506683 0.871643 0.574219
0.522797 0.874207 0.575592
0.540894 0.876862 0.577271
0.574310 0.881439 0.580139
0.636719 0.889893 0.585938
0.691681 0.897675 0.591949
0.742371 0.905640 0.604401
0.789032 0.912811 0.615845
