OutOfControl/Assets/Art/ColorGrading/Ridley Scott - Black Hawk Down LUT/Ridley Scott - Black Hawk Down.CUBE
#Created by: Adobe Photoshop Export Color Lookup Plugin
TITLE "Ridley Scott - Black Hawk Down LUT.png"
#LUT size
LUT_3D_SIZE 5
#data domain
#LUT data points
DOMAIN_MIN 0.000000 0.000000 0.000000
DOMAIN_MAX 0.903226 0.903226 0.903226
0.003540 0.006195 0.000000
0.290466 0.091187 0.000885
0.577637 0.250153 0.001770
0.791473 0.345093 0.001770
0.907227 0.407959 0.002655
0.060028 0.242157 0.107635
0.212616 0.252686 0.071686
0.558228 0.358185 0.075378
0.804382 0.419586 0.002533
0.916565 0.467834 0.002655
0.000000 0.498840 0.366760
0.012878 0.521759 0.359253
0.514313 0.539978 0.356995
0.817017 0.691711 0.446716
0.952972 0.721985 0.368195
0.131348 0.726715 0.487274
0.337769 0.743286 0.490662
0.631042 0.775452 0.526581
0.784912 0.773834 0.562469
0.967194 0.901031 0.644745
0.410034 0.867310 0.579041
0.490479 0.878967 0.579712
0.700348 0.910217 0.599823
0.902130 0.945740 0.728485
0.957397 0.944946 0.735016
0.123230 0.059601 0.201202
0.309204 0.041656 0.119049
0.588318 0.206268 0.001770
0.794250 0.339417 0.001770
0.907288 0.403931 0.002655
0.061188 0.244080 0.122559
0.254822 0.249023 0.213318
0.574066 0.317993 0.071899
0.813416 0.390778 0.004974
0.918030 0.447235 0.002777
0.000000 0.506256 0.375671
0.022675 0.523621 0.407501
0.588104 0.593445 0.400208
0.858978 0.678314 0.409760
0.950745 0.676788 0.251740
0.018768 0.732300 0.503296
0.246155 0.740143 0.521301
0.661621 0.803955 0.553589
0.858734 0.837128 0.621216
0.976837 0.916412 0.668640
0.223541 0.854645 0.596100
0.407257 0.870514 0.602478
0.702545 0.912384 0.616028
0.927582 0.960327 0.762756
0.977722 0.955902 0.731110
0.292297 0.251251 0.493988
0.314423 0.174774 0.475861
0.571960 0.058685 0.328857
0.789124 0.237152 0.152863
0.918762 0.346130 0.032898
0.000000 0.451935 0.502777
0.301178 0.323029 0.478180
0.550293 0.257263 0.395447
0.810333 0.316315 0.277191
0.927216 0.374939 0.149689
0.000000 0.506531 0.380310
0.000000 0.570190 0.455017
0.501953 0.522827 0.510864
0.831146 0.583252 0.444427
0.954193 0.617798 0.387299
0.117584 0.733124 0.493439
0.121338 0.764221 0.546631
0.493134 0.754730 0.611298
0.838104 0.813141 0.646698
0.970032 0.878174 0.676788
0.377991 0.867096 0.584747
0.044312 0.851593 0.647522
0.529114 0.884521 0.689850
0.912720 0.954498 0.771606
0.979279 0.958496 0.759216
0.396393 0.371368 0.689148
0.393341 0.340332 0.674927
0.522247 0.207397 0.636993
0.773407 0.003326 0.447113
0.909332 0.187164 0.386597
0.361115 0.487854 0.696594
0.401642 0.419098 0.680023
0.465149 0.333435 0.654114
0.785889 0.165710 0.516663
0.922424 0.264832 0.450958
0.000000 0.719910 0.632050
0.103821 0.689575 0.738007
0.422333 0.558807 0.696350
0.792847 0.531830 0.625061
0.956390 0.558441 0.552277
0.013763 0.732056 0.504608
0.058167 0.787598 0.573975
0.376251 0.774475 0.640167
0.730865 0.753296 0.731934
0.965698 0.783661 0.678986
0.411835 0.870270 0.580475
0.429993 0.885162 0.600159
0.402954 0.869995 0.701324
0.756836 0.917603 0.809357
0.983459 0.968018 0.859070
0.427246 0.405823 0.772095
0.426147 0.385651 0.768341
0.445984 0.305115 0.755676
0.850952 0.097443 0.686523
0.892609 0.000000 0.553894
0.437500 0.472229 0.783295
0.437866 0.457672 0.781036
0.453796 0.388428 0.769043
0.823273 0.260681 0.727051
0.903656 0.000000 0.601654
0.271545 0.750916 0.824585
0.271179 0.664764 0.821686
0.448608 0.598480 0.812195
0.696503 0.535919 0.812622
0.936768 0.475281 0.707123
0.011993 0.839630 0.683289
0.325867 0.842010 0.837402
0.354889 0.807159 0.850494
0.566345 0.715179 0.853790
0.955658 0.745544 0.820221
0.271484 0.859283 0.594666
0.047272 0.860291 0.639709
0.353363 0.864075 0.722076
0.644348 0.902313 0.812958
0.917664 0.934875 0.925995
