OutOfControl/Assets/Art/Sprites/cyberpunk 03 by freeject.net.3DL
#Created by: Adobe Photoshop Export Color Lookup Plugin
#Copyright: (C) Copyright 2019 freeject.net
#Description: cyberpunk 03
0 33 66 99 132 165 198 231 264 297 330 363 396 429 462 495 528 561 594 627 660 693 726 759 792 825 858 891 924 957 990 1023
394 394 394
394 394 400
394 396 416
394 400 442
394 406 481
394 414 531
394 425 596
394 440 674
394 458 765
394 479 869
394 506 982
394 536 1106
394 572 1237
394 614 1375
394 661 1519
394 714 1668
394 772 1823
394 836 1982
394 905 2144
394 979 2310
394 1058 2479
394 1141 2649
394 1228 2822
394 1320 2996
394 1415 3172
394 1514 3348
394 1617 3524
394 1723 3701
394 1833 3878
394 1945 4054
394 2060 4095
394 2178 4095
394 395 394
394 395 397
394 399 415
394 407 441
394 419 479
394 432 529
394 448 592
394 468 670
394 492 761
394 520 863
394 554 977
394 592 1099
394 637 1229
394 687 1367
394 742 1511
394 803 1660
394 870 1814
394 941 1973
394 1018 2135
394 1099 2300
394 1184 2468
394 1274 2638
394 1367 2811
394 1464 2985
394 1566 3160
394 1670 3336
394 1778 3512
394 1889 3689
394 2002 3865
394 2118 4042
394 2238 4095
394 2359 4095
394 400 394
394 400 394
394 400 405
394 410 440
394 423 478
394 441 528
394 465 590
394 495 666
394 533 755
394 572 857
394 614 970
394 661 1091
394 714 1221
394 772 1358
394 836 1502
394 905 1650
394 979 1804
394 1058 1962
394 1141 2124
394 1228 2289
394 1320 2456
394 1415 2626
394 1514 2799
394 1617 2972
394 1723 3147
394 1833 3323
394 1945 3499
394 2059 3676
394 2178 3852
394 2297 4028
394 2421 4095
394 2545 4095
395 409 394
394 410 394
394 410 398
394 410 417
394 425 472
394 447 527
394 473 589
394 505 665
394 545 754
394 593 855
394 651 965
394 717 1085
394 793 1213
394 870 1348
394 941 1491
394 1018 1639
394 1099 1793
394 1184 1950
394 1274 2112
394 1367 2276
394 1464 2444
394 1565 2614
394 1670 2785
394 1777 2959
394 1888 3134
394 2002 3309
394 2119 3485
394 2237 3662
394 2359 3838
394 2483 4014
394 2609 4095
394 2736 4095
396 425 394
394 425 394
394 425 394
394 425 409
394 425 435
394 448 504
394 479 585
394 516 664
394 558 752
394 609 853
394 669 963
394 738 1083
394 816 1210
394 903 1345
394 997 1485
394 1100 1631
394 1209 1782
394 1320 1938
394 1415 2098
394 1514 2263
394 1617 2430
394 1723 2599
394 1833 2771
394 1945 2944
394 2060 3119
394 2177 3294
394 2298 3470
394 2421 3647
394 2545 3823
394 2672 3998
394 2801 4095
394 2932 4095
397 447 394
394 448 394
394 448 394
394 448 397
394 448 424
394 448 457
394 479 541
394 520 652
394 571 751
394 625 851
394 687 961
394 759 1081
394 840 1208
394 928 1342
394 1025 1483
394 1130 1628
394 1241 1779
394 1359 1934
394 1483 2092
394 1613 2253
394 1748 2418
394 1888 2584
394 2002 2755
394 2118 2929
394 2237 3103
394 2359 3278
394 2483 3454
394 2608 3630
394 2736 3806
394 2866 3982
394 2998 4095
394 3131 4095
399 478 394
394 479 394
394 479 394
394 479 394
394 479 407
394 479 443
394 479 485
394 520 585
394 572 724
394 637 842
394 707 959
394 781 1078
394 864 1206
394 955 1340
394 1054 1480
394 1160 1625
394 1274 1776
394 1393 1930
394 1519 2088
394 1650 2250
394 1787 2414
394 1929 2580
394 2075 2749
394 2226 2919
394 2380 3090
394 2540 3262
394 2672 3437
394 2801 3613
394 2932 3789
394 3063 3965
394 3197 4095
394 3332 4095
401 519 394
395 519 394
394 520 394
394 520 394
394 520 395
394 520 425
394 520 468
394 520 519
394 572 634
394 637 790
394 714 940
394 803 1076
394 889 1203
394 982 1337
394 1083 1477
394 1191 1622
394 1307 1772
394 1428 1927
394 1555 2085
394 1688 2246
394 1827 2410
394 1970 2576
394 2117 2744
394 2270 2914
394 2426 3085
394 2585 3257
394 2748 3430
394 2912 3603
394 3080 3775
394 3250 3947
394 3400 4095
394 3536 4095
405 570 394
395 571 394
394 572 394
394 572 394
394 572 394
394 572 404
394 572 450
394 572 498
394 572 559
394 637 690
394 714 860
394 803 1044
394 905 1189
394 1010 1334
394 1113 1474
394 1224 1619
394 1340 1769
394 1463 1924
394 1593 2081
394 1727 2242
394 1867 2406
394 2010 2572
394 2159 2740
394 2313 2910
394 2470 3081
394 2630 3253
394 2793 3425
394 2960 3598
394 3127 3771
394 3298 3943
394 3472 4095
394 3645 4095
409 634 394
396 635 394
394 635 394
394 636 394
394 637 394
394 637 394
394 637 420
394 637 477
394 637 534
394 637 605
394 714 752
394 803 935
394 905 1146
394 1018 1308
394 1140 1467
394 1256 1616
394 1374 1766
394 1500 1920
394 1630 2078
394 1766 2239
394 1907 2402
394 2052 2568
394 2202 2736
394 2357 2906
394 2515 3077
394 2675 3249
394 2839 3421
394 3007 3594
394 3175 3766
394 3348 3938
394 3520 4095
394 3695 4095
414 710 394
398 711 394
394 712 394
394 713 394
394 713 394
394 714 394
394 714 398
394 714 444
394 714 509
394 714 575
394 714 656
394 803 818
394 905 1014
394 1018 1234
394 1140 1431
394 1273 1596
394 1409 1762
394 1535 1916
394 1668 2074
394 1805 2235
394 1947 2398
394 2094 2564
394 2245 2732
394 2401 2902
394 2560 3072
394 2721 3244
394 2886 3416
394 3054 3589
394 3223 3761
394 3395 3934
394 3569 4095
394 3743 4095
420 799 394
401 800 394
394 801 394
394 802 394
394 803 394
394 803 394
394 803 394
394 803 413
394 803 475
394 803 546
394 803 622
394 803 714
394 905 889
394 1018 1096
394 1140 1326
394 1273 1559
394 1415 1730
394 1565 1906
394 1706 2070
394 1844 2231
394 1988 2394
394 2136 2560
394 2289 2728
394 2445 2897
394 2604 3068
394 2767 3240
394 2934 3412
394 3101 3584
394 3272 3757
394 3445 3929
394 3617 4095
394 3793 4095
428 899 394
404 901 394
394 902 394
394 903 394
394 904 394
394 905 394
394 905 394
394 905 394
394 905 434
394 905 514
394 905 589
394 905 675
394 905 776
394 1018 965
394 1140 1181
394 1273 1419
394 1415 1675
394 1565 1865
394 1723 2046
394 1885 2227
394 2030 2390
394 2179 2556
394 2332 2723
394 2489 2893
394 2650 3063
394 2814 3235
394 2980 3407
394 3150 3580
394 3320 3752
394 3494 3924
394 3667 4095
394 3842 4095
437 1011 394
409 1013 394
394 1014 394
394 1015 394
394 1016 394
394 1017 394
394 1018 394
394 1018 394
394 1018 403
394 1018 464
394 1018 556
394 1018 638
394 1018 734
394 1018 844
394 1140 1044
394 1273 1270
394 1415 1515
394 1565 1777
394 1723 2005
394 1888 2188
394 2059 2376
394 2222 2552
394 2377 2719
394 2535 2888
394 2696 3059
394 2860 3230
394 3028 3402
394 3198 3575
394 3369 3747
394 3542 3919
394 3717 4091
394 3892 4095
447 1133 394
414 1135 394
395 1136 394
394 1138 394
394 1139 394
394 1140 394
394 1140 394
394 1140 394
394 1140 394
394 1140 422
394 1140 501
394 1140 600
394 1140 692
394 1140 798
394 1140 916
394 1273 1127
394 1415 1361
394 1565 1613
394 1723 1880
394 1888 2146
394 2059 2332
394 2237 2522
394 2420 2714
394 2579 2884
394 2741 3054
394 2907 3226
394 3075 3397
394 3245 3570
394 3418 3742
394 3591 3914
394 3766 4086
394 3941 4095
459 1265 394
421 1267 394
397 1269 394
394 1270 394
394 1271 394
394 1272 394
394 1273 394
394 1273 394
394 1273 394
394 1273 394
394 1273 449
394 1273 547
394 1273 650
394 1273 752
394 1273 866
394 1273 992
394 1415 1213
394 1565 1455
394 1723 1713
394 1888 1985
394 2059 2268
394 2237 2479
394 2420 2670
394 2608 2864
394 2788 3050
394 2955 3221
394 3123 3393
394 3295 3565
394 3465 3737
394 3641 3909
394 3816 4081
394 3991 4095
473 1405 394
429 1408 394
400 1410 394
394 1411 394
394 1412 394
394 1414 394
394 1414 394
394 1415 394
394 1415 394
394 1415 394
394 1415 408
394 1415 484
394 1415 602
394 1415 705
394 1415 816
394 1415 939
394 1415 1072
394 1565 1301
394 1723 1550
394 1888 1815
394 2059 2091
394 2237 2378
394 2420 2625
394 2608 2820
394 2801 3015
394 2997 3212
394 3171 3388
394 3343 3560
394 3516 3732
394 3690 3904
394 3866 4075
394 4040 4095
489 1554 394
439 1557 394
404 1559 394
394 1560 394
394 1562 394
394 1563 394
394 1564 394
394 1565 394
394 1565 394
394 1565 394
394 1565 394
394 1565 431
394 1565 527
394 1565 658
394 1565 765
394 1565 885
394 1565 1016
394 1565 1155
394 1723 1393
394 1888 1648
394 2059 1917
394 2237 2199
394 2420 2489
394 2608 2775
394 2801 2970
394 2997 3167
394 3197 3365
394 3391 3555
394 3564 3727
394 3739 3899
394 3915 4070
394 4091 4095
507 1711 394
451 1713 394
410 1716 394
394 1717 394
394 1719 394
394 1720 394
394 1722 394
394 1722 394
394 1723 394
394 1723 394
394 1723 394
394 1723 395
394 1723 463
394 1723 579
394 1723 714
394 1723 830
394 1723 958
394 1723 1095
394 1723 1240
394 1888 1486
394 2059 1748
394 2237 2022
394 2420 2307
394 2608 2599
394 2801 2899
394 2997 3121
394 3197 3319
394 3399 3516
394 3604 3713
394 3788 3894
394 3965 4065
394 4095 4095
528 1875 394
464 1878 394
417 1880 394
394 1882 394
394 1883 394
394 1885 394
394 1886 394
394 1887 394
394 1888 394
394 1888 394
394 1888 394
394 1888 394
394 1888 411
394 1888 503
394 1888 640
394 1888 775
394 1888 900
394 1888 1035
394 1888 1178
394 1888 1329
394 2059 1582
394 2237 1849
394 2420 2128
394 2608 2416
394 2801 2711
394 2997 3012
394 3197 3273
394 3399 3471
394 3604 3668
394 3810 3866
394 4014 4060
394 4095 4095
551 2045 394
479 2048 394
426 2050 394
394 2052 394
394 2054 394
394 2056 394
394 2057 394
394 2058 394
394 2059 394
394 2059 394
394 2059 394
394 2059 394
394 2059 394
394 2059 438
394 2059 552
394 2059 710
394 2059 841
394 2059 974
394 2059 1115
394 2059 1264
394 2059 1420
394 2237 1679
394 2420 1951
394 2608 2234
394 2801 2526
394 2997 2824
394 3197 3126
394 3399 3426
394 3604 3623
394 3810 3821
394 4018 4018
394 4095 4095
577 2222 394
497 2225 394
436 2227 394
396 2229 394
394 2231 394
394 2233 394
394 2234 394
394 2236 394
394 2237 394
394 2237 394
394 2237 394
394 2237 394
394 2237 394
394 2237 394
394 2237 475
394 2237 609
394 2237 781
394 2237 910
394 2237 1050
394 2237 1198
394 2237 1353
394 2237 1513
394 2420 1778
394 2608 2055
394 2801 2342
394 2997 2636
394 3197 2937
394 3399 3240
394 3604 3545
394 3810 3775
394 4018 3971
394 4095 4095
606 2404 394
517 2407 394
449 2409 394
401 2412 394
394 2414 394
394 2415 394
394 2417 394
394 2418 394
394 2419 394
394 2420 394
394 2420 394
394 2420 394
394 2420 394
394 2420 394
394 2420 412
394 2420 520
394 2420 676
394 2420 846
394 2420 983
394 2420 1129
394 2420 1284
394 2420 1444
394 2420 1608
394 2608 1878
394 2801 2159
394 2997 2451
394 3197 2747
394 3399 3049
394 3604 3354
394 3810 3660
394 4018 3927
394 4095 4095
638 2590 394
540 2593 394
463 2596 394
408 2599 394
394 2601 394
394 2602 394
394 2604 394
394 2606 394
394 2607 394
394 2607 394
394 2608 394
394 2608 394
394 2608 394
394 2608 394
394 2608 394
394 2608 443
394 2608 573
394 2608 751
394 2608 916
394 2608 1061
394 2608 1213
394 2608 1372
394 2608 1536
394 2608 1705
394 2801 1981
394 2997 2266
394 3197 2560
394 3399 2859
394 3604 3161
394 3810 3467
394 4018 3774
394 4095 4077
673 2782 394
565 2785 394
480 2788 394
416 2790 394
394 2792 394
394 2794 394
394 2796 394
394 2798 394
394 2799 394
394 2800 394
394 2800 394
394 2801 394
394 2801 394
394 2801 394
394 2801 394
394 2801 394
394 2801 483
394 2801 636
394 2801 833
394 2801 990
394 2801 1140
394 2801 1298
394 2801 1462
394 2801 1630
394 2801 1804
394 2997 2084
394 3197 2372
394 3399 2669
394 3604 2970
394 3810 3274
394 4018 3581
394 4095 3887
711 2976 394
594 2980 394
499 2983 394
427 2986 394
394 2988 394
394 2990 394
394 2991 394
394 2993 394
394 2995 394
394 2996 394
394 2996 394
394 2997 394
394 2997 394
394 2997 394
394 2997 394
394 2997 394
394 2997 411
394 2997 533
394 2997 707
394 2997 917
394 2997 1066
394 2997 1223
394 2997 1386
394 2997 1554
394 2997 1727
394 2997 1904
394 3197 2189
394 3399 2480
394 3604 2779
394 3810 3082
394 4018 3388
394 4095 3694
753 3175 394
626 3178 394
521 3181 394
440 3184 394
394 3187 394
394 3189 394
394 3190 394
394 3192 394
394 3194 394
394 3195 394
394 3196 394
394 3196 394
394 3197 394
394 3197 394
394 3197 394
394 3197 394
394 3197 394
394 3197 444
394 3197 591
394 3197 788
394 3197 990
394 3197 1145
394 3197 1308
394 3197 1476
394 3197 1649
394 3197 1825
394 3197 2006
394 3399 2294
394 3604 2589
394 3810 2890
394 4018 3194
394 4095 3501
798 3376 394
661 3380 394
546 3383 394
455 3386 394
395 3388 394
394 3390 394
394 3392 394
394 3394 394
394 3396 394
394 3397 394
394 3398 394
394 3399 394
394 3399 394
394 3399 394
394 3399 394
394 3399 394
394 3399 394
394 3399 394
394 3399 488
394 3399 658
394 3399 874
394 3399 1067
394 3399 1229
394 3399 1396
394 3399 1568
394 3399 1745
394 3399 1925
394 3399 2108
394 3604 2399
394 3810 2697
394 4018 3001
394 4095 3305
846 3580 394
700 3584 394
573 3587 394
473 3590 394
