OutOfControl/Assets/Art/Sprites/cyberpunk 03 by freeject.net.CUBE
#Created by: Adobe Photoshop Export Color Lookup Plugin
#Copyright: (C) Copyright 2019 freeject.net
TITLE "cyberpunk 03"
#LUT size
LUT_3D_SIZE 8
#data domain
#LUT data points
DOMAIN_MIN 0.000000 0.000000 0.000000
DOMAIN_MAX 0.903226 0.903226 0.903226
0.096161 0.096161 0.096161
0.100494 0.096161 0.098022
0.124664 0.096161 0.102722
0.187958 0.096161 0.109955
0.299561 0.096161 0.119507
0.452698 0.096161 0.131073
0.638428 0.096161 0.144287
0.847748 0.096161 0.158661
0.096588 0.103699 0.096161
0.100586 0.097046 0.096161
0.125916 0.096161 0.096161
0.189575 0.096161 0.096161
0.299561 0.096161 0.096161
0.452698 0.096161 0.096161
0.638428 0.096161 0.096191
0.847748 0.096161 0.096893
0.098816 0.139252 0.096161
0.122681 0.130951 0.096161
0.126343 0.100433 0.096161
0.195068 0.096161 0.096161
0.308044 0.096161 0.096161
0.461334 0.096161 0.096161
0.645721 0.096161 0.096161
0.850800 0.096161 0.096161
0.104431 0.219604 0.096161
0.155579 0.217102 0.096161
0.188507 0.154236 0.096161
0.194458 0.107147 0.096161
0.317352 0.096161 0.096161
0.473053 0.096161 0.096161
0.657562 0.096161 0.096161
0.866089 0.096161 0.096161
0.115509 0.343201 0.096161
0.195160 0.339935 0.096161
0.294281 0.299194 0.096161
0.306366 0.184540 0.096161
0.313721 0.117950 0.096161
0.480621 0.096710 0.096161
0.671631 0.096161 0.096161
0.881165 0.096161 0.096161
0.134552 0.499451 0.096161
0.246613 0.495636 0.096161
0.410034 0.489716 0.096161
0.455505 0.353729 0.096161
0.468079 0.221283 0.096161
0.476166 0.133575 0.096161
0.677124 0.099854 0.096161
0.895966 0.096161 0.096161
0.164307 0.679291 0.096161
0.309509 0.675018 0.096161
0.498047 0.668793 0.096161
0.634247 0.587952 0.096161
0.651276 0.411926 0.096161
0.663666 0.263519 0.096161
0.672058 0.154663 0.096161
0.896576 0.106018 0.096161
0.206512 0.874268 0.096161
0.382477 0.869720 0.096161
0.593719 0.863342 0.096161
0.827271 0.854828 0.096161
0.855164 0.660065 0.096161
0.871063 0.473541 0.096161
0.882935 0.310242 0.096161
0.891235 0.181488 0.096161
0.096161 0.099091 0.117340
0.096161 0.096222 0.117981
0.110962 0.096161 0.185730
0.189514 0.096161 0.216492
0.300659 0.096161 0.203308
0.452698 0.096161 0.218628
0.638428 0.096161 0.245331
0.847748 0.096161 0.272125
0.096161 0.103821 0.106140
0.099426 0.103241 0.116730
0.125000 0.102234 0.131409
0.190613 0.100677 0.147888
0.303925 0.098267 0.167145
0.458221 0.096161 0.188843
0.644836 0.096161 0.211884
0.854462 0.096161 0.235535
0.096161 0.139801 0.096161
0.105377 0.140015 0.110626
0.124878 0.113220 0.113800
0.193054 0.103058 0.112823
0.306335 0.098175 0.110962
0.458221 0.096161 0.113373
0.644836 0.096161 0.122437
0.854462 0.096161 0.132538
0.096161 0.220703 0.096161
0.117584 0.221039 0.101562
0.184082 0.204529 0.100800
0.193054 0.127502 0.108490
0.314697 0.105713 0.106079
0.469055 0.098419 0.103149
0.654785 0.096161 0.098969
0.862427 0.096161 0.096161
0.096161 0.344879 0.096161
0.138977 0.344269 0.096161
0.247467 0.340057 0.096161
0.302399 0.244781 0.096161
0.312164 0.147430 0.101715
0.480438 0.109131 0.098907
0.668243 0.098419 0.096161
0.875153 0.096161 0.096161
0.096161 0.501648 0.096161
0.171509 0.499817 0.096161
0.310944 0.495056 0.096161
0.447906 0.444977 0.096161
0.463318 0.290741 0.096161
0.473969 0.174011 0.096161
0.676056 0.120483 0.096161
0.889771 0.098724 0.096161
0.096161 0.681915 0.096161
0.216431 0.678772 0.096161
0.384857 0.673645 0.096161
0.589752 0.666412 0.096161
0.643494 0.508667 0.096161
0.658447 0.341705 0.096161
0.669128 0.206970 0.096161
0.894623 0.136871 0.096161
0.098206 0.877197 0.096161
0.273193 0.873016 0.096161
0.468445 0.867737 0.096161
0.692291 0.860413 0.096161
0.844696 0.772980 0.096161
0.863190 0.575714 0.096161
0.877289 0.396851 0.096161
0.887634 0.245422 0.096161
0.096161 0.111725 0.186890
0.096161 0.100189 0.188721
0.096161 0.096436 0.189575
0.100769 0.096161 0.306183
0.203186 0.096161 0.441162
0.463043 0.096161 0.555542
0.645721 0.096161 0.530731
0.853912 0.096161 0.506897
0.096161 0.136230 0.183746
0.097473 0.122437 0.186035
0.098724 0.104889 0.188507
0.154968 0.100555 0.300903
0.305908 0.097748 0.340759
0.459625 0.096161 0.321075
0.644836 0.096161 0.339844
0.854462 0.096161 0.372589
0.096161 0.139801 0.136475
0.096649 0.139648 0.158203
0.118713 0.136292 0.184235
0.188354 0.132874 0.213135
0.306000 0.129852 0.239838
0.462128 0.124146 0.268127
0.649811 0.116425 0.297424
0.859955 0.107117 0.327087
0.096161 0.220947 0.106018
0.096161 0.221466 0.110870
0.140289 0.220795 0.168427
0.188477 0.163452 0.175232
0.308899 0.138153 0.173309
0.464935 0.124298 0.169037
0.649689 0.116852 0.175201
0.859894 0.107300 0.194794
0.096161 0.345551 0.096161
0.096161 0.346436 0.096161
0.172180 0.345306 0.144775
0.294342 0.321716 0.142761
0.307251 0.196045 0.163666
0.474457 0.147919 0.158295
0.661713 0.129578 0.152100
0.870544 0.111847 0.143677
0.096161 0.502808 0.096161
0.098206 0.502716 0.096161
0.218781 0.500641 0.121796
0.384979 0.494781 0.115906
0.457916 0.374084 0.127197
0.470032 0.232941 0.147430
0.674286 0.158203 0.140503
0.884491 0.133972 0.131378
0.096161 0.683502 0.096161
0.108551 0.682129 0.096161
0.277222 0.678833 0.098877
0.467804 0.672699 0.096161
0.634644 0.615417 0.096161
0.652191 0.431610 0.112823
0.665222 0.275085 0.128998
0.892181 0.185242 0.121582
0.096161 0.879059 0.096161
0.128418 0.876648 0.096161
0.346588 0.871887 0.096161
0.559265 0.865692 0.096161
0.795746 0.857269 0.096161
0.854309 0.684540 0.096161
0.870728 0.492676 0.096558
0.883270 0.322174 0.109558
0.096161 0.139801 0.301971
0.096161 0.107971 0.305939
0.096161 0.105713 0.306244
0.096161 0.096832 0.307831
0.097107 0.096161 0.455200
0.158325 0.096161 0.608917
0.410828 0.096161 0.767639
0.816162 0.096161 0.925171
0.096161 0.199280 0.295593
0.096161 0.160187 0.300262
0.097198 0.126160 0.304108
0.098419 0.107483 0.306549
0.123718 0.101074 0.451874
0.324463 0.097107 0.601074
0.656586 0.096161 0.721344
0.862457 0.096161 0.693237
0.096161 0.220947 0.290344
0.096161 0.213715 0.294647
0.112762 0.184540 0.298462
0.116608 0.140961 0.303131
0.245483 0.127472 0.443054
0.465118 0.121216 0.487457
0.651611 0.115356 0.461121
0.859985 0.106812 0.480499
0.096161 0.220947 0.189606
0.096161 0.221466 0.221619
0.110107 0.220062 0.257202
0.174225 0.212524 0.293793
0.300751 0.206207 0.331360
0.462158 0.201355 0.363098
0.651855 0.191711 0.396027
0.863037 0.178772 0.429077
0.096161 0.345551 0.146942
0.096161 0.345978 0.158569
0.099854 0.346771 0.168915
0.221283 0.343445 0.268677
0.300110 0.259430 0.278656
0.465302 0.217499 0.275818
0.654999 0.192719 0.269165
0.862823 0.180145 0.277405
0.096161 0.502899 0.096161
0.096161 0.503204 0.096161
0.107300 0.503998 0.128876
0.277954 0.500244 0.232117
0.447144 0.471222 0.228760
0.462280 0.308624 0.261810
0.665070 0.236664 0.254242
0.875336 0.206085 0.244843
0.096161 0.683929 0.096161
0.096161 0.684082 0.096161
0.136261 0.682922 0.102448
0.348022 0.678406 0.194885
0.559631 0.671082 0.184479
0.644836 0.531860 0.204376
0.658813 0.359253 0.237854
0.888275 0.255066 0.227448
0.096161 0.880005 0.096161
0.096161 0.879272 0.096161
0.172577 0.876312 0.096161
0.427795 0.870605 0.153107
0.656921 0.863342 0.141724
0.843842 0.800903 0.140594
0.862640 0.597992 0.181946
0.877380 0.412964 0.208923
0.096161 0.188599 0.445160
0.096161 0.123474 0.451538
0.096161 0.117981 0.452148
0.096161 0.114532 0.452545
0.096161 0.097443 0.454865
0.096680 0.096161 0.619598
0.126740 0.096161 0.788025
0.328247 0.096161 0.949829
0.096161 0.295197 0.435181
0.096161 0.219727 0.442749
0.096283 0.149933 0.449249
0.096436 0.143585 0.449860
0.098145 0.110565 0.453430
0.107819 0.101379 0.618713
0.251923 0.098389 0.779694
0.593689 0.096161 0.939697
0.096161 0.327332 0.432037
0.096161 0.314972 0.433655
0.106476 0.254181 0.440277
0.111511 0.191376 0.446136
0.115326 0.147400 0.450226
0.182312 0.128082 0.612915
0.485657 0.118561 0.768707
0.873230 0.102997 0.890839
0.096161 0.345551 0.408966
0.096161 0.345337 0.427124
0.100433 0.334839 0.432465
0.160858 0.291687 0.436493
0.168579 0.220093 0.443237
0.381622 0.194031 0.599030
0.656830 0.184052 0.645050
0.865143 0.175812 0.612335
0.096161 0.345551 0.261719
0.096161 0.345978 0.300873
0.099854 0.346771 0.343292
0.156128 0.343323 0.386444
0.280060 0.332153 0.427917
0.456085 0.324280 0.470062
0.649475 0.317932 0.503845
0.862793 0.305359 0.539368
0.096161 0.502899 0.205353
0.096161 0.503204 0.238373
0.096161 0.503815 0.254517
0.134827 0.503815 0.267914
0.351837 0.496796 0.394897
0.452698 0.394104 0.407837
0.653137 0.339752 0.404510
0.866394 0.306915 0.396057
0.096161 0.683929 0.118011
0.096161 0.684052 0.128662
0.096161 0.684204 0.136841
0.163269 0.683380 0.206757
0.430389 0.676453 0.351440
0.633362 0.643585 0.346954
0.649567 0.454895 0.387207
0.876648 0.366730 0.378815
0.096161 0.880066 0.096161
0.096161 0.879974 0.096161
0.096161 0.879425 0.096161
0.229431 0.875824 0.161621
0.518524 0.868622 0.305450
0.761475 0.860321 0.292053
0.853424 0.709686 0.318085
0.869446 0.515778 0.358429
0.096161 0.258301 0.605255
0.096161 0.161438 0.613037
0.096161 0.137390 0.615082
0.096161 0.132111 0.615601
0.096161 0.120117 0.616699
0.096161 0.098297 0.619141
0.096375 0.096161 0.793365
0.108307 0.096161 0.967255
0.096161 0.394897 0.593384
0.096161 0.298676 0.602081
0.096161 0.186707 0.611237
0.096161 0.174500 0.612213
0.096161 0.166382 0.612885
0.097870 0.114166 0.617493
0.104980 0.101471 0.792480
0.191223 0.099426 0.962830
0.096161 0.455811 0.587585
0.096161 0.441193 0.589233
0.099731 0.341522 0.598877
0.107605 0.235596 0.607727
0.108521 0.224365 0.608612
0.114288 0.154999 0.614288
0.143433 0.128601 0.789703
0.389099 0.121521 0.951630
0.096161 0.495667 0.583649
0.096161 0.480743 0.585358
0.096161 0.465057 0.587341
0.147736 0.386810 0.594818
0.157440 0.300110 0.602448
0.164978 0.230377 0.608185
0.287994 0.193909 0.780060
0.678040 0.177612 0.936829
0.096161 0.502899 0.510742
0.096161 0.502899 0.559937
0.096161 0.502258 0.579803
0.135742 0.488678 0.585052
0.259247 0.434784 0.588013
0.270447 0.341553 0.596588
0.555664 0.305817 0.760437
0.868164 0.294220 0.803131
0.096161 0.502899 0.346771
0.096161 0.503204 0.391083
0.096161 0.503815 0.437042
0.134827 0.503815 0.485016
0.253082 0.498718 0.532257
0.432159 0.485168 0.575226
0.642365 0.477875 0.617584
0.858490 0.469116 0.654541
0.096161 0.683929 0.278381
0.096161 0.684052 0.320892
0.096161 0.684204 0.360168
0.111145 0.684052 0.377686
0.220581 0.682373 0.392456
0.523529 0.671844 0.536713
0.638275 0.556915 0.552673
0.862976 0.494293 0.548645
0.096161 0.880066 0.179443
0.096161 0.879974 0.197449
0.096161 0.879700 0.212799
0.096161 0.878906 0.223022
0.276764 0.875244 0.318542
0.619019 0.865601 0.490509
0.841766 0.829651 0.484558
0.859589 0.625732 0.528564
0.096161 0.345612 0.774506
0.096161 0.220978 0.783539
0.096161 0.165283 0.787384
0.096161 0.158142 0.787903
0.096161 0.151215 0.788391
0.096161 0.124908 0.790436
0.096161 0.099457 0.792755
0.096222 0.096161 0.970123
0.096161 0.503052 0.761627
0.096161 0.393738 0.770813
0.096161 0.256531 0.781128
0.096161 0.214539 0.784027
0.096161 0.204285 0.784729
0.096161 0.179199 0.786499
0.097595 0.118286 0.791046
0.102631 0.101532 0.969238
0.096161 0.603088 0.752441
0.096161 0.560547 0.756500
0.096161 0.443512 0.766815
0.102997 0.293488 0.778473
0.104401 0.275024 0.779785
0.105347 0.262299 0.780701
0.113373 0.163483 0.787598
0.135437 0.128662 0.966431
0.096161 0.647186 0.748077
0.096161 0.630646 0.749786
0.096161 0.613373 0.751556
0.133636 0.494873 0.762115
0.149231 0.360565 0.773102
0.151001 0.345306 0.774292
0.162201 0.242310 0.781799
0.221832 0.194122 0.960693
0.096161 0.683929 0.736267
0.096161 0.675659 0.745239
0.096161 0.658478 0.747101
0.116119 0.639832 0.748627
0.238831 0.548462 0.755554
0.252747 0.443726 0.764740
0.263611 0.354065 0.771881
0.437256 0.304108 0.946503
0.096161 0.683929 0.616943
0.096161 0.684052 0.668243
0.096161 0.683685 0.720154
0.111053 0.682129 0.740295
0.221588 0.665863 0.744232
0.406525 0.604675 0.745392
0.419769 0.496307 0.755371
0.758636 0.454681 0.921600
0.096161 0.683929 0.440491
0.096161 0.684052 0.488770
0.096161 0.684204 0.537323
0.111145 0.684052 0.586548
0.220581 0.682373 0.636505
0.399811 0.676697 0.686035
0.620819 0.662170 0.728943
0.849762 0.655762 0.771027
0.096161 0.880066 0.362762
0.096161 0.879974 0.410217
0.096161 0.879700 0.456909
0.096161 0.878906 0.498718
0.182739 0.877045 0.516174
0.359863 0.873322 0.532318
0.726440 0.860962 0.689392
0.848236 0.739075 0.705872
0.096161 0.447510 0.946930
0.096161 0.300018 0.956818
0.096161 0.202789 0.962738
0.096161 0.193115 0.963318
0.096161 0.184235 0.963837
0.096161 0.175690 0.964325
0.096161 0.130219 0.967224
0.096161 0.100891 0.969482
0.096161 0.621552 0.933502
0.096161 0.501862 0.942841
0.096161 0.343842 0.953949
0.096161 0.262573 0.959045
0.096161 0.250885 0.959778
0.096161 0.239258 0.960419
0.096161 0.189484 0.963470
0.097321 0.122955 0.967621
0.096161 0.763733 0.920807
0.096161 0.683472 0.928040
0.096161 0.557251 0.938232
0.096710 0.389008 0.950531
0.100098 0.332703 0.954315
0.101074 0.318390 0.955170
0.103790 0.281677 0.957520
0.112427 0.172760 0.964050
0.096161 0.810791 0.916168
0.096161 0.793304 0.917786
0.096161 0.746124 0.921936
0.118530 0.613373 0.932709
0.139923 0.434204 0.946472
0.142609 0.410828 0.948090
0.144501 0.394470 0.949219
0.159882 0.255402 0.958191
0.096161 0.858490 0.911346
0.096161 0.840790 0.913055
0.096161 0.822723 0.914490
0.097504 0.802887 0.915497
0.217194 0.670959 0.925720
0.239746 0.515625 0.938446
0.242188 0.497345 0.939850
0.258392 0.368561 0.948944
0.096161 0.880066 0.884857
0.096161 0.879913 0.900787
0.096161 0.870636 0.909546
0.096161 0.851532 0.910583
0.190674 0.830566 0.910614
0.381073 0.730621 0.916260
0.397217 0.613861 0.926605
0.410126 0.510132 0.934875
0.096161 0.880066 0.725311
0.096161 0.879974 0.778168
0.096161 0.879700 0.830505
0.096161 0.878815 0.883179
0.182526 0.875977 0.901855
0.361359 0.857574 0.903748
0.594025 0.792694 0.903107
0.608246 0.676025 0.914093
0.096161 0.880066 0.540070
0.096161 0.879974 0.591217
0.096161 0.879700 0.641754
0.096161 0.878906 0.691650
0.182739 0.877045 0.741425
0.359863 0.873322 0.791382
0.585846 0.866486 0.840759
0.834320 0.854126 0.885040
