OutOfControl/Assets/Art/Sprites/cyberpunk 03 by freeject.net.CUBE
#Created by: Adobe Photoshop Export Color Lookup Plugin
#Copyright: (C) Copyright 2019 freeject.net
TITLE "cyberpunk 03"
#LUT size
LUT_3D_SIZE 32
#data domain
DOMAIN_MIN 0.0 0.0 0.0
DOMAIN_MAX 1.0 1.0 1.0
#LUT data points
0.096161 0.096161 0.096161
0.096283 0.096161 0.096313
0.096893 0.096161 0.096710
0.098236 0.096161 0.097260
0.100494 0.096161 0.098022
0.103943 0.096161 0.098938
0.108948 0.096161 0.100037
0.115723 0.096161 0.101288
0.124664 0.096161 0.102722
0.136108 0.096161 0.104309
0.150269 0.096161 0.106018
0.167542 0.096161 0.107910
0.187958 0.096161 0.109955
0.211487 0.096161 0.112122
0.238007 0.096161 0.114410
0.267456 0.096161 0.116913
0.299561 0.096161 0.119507
0.334320 0.096161 0.122192
0.371521 0.096161 0.125061
0.411011 0.096161 0.128021
0.452698 0.096161 0.131073
0.496429 0.096161 0.134216
0.542023 0.096161 0.137482
0.589417 0.096161 0.140839
0.638428 0.096161 0.144287
0.688965 0.096161 0.147797
0.740753 0.096161 0.151337
0.793701 0.096161 0.154999
0.847748 0.096161 0.158661
0.902557 0.096161 0.162415
0.958008 0.096161 0.166138
1.000000 0.096161 0.169952
0.096161 0.096466 0.096161
0.096283 0.096191 0.096161
0.096924 0.096161 0.096161
0.098267 0.096161 0.096161
0.100494 0.096161 0.096222
0.103943 0.096161 0.096466
0.108948 0.096161 0.096863
0.115723 0.096161 0.097443
0.124664 0.096161 0.098175
0.136108 0.096161 0.099030
0.150269 0.096161 0.100037
0.167542 0.096161 0.101196
0.187958 0.096161 0.102478
0.211487 0.096161 0.103882
0.238007 0.096161 0.105408
0.267456 0.096161 0.107056
0.299561 0.096161 0.108856
0.334320 0.096161 0.110718
0.371521 0.096161 0.112701
0.411011 0.096161 0.114807
0.452698 0.096161 0.117035
0.496429 0.096161 0.119293
0.542023 0.096161 0.121735
0.589417 0.096161 0.124176
0.638428 0.096161 0.126648
0.688965 0.096161 0.129303
0.740753 0.096161 0.131897
0.793701 0.096161 0.134644
0.847748 0.096161 0.137482
0.902557 0.096161 0.140289
0.958008 0.096161 0.143036
1.000000 0.096161 0.145996
0.096252 0.097595 0.096161
0.096741 0.097351 0.096161
0.096893 0.096344 0.096161
0.098328 0.096191 0.096161
0.100616 0.096161 0.096161
0.104156 0.096161 0.096161
0.109161 0.096161 0.096161
0.115845 0.096161 0.096191
0.124664 0.096161 0.096222
0.136108 0.096161 0.096375
0.150269 0.096161 0.096649
0.167542 0.096161 0.097076
0.187958 0.096161 0.097656
0.211487 0.096161 0.098389
0.238007 0.096161 0.099182
0.267456 0.096161 0.100098
0.299561 0.096161 0.101135
0.334320 0.096161 0.102264
0.371521 0.096161 0.103485
0.411011 0.096161 0.104828
0.452698 0.096161 0.106201
0.496429 0.096161 0.107697
0.542023 0.096161 0.109283
0.589417 0.096161 0.110870
0.638428 0.096161 0.112579
0.688965 0.096161 0.114258
0.740753 0.096161 0.116150
0.793701 0.096161 0.118011
0.847748 0.096161 0.119812
0.902557 0.096161 0.121857
0.958008 0.096161 0.123810
1.000000 0.096161 0.125793
0.096405 0.099945 0.096161
0.097351 0.099884 0.096161
0.098022 0.098083 0.096161
0.098236 0.096619 0.096161
0.100769 0.096252 0.096161
0.104401 0.096191 0.096161
0.109467 0.096161 0.096161
0.116364 0.096161 0.096161
0.125305 0.096161 0.096161
0.136780 0.096161 0.096161
0.150909 0.096161 0.096161
0.167938 0.096161 0.096161
0.187958 0.096161 0.096161
0.211487 0.096161 0.096161
0.238007 0.096161 0.096222
0.267456 0.096161 0.096344
0.299561 0.096161 0.096558
0.334320 0.096161 0.096924
0.371521 0.096161 0.097412
0.411011 0.096161 0.097992
0.452698 0.096161 0.098663
0.496429 0.096161 0.099396
0.542023 0.096161 0.100159
0.589417 0.096161 0.101044
0.638428 0.096161 0.101959
0.688965 0.096161 0.102905
0.740753 0.096161 0.103912
0.793701 0.096161 0.105011
0.847748 0.096161 0.106110
0.902557 0.096161 0.107208
0.958008 0.096161 0.108337
1.000000 0.096161 0.109589
0.096588 0.103699 0.096161
0.098022 0.103607 0.096161
0.099976 0.102356 0.096161
0.100311 0.098999 0.096161
0.100586 0.097046 0.096161
0.104492 0.096405 0.096161
0.109772 0.096222 0.096161
0.116821 0.096161 0.096161
0.125916 0.096161 0.096161
0.137634 0.096161 0.096161
0.151886 0.096161 0.096161
0.169220 0.096161 0.096161
0.189575 0.096161 0.096161
0.212830 0.096161 0.096161
0.238800 0.096161 0.096161
0.268372 0.096161 0.096161
0.299561 0.096161 0.096161
0.334320 0.096161 0.096161
0.371521 0.096161 0.096161
0.411011 0.096161 0.096161
0.452698 0.096161 0.096161
0.496429 0.096161 0.096161
0.542023 0.096161 0.096161
0.589417 0.096161 0.096161
0.638428 0.096161 0.096191
0.688965 0.096161 0.096252
0.740753 0.096161 0.096375
0.793701 0.096161 0.096588
0.847748 0.096161 0.096893
0.902557 0.096161 0.097229
0.958008 0.096161 0.097595
1.000000 0.096161 0.097992
0.096924 0.109222 0.096161
0.098907 0.109100 0.096161
0.102264 0.108917 0.096161
0.103455 0.104156 0.096161
0.103912 0.100128 0.096161
0.104248 0.097595 0.096161
0.109833 0.096680 0.096161
0.117279 0.096283 0.096161
0.126617 0.096191 0.096161
0.138245 0.096161 0.096161
0.152679 0.096161 0.096161
0.170410 0.096161 0.096161
0.191162 0.096161 0.096161
0.214142 0.096161 0.096161
0.241211 0.096161 0.096161
0.270233 0.096161 0.096161
0.301727 0.096161 0.096161
0.335510 0.096161 0.096161
0.372864 0.096161 0.096161
0.411011 0.096161 0.096161
0.452698 0.096161 0.096161
0.496429 0.096161 0.096161
0.542023 0.096161 0.096161
0.589417 0.096161 0.096161
0.638428 0.096161 0.096161
0.688965 0.096161 0.096161
0.740753 0.096161 0.096161
0.793701 0.096161 0.096161
0.847748 0.096161 0.096161
0.902557 0.096161 0.096161
0.958008 0.096161 0.096161
1.000000 0.096161 0.096161
0.097382 0.116760 0.096161
0.099976 0.116577 0.096161
0.104126 0.116364 0.096161
0.107819 0.112915 0.096161
0.108521 0.106201 0.096161
0.109100 0.101471 0.096161
0.109528 0.098358 0.096161
0.117157 0.097076 0.096161
0.127167 0.096344 0.096161
0.139038 0.096222 0.096161
0.153870 0.096161 0.096161
0.171570 0.096161 0.096161
0.192108 0.096161 0.096161
0.216034 0.096161 0.096161
0.242767 0.096161 0.096161
0.272125 0.096161 0.096161
0.303986 0.096161 0.096161
0.338013 0.096161 0.096161
0.375671 0.096161 0.096161
0.414093 0.096161 0.096161
0.456116 0.096161 0.096161
0.498322 0.096161 0.096161
0.544128 0.096161 0.096161
0.589417 0.096161 0.096161
0.638428 0.096161 0.096161
0.688965 0.096161 0.096161
0.740753 0.096161 0.096161
0.793701 0.096161 0.096161
0.847748 0.096161 0.096161
0.902557 0.096161 0.096161
0.958008 0.096161 0.096161
1.000000 0.096161 0.096161
0.097992 0.126678 0.096161
0.101288 0.126495 0.096161
0.106354 0.126221 0.096161
0.113434 0.125885 0.096161
0.114685 0.116211 0.096161
0.115570 0.108582 0.096161
0.116241 0.103058 0.096161
0.116791 0.099304 0.096161
0.126831 0.097626 0.096161
0.139618 0.096527 0.096161
0.154663 0.096222 0.096161
0.172729 0.096161 0.096161
0.193604 0.096161 0.096161
0.217926 0.096161 0.096161
0.244263 0.096161 0.096161
0.273865 0.096161 0.096161
0.306030 0.096161 0.096161
0.340515 0.096161 0.096161
0.378540 0.096161 0.096161
0.417236 0.096161 0.096161
0.457916 0.096161 0.096161
0.502136 0.096161 0.096161
0.546173 0.096161 0.096161
0.593872 0.096161 0.096161
0.640839 0.096161 0.096161
0.691559 0.096161 0.096161
0.743530 0.096161 0.096161
0.793701 0.096161 0.096161
0.847748 0.096161 0.096161
0.902557 0.096161 0.096161
0.958008 0.096161 0.096161
1.000000 0.096161 0.096161
0.098816 0.139252 0.096161
0.102905 0.138977 0.096161
0.108948 0.138672 0.096161
0.117218 0.138275 0.096161
0.122681 0.130951 0.096161
0.123871 0.119843 0.096161
0.124908 0.111237 0.096161
0.125702 0.104858 0.096161
0.126343 0.100433 0.096161
0.139191 0.098358 0.096161
0.155090 0.096832 0.096161
0.173828 0.096252 0.096161
0.195068 0.096161 0.096161
0.219116 0.096161 0.096161
0.246490 0.096161 0.096161
0.276581 0.096161 0.096161
0.308044 0.096161 0.096161
0.342834 0.096161 0.096161
0.381226 0.096161 0.096161
0.420349 0.096161 0.096161
0.461334 0.096161 0.096161
0.503998 0.096161 0.096161
0.550293 0.096161 0.096161
0.596161 0.096161 0.096161
0.645721 0.096161 0.096161
0.694214 0.096161 0.096161
0.746307 0.096161 0.096161
0.799591 0.096161 0.096161
0.850800 0.096161 0.096161
0.905762 0.096161 0.096161
0.961395 0.096161 0.096161
1.000000 0.096161 0.096161
0.099823 0.154755 0.096161
0.104797 0.154449 0.096161
0.111938 0.154083 0.096161
0.121521 0.153564 0.096161
0.132751 0.151398 0.096161
0.134338 0.136108 0.096161
0.135742 0.123840 0.096161
0.136902 0.114197 0.096161
0.137848 0.106964 0.096161
0.138580 0.101746 0.096161
0.154572 0.099243 0.096161
0.173920 0.097321 0.096161
0.196564 0.096252 0.096161
0.220947 0.096161 0.096161
0.247955 0.096161 0.096161
0.278351 0.096161 0.096161
0.311310 0.096161 0.096161
0.345245 0.096161 0.096161
0.382477 0.096161 0.096161
0.423340 0.096161 0.096161
0.464722 0.096161 0.096161
0.507721 0.096161 0.096161
0.552368 0.096161 0.096161
0.600708 0.096161 0.096161
0.648163 0.096161 0.096161
0.699280 0.096161 0.096161
0.748993 0.096161 0.096161
0.802490 0.096161 0.096161
0.853912 0.096161 0.096161
0.908997 0.096161 0.096161
0.964813 0.096161 0.096161
1.000000 0.096161 0.096161
0.101074 0.173370 0.096161
0.107056 0.173004 0.096161
0.115356 0.172577 0.096161
0.126404 0.172028 0.096161
0.140442 0.171387 0.096161
0.147217 0.158295 0.096161
0.149017 0.141724 0.096161
0.150574 0.128235 0.096161
0.151886 0.117493 0.096161
0.152985 0.109314 0.096161
0.153870 0.103302 0.096161
0.173309 0.100311 0.096161
0.196045 0.097900 0.096161
0.222076 0.096405 0.096161
0.250183 0.096161 0.096161
0.280060 0.096161 0.096161
0.313324 0.096161 0.096161
0.347595 0.096161 0.096161
0.385223 0.096161 0.096161
0.424835 0.096161 0.096161
0.466309 0.096161 0.096161
0.511475 0.096161 0.096161
0.556427 0.096161 0.096161
0.602814 0.096161 0.096161
0.652893 0.096161 0.096161
0.701874 0.096161 0.096161
0.751770 0.096161 0.096161
0.805389 0.096161 0.096161
0.859985 0.096161 0.096161
0.912231 0.096161 0.096161
0.968201 0.096161 0.096161
1.000000 0.096161 0.096161
0.102600 0.195038 0.096161
0.109650 0.194611 0.096161
0.119263 0.194122 0.096161
0.131836 0.193512 0.096161
0.147644 0.192780 0.096161
0.162811 0.186768 0.096161
0.165039 0.165710 0.096161
0.167053 0.147736 0.096161
0.168762 0.132996 0.096161
0.170258 0.121155 0.096161
0.171478 0.111969 0.096161
0.172485 0.105103 0.096161
0.195374 0.101593 0.096161
0.221436 0.098724 0.096161
0.250671 0.096649 0.096161
0.281769 0.096161 0.096161
0.315369 0.096161 0.096161
0.349976 0.096161 0.096161
0.387909 0.096161 0.096161
0.427826 0.096161 0.096161
0.469757 0.096161 0.096161
0.513245 0.096161 0.096161
0.558380 0.096161 0.096161
0.607208 0.096161 0.096161
0.655243 0.096161 0.096161
0.704315 0.096161 0.096161
0.757233 0.096161 0.096161
0.808289 0.096161 0.096161
0.863037 0.096161 0.096161
0.915344 0.096161 0.096161
0.971527 0.096161 0.096161
1.000000 0.096161 0.096161
0.104431 0.219604 0.096161
0.112640 0.219147 0.096161
0.123749 0.218567 0.096161
0.137939 0.217896 0.096161
0.155579 0.217102 0.096161
0.177002 0.216217 0.096161
0.183899 0.195923 0.096161
0.186340 0.173523 0.096161
0.188507 0.154236 0.096161
0.190369 0.138153 0.096161
0.191986 0.125183 0.096161
0.193329 0.114929 0.096161
0.194458 0.107147 0.096161
0.220673 0.103027 0.096161
0.250031 0.099640 0.096161
0.282288 0.097076 0.096161
0.317352 0.096161 0.096161
0.352325 0.096161 0.096161
0.390503 0.096161 0.096161
0.430878 0.096161 0.096161
0.473053 0.096161 0.096161
0.516937 0.096161 0.096161
0.562469 0.096161 0.096161
0.609375 0.096161 0.096161
0.657562 0.096161 0.096161
0.709473 0.096161 0.096161
0.759827 0.096161 0.096161
0.814026 0.096161 0.096161
0.866089 0.096161 0.096161
0.921783 0.096161 0.096161
0.974854 0.096161 0.096161
1.000000 0.096161 0.096161
0.106598 0.246887 0.096161
0.116150 0.246338 0.096161
0.128754 0.245728 0.096161
0.144684 0.245026 0.096161
0.164307 0.244141 0.096161
0.187683 0.243225 0.096161
0.205505 0.232147 0.096161
0.208405 0.205475 0.096161
0.210999 0.181793 0.096161
0.213318 0.161163 0.096161
0.215271 0.143768 0.096161
0.216980 0.129486 0.096161
0.218475 0.118164 0.096161
0.219696 0.109436 0.096161
0.249176 0.104706 0.096161
0.281586 0.100739 0.096161
0.316772 0.097626 0.096161
0.354523 0.096161 0.096161
0.393188 0.096161 0.096161
0.433868 0.096161 0.096161
0.474609 0.096161 0.096161
0.520660 0.096161 0.096161
0.564423 0.096161 0.096161
0.613739 0.096161 0.096161
0.662292 0.096161 0.096161
0.711975 0.096161 0.096161
0.762604 0.096161 0.096161
0.816864 0.096161 0.096161
0.869080 0.096161 0.096161
0.924988 0.096161 0.096161
0.978119 0.096161 0.096161
1.000000 0.096161 0.096161
0.109131 0.276672 0.096161
0.120117 0.276123 0.096161
0.134338 0.275452 0.096161
0.152161 0.274689 0.096161
0.173828 0.273773 0.096161
0.199219 0.272766 0.096161
0.227997 0.271606 0.096161
0.233185 0.243256 0.096161
0.236206 0.215454 0.096161
0.238892 0.190521 0.096161
0.241302 0.168518 0.096161
0.243378 0.149811 0.096161
0.245209 0.134216 0.096161
0.246765 0.121765 0.096161
0.248108 0.112000 0.096161
0.280640 0.106598 0.096161
0.315948 0.102051 0.096161
0.353821 0.098389 0.096161
0.394196 0.096222 0.096161
0.435242 0.096161 0.096161
0.477905 0.096161 0.096161
0.522430 0.096161 0.096161
0.568390 0.096161 0.096161
0.615845 0.096161 0.096161
0.664581 0.096161 0.096161
0.714417 0.096161 0.096161
0.767944 0.096161 0.096161
0.819763 0.096161 0.096161
0.872040 0.096161 0.096161
0.928131 0.096161 0.096161
0.981415 0.096161 0.096161
1.000000 0.096161 0.096161
0.112091 0.308838 0.096161
0.124603 0.308228 0.096161
0.140594 0.307526 0.096161
0.160370 0.306702 0.096161
0.184021 0.305786 0.096161
0.211395 0.304688 0.096161
0.242126 0.303467 0.096161
0.260559 0.286285 0.096161
0.264008 0.254730 0.096161
0.267120 0.225800 0.096161
0.269897 0.199615 0.096161
0.272369 0.176331 0.096161
0.274567 0.156189 0.096161
0.276428 0.139343 0.096161
0.278107 0.125641 0.096161
0.279510 0.114838 0.096161
0.314972 0.108765 0.096161
0.352997 0.103546 0.096161
0.393524 0.099243 0.096161
0.436310 0.096375 0.096161
0.481262 0.096161 0.096161
0.526031 0.096161 0.096161
0.572479 0.096161 0.096161
0.620270 0.096161 0.096161
0.669342 0.096161 0.096161
0.719574 0.096161 0.096161
0.770630 0.096161 0.096161
0.822601 0.096161 0.096161
0.878174 0.096161 0.096161
0.931274 0.096161 0.096161
0.984650 0.096161 0.096161
1.000000 0.096161 0.096161
0.115509 0.343201 0.096161
0.129669 0.342529 0.096161
0.147552 0.341797 0.096161
0.169403 0.340942 0.096161
0.195160 0.339935 0.096161
0.224426 0.338837 0.096161
0.257019 0.337555 0.096161
0.290405 0.333923 0.096161
0.294281 0.299194 0.096161
0.297760 0.266663 0.096161
0.300934 0.236603 0.096161
0.303802 0.209167 0.096161
0.306366 0.184540 0.096161
0.308594 0.163086 0.096161
0.310577 0.144836 0.096161
0.312256 0.129883 0.096161
0.313721 0.117950 0.096161
0.351929 0.111145 0.096161
0.392578 0.105255 0.096161
0.435516 0.100311 0.096161
0.480621 0.096710 0.096161
0.527740 0.096161 0.096161
0.574310 0.096161 0.096161
0.622314 0.096161 0.096161
0.671631 0.096161 0.096161
0.721954 0.096161 0.096161
0.773285 0.096161 0.096161
0.828339 0.096161 0.096161
0.881165 0.096161 0.096161
0.934418 0.096161 0.096161
0.991394 0.096161 0.096161
1.000000 0.096161 0.096161
0.119415 0.379578 0.096161
0.135345 0.378937 0.096161
0.155182 0.378113 0.096161
0.179199 0.377228 0.096161
0.206940 0.376190 0.096161
0.238159 0.375031 0.096161
0.272644 0.373718 0.096161
0.309814 0.372284 0.096161
0.326904 0.348145 0.096161
0.330750 0.312408 0.096161
0.334320 0.278931 0.096161
0.337555 0.247681 0.096161
0.340424 0.219116 0.096161
0.343018 0.193237 0.096161
0.345337 0.170380 0.096161
0.347351 0.150787 0.096161
0.349152 0.134491 0.096161
0.350677 0.121368 0.096161
0.391449 0.113800 0.096161
0.434570 0.107147 0.096161
0.479797 0.101532 0.096161
0.527039 0.097229 0.096161
0.576080 0.096161 0.096161
0.624420 0.096161 0.096161
0.673859 0.096161 0.096161
0.724365 0.096161 0.096161
0.778656 0.096161 0.096161
0.831085 0.096161 0.096161
0.884094 0.096161 0.096161
0.937622 0.096161 0.096161
0.994629 0.096161 0.096161
1.000000 0.096161 0.096161
0.123871 0.417816 0.096161
0.141693 0.417114 0.096161
0.163574 0.416321 0.096161
0.189697 0.415344 0.096161
0.219452 0.414246 0.096161
0.252594 0.413055 0.096161
0.288696 0.411743 0.096161
0.327820 0.410248 0.096161
0.361694 0.401154 0.096161
0.365997 0.362488 0.096161
0.369904 0.325928 0.096161
0.373505 0.291351 0.096161
0.376709 0.259033 0.096161
0.379669 0.229309 0.096161
0.382294 0.202209 0.096161
0.384644 0.178070 0.096161
0.386749 0.157074 0.096161
0.388550 0.139465 0.096161
0.390167 0.125092 0.096161
0.433411 0.116669 0.096161
0.478821 0.109283 0.096161
0.526184 0.102966 0.096161
0.575378 0.097931 0.096161
0.626221 0.096161 0.096161
0.678589 0.096161 0.096161
0.729462 0.096161 0.096161
0.781250 0.096161 0.096161
0.833893 0.096161 0.096161
0.887085 0.096161 0.096161
0.943939 0.096161 0.096161
0.997925 0.096161 0.096161
1.000000 0.096161 0.096161
0.128937 0.457825 0.096161
0.148743 0.457092 0.096161
0.172760 0.456207 0.096161
0.200989 0.455261 0.096161
0.232635 0.454132 0.096161
0.267670 0.452911 0.096161
0.305573 0.451538 0.096161
0.346313 0.449982 0.096161
0.389557 0.448334 0.096161
0.403381 0.416626 0.096161
0.407623 0.377136 0.096161
0.411530 0.339691 0.096161
0.415131 0.304108 0.096161
0.418396 0.270844 0.096161
0.421356 0.239899 0.096161
0.424042 0.211487 0.096161
0.426422 0.186157 0.096161
0.428528 0.163757 0.096161
0.430420 0.144836 0.096161
0.432037 0.129150 0.096161
0.477600 0.119904 0.096161
0.525116 0.111725 0.096161
0.574432 0.104553 0.096161
0.625427 0.098846 0.096161
0.677917 0.096161 0.096161
0.731750 0.096161 0.096161
0.783844 0.096161 0.096161
0.836609 0.096161 0.096161
0.889923 0.096161 0.096161
0.946960 0.096161 0.096161
1.000000 0.096161 0.096161
1.000000 0.096161 0.096161
0.134552 0.499451 0.096161
0.156464 0.498718 0.096161
0.182770 0.497772 0.096161
0.212891 0.496765 0.096161
0.246613 0.495636 0.096161
0.283478 0.494354 0.096161
0.323151 0.492920 0.096161
0.365509 0.491425 0.096161
0.410034 0.489716 0.096161
0.442749 0.474243 0.096161
0.447357 0.432343 0.096161
0.451569 0.391998 0.096161
0.455505 0.353729 0.096161
0.459137 0.317230 0.096161
0.462402 0.282837 0.096161
0.465302 0.250824 0.096161
0.468079 0.221283 0.096161
0.470459 0.194550 0.096161
0.472595 0.170959 0.096161
0.474518 0.150543 0.096161
0.476166 0.133575 0.096161
0.523865 0.123444 0.096161
0.573334 0.114380 0.096161
0.624481 0.106445 0.096161
0.677124 0.099854 0.096161
0.731049 0.096161 0.096161
0.786285 0.096161 0.096161
0.842316 0.096161 0.096161
0.895966 0.096161 0.096161
0.950073 0.096161 0.096161
1.000000 0.096161 0.096161
1.000000 0.096161 0.096161
0.140930 0.542542 0.096161
0.164948 0.541718 0.096161
0.193420 0.540833 0.096161
0.225708 0.539734 0.096161
0.261322 0.538605 0.096161
0.299896 0.537292 0.096161
0.341217 0.535889 0.096161
0.385071 0.534302 0.096161
0.431183 0.532562 0.096161
0.479492 0.530731 0.096161
0.488922 0.490967 0.096161
0.493500 0.448364 0.096161
0.497681 0.407318 0.096161
0.501617 0.367828 0.096161
0.505188 0.330383 0.096161
0.508484 0.295074 0.096161
0.511414 0.261963 0.096161
0.514160 0.231323 0.096161
0.516571 0.203400 0.096161
0.518738 0.178375 0.096161
0.520691 0.156616 0.096161
0.522400 0.138336 0.096161
0.572052 0.127258 0.096161
0.623352 0.117249 0.096161
0.676117 0.108490 0.096161
0.730225 0.101135 0.096161
0.785522 0.096252 0.096161
0.841797 0.096161 0.096161
0.898865 0.096161 0.096161
0.953125 0.096161 0.096161
1.000000 0.096161 0.096161
1.000000 0.096161 0.096161
0.147919 0.586945 0.096161
0.174225 0.586090 0.096161
0.204834 0.585175 0.096161
0.239258 0.584076 0.096161
0.276703 0.582886 0.096161
0.317078 0.581512 0.096161
0.360046 0.580109 0.096161
0.405396 0.578491 0.096161
0.452911 0.576782 0.096161
0.502777 0.574890 0.096161
0.532288 0.552460 0.096161
0.537170 0.507721 0.096161
0.541656 0.464386 0.096161
0.545837 0.422607 0.096161
0.549713 0.382446 0.096161
0.553314 0.343964 0.096161
0.556549 0.307709 0.096161
0.559509 0.273560 0.096161
0.562256 0.241791 0.096161
0.564697 0.212616 0.096161
0.566925 0.186218 0.096161
0.568848 0.163086 0.096161
0.570557 0.143433 0.096161
0.622009 0.131317 0.096161
0.674988 0.120453 0.096161
0.729218 0.110718 0.096161
0.784637 0.102539 0.096161
0.841064 0.096588 0.096161
0.898254 0.096161 0.096161
0.956177 0.096161 0.096161
1.000000 0.096161 0.096161
1.000000 0.096161 0.096161
0.155731 0.632568 0.096161
0.184357 0.631714 0.096161
0.217072 0.630707 0.096161
0.253296 0.629608 0.096161
0.292664 0.628418 0.096161
0.334747 0.627045 0.096161
0.379333 0.625610 0.096161
0.426422 0.623962 0.096161
0.475433 0.622192 0.096161
0.526245 0.620331 0.096161
0.577301 0.616699 0.096161
0.582458 0.570160 0.096161
0.587219 0.524750 0.096161
0.591675 0.480713 0.096161
0.595825 0.438110 0.096161
0.599640 0.397156 0.096161
0.603180 0.357941 0.096161
0.606476 0.320465 0.096161
0.609436 0.285248 0.096161
0.612122 0.252380 0.096161
0.614624 0.222015 0.096161
0.616791 0.194458 0.096161
0.618774 0.169952 0.096161
0.620514 0.148865 0.096161
0.673615 0.135742 0.096161
0.728027 0.123871 0.096161
0.783630 0.113251 0.096161
0.840179 0.104156 0.096161
0.897491 0.097229 0.096161
0.955475 0.096161 0.096161
1.000000 0.096161 0.096161
1.000000 0.096161 0.096161
0.164307 0.679291 0.096161
0.195251 0.678375 0.096161
0.229980 0.677368 0.096161
0.268250 0.676239 0.096161
0.309509 0.675018 0.096161
0.353119 0.673645 0.096161
0.399414 0.672180 0.096161
0.447845 0.670532 0.096161
0.498047 0.668793 0.096161
0.550232 0.666870 0.096161
0.604187 0.664795 0.096161
0.629181 0.635254 0.096161
0.634247 0.587952 0.096161
0.638977 0.541809 0.096161
0.643372 0.497223 0.096161
0.647430 0.453827 0.096161
0.651276 0.411926 0.096161
0.654785 0.371979 0.096161
0.658020 0.333679 0.096161
0.660980 0.297424 0.096161
0.663666 0.263519 0.096161
0.666107 0.231934 0.096161
0.668365 0.203003 0.096161
0.670319 0.177216 0.096161
0.672058 0.154663 0.096161
0.726624 0.140503 0.096161
0.782410 0.127625 0.096161
0.839111 0.116058 0.096161
0.896576 0.106018 0.096161
0.954712 0.098083 0.096161
1.000000 0.096161 0.096161
1.000000 0.096161 0.096161
0.173676 0.726837 0.096161
0.206879 0.725952 0.096161
0.243774 0.724945 0.096161
0.283966 0.723816 0.096161
0.326691 0.722565 0.096161
0.372162 0.721161 0.096161
0.419891 0.719696 0.096161
0.469727 0.718048 0.096161
0.521454 0.716248 0.096161
0.574890 0.714325 0.096161
0.629517 0.712250 0.096161
0.677277 0.702332 0.096161
0.682587 0.653625 0.096161
0.687561 0.605835 0.096161
0.692230 0.559174 0.096161
0.696564 0.513702 0.096161
0.700623 0.469879 0.096161
0.704376 0.427216 0.096161
0.707825 0.386200 0.096161
0.711029 0.347015 0.096161
0.713959 0.309814 0.096161
0.716644 0.274719 0.096161
0.719086 0.242157 0.096161
0.721313 0.212006 0.096161
0.723297 0.184814 0.096161
0.725037 0.160858 0.096161
0.781036 0.145569 0.096161
0.837860 0.131714 0.096161
0.895477 0.119049 0.096161
0.953766 0.108063 0.096161
1.000000 0.099121 0.096161
1.000000 0.096161 0.096161
0.183807 0.775391 0.096161
0.219299 0.774414 0.096161
0.258118 0.773407 0.096161
0.300171 0.772217 0.096161
0.344727 0.770966 0.096161
0.391907 0.769592 0.096161
0.440918 0.768036 0.096161
0.492218 0.766418 0.096161
0.544922 0.764648 0.096161
0.599701 0.762726 0.096161
0.655487 0.760620 0.096161
0.712830 0.758423 0.096161
0.732300 0.721405 0.096161
0.737488 0.672089 0.096161
0.742340 0.624084 0.096161
0.746918 0.576691 0.096161
0.751160 0.530487 0.096161
0.755157 0.485809 0.096161
0.758850 0.442383 0.096161
0.762238 0.400726 0.096161
0.765411 0.360504 0.096161
0.768341 0.322510 0.096161
0.770996 0.286285 0.096161
0.773438 0.252563 0.096161
0.775696 0.221161 0.096161
0.777618 0.192810 0.096161
0.779419 0.167389 0.096161
0.836487 0.151001 0.096161
0.894226 0.135956 0.096161
0.952698 0.122345 0.096161
1.000000 0.110352 0.096161
1.000000 0.100403 0.096161
0.194794 0.824524 0.096161
0.232361 0.823547 0.096161
0.273132 0.822479 0.096161
0.317017 0.821350 0.096161
0.363373 0.820038 0.096161
0.411774 0.818634 0.096161
0.462555 0.817108 0.096161
0.515106 0.815460 0.096161
0.569427 0.813660 0.096161
0.624786 0.811768 0.096161
0.681885 0.809723 0.096161
0.740112 0.807465 0.096161
0.783051 0.790771 0.096161
0.788452 0.740387 0.096161
0.793518 0.690704 0.096161
0.798279 0.642181 0.096161
