OutOfControl/Assets/Art/Sprites/cyberpunk 03 by freeject.net.CUBE
#Created by: Adobe Photoshop Export Color Lookup Plugin
#Copyright: (C) Copyright 2019 freeject.net
TITLE "cyberpunk 03"
#LUT size
LUT_3D_SIZE 5
#data domain
#LUT data points
DOMAIN_MIN 0.000000 0.000000 0.000000
DOMAIN_MAX 0.903226 0.903226 0.903226
0.096161 0.096161 0.096161
0.115723 0.096161 0.101288
0.238007 0.096161 0.114410
0.496429 0.096161 0.134216
0.847748 0.096161 0.158661
0.097992 0.126678 0.096161
0.116791 0.099304 0.096161
0.244263 0.096161 0.096161
0.502136 0.096161 0.096161
0.847748 0.096161 0.096161
0.109131 0.276672 0.096161
0.233185 0.243256 0.096161
0.248108 0.112000 0.096161
0.522430 0.096161 0.096161
0.872040 0.096161 0.096161
0.140930 0.542542 0.096161
0.385071 0.534302 0.096161
0.505188 0.330383 0.096161
0.522400 0.138336 0.096161
0.898865 0.096161 0.096161
0.206512 0.874268 0.096161
0.538483 0.865143 0.096161
0.845581 0.759521 0.096161
0.874359 0.430237 0.096161
0.891235 0.181488 0.096161
0.096161 0.107330 0.164551
0.096161 0.096344 0.166595
0.169006 0.096161 0.367554
0.502136 0.096161 0.442780
0.850800 0.096161 0.403229
0.096161 0.127106 0.126801
0.111328 0.124512 0.162750
0.242706 0.120087 0.206879
0.505554 0.111389 0.253540
0.858795 0.098450 0.303101
0.096161 0.278503 0.096161
0.145905 0.278748 0.134430
0.242950 0.167114 0.148407
0.514954 0.120758 0.140930
0.865723 0.097900 0.128510
0.096161 0.545959 0.096161
0.218597 0.543243 0.101135
0.492462 0.492798 0.097626
0.517426 0.225922 0.124115
0.888794 0.128967 0.111969
0.096161 0.878632 0.096161
0.327545 0.872223 0.096161
0.709167 0.860352 0.096161
0.861023 0.607727 0.096161
0.884460 0.301636 0.097351
0.096161 0.161407 0.370880
0.096161 0.111755 0.376404
0.096161 0.097107 0.378571
0.117096 0.096161 0.657990
0.549683 0.096161 0.938934
0.096161 0.264496 0.360626
0.103027 0.209167 0.367279
0.109039 0.132324 0.375061
0.377106 0.112518 0.642761
0.865845 0.097107 0.722168
0.096161 0.278503 0.223724
0.098572 0.279297 0.289001
0.220825 0.267548 0.358582
0.505554 0.256592 0.423401
0.863312 0.236328 0.483337
0.096161 0.546326 0.115875
0.096161 0.546875 0.130493
0.330383 0.541962 0.298584
0.503937 0.364319 0.327454
0.873657 0.266418 0.313293
0.096161 0.880066 0.096161
0.096161 0.878998 0.096161
0.471863 0.869720 0.223267
0.843536 0.808075 0.210999
0.873688 0.463165 0.279816
0.096161 0.278564 0.646942
0.096161 0.144958 0.657471
0.096161 0.135101 0.658264
0.096161 0.098572 0.661926
0.100128 0.096161 0.969940
0.096161 0.481049 0.629150
0.096161 0.354431 0.641083
0.101624 0.224854 0.651642
0.107697 0.143585 0.658020
0.238434 0.115723 0.961029
0.096161 0.546326 0.615845
0.096161 0.525665 0.625214
0.190796 0.437103 0.633179
0.209076 0.284576 0.646362
0.698425 0.230072 0.934509
0.096161 0.546326 0.369476
0.096161 0.546875 0.449768
0.177856 0.546387 0.534698
0.476318 0.527527 0.613220
0.856689 0.514038 0.683624
0.096161 0.880066 0.235840
0.096161 0.879791 0.270050
0.122772 0.878174 0.292511
0.645386 0.864594 0.539581
0.856873 0.653809 0.572571
0.096161 0.447510 0.946930
0.096161 0.212433 0.962189
0.096161 0.188812 0.963593
0.096161 0.173767 0.964447
0.096161 0.100891 0.969482
0.096161 0.752075 0.921875
0.096161 0.543304 0.939423
0.096344 0.317657 0.955353
0.097260 0.294006 0.956818
0.106445 0.157257 0.965149
0.096161 0.834595 0.913788
0.096161 0.803375 0.916565
0.158569 0.641937 0.929474
0.184082 0.457367 0.944000
0.202271 0.308289 0.954071
0.096161 0.880066 0.865723
0.096161 0.879608 0.901581
0.126373 0.853668 0.909515
0.430328 0.746002 0.913391
0.455780 0.549652 0.930359
0.096161 0.880066 0.540070
0.096161 0.879791 0.629150
0.122772 0.878174 0.716522
0.412659 0.871948 0.803864
0.834320 0.854126 0.885040
